;FLAVOR:Marlin
;TIME:2196
;Filament used: 3.36299m
;Layer height: 0.3
;MINX:66.38
;MINY:76.73
;MINZ:0.3
;MAXX:113.62
;MAXY:103.27
;MAXZ:41.4
;Generated with Cura_SteamEngine 4.12.1
M82 ;absolute extrusion mode
G21 ;metric values
G90 ;absolute positioning
M82 ;set extruder to absolute mode
M107 ;start with the fan off

M104 S200 T0 ; start heating T0 to what is set in Cura
M140 S60 ; start heating the bed to what is set in Cura
M190 S60 ; start heating the bed to what is set in Cura
M109 S200 T0 ; start heating T0 to what is set in Cura

G28 X0 Y0 ;move X/Y to min endstops
G28 Z0 ;move Z to min endstops
G1 Z15.0 F2400 ;move the platform down 15mm
G92 E0 ;zero the extruded length
G1 F200 E3 ;extrude 3mm of feed stock
G92 E0 ;zero the extruded length again
G1 F2400
G0 Y20 F2400
M117 Printing...
G5
G92 E0
G92 E0
G1 F2400 E-1.2
;LAYER_COUNT:138
;LAYER:0
M107
G0 F3000 X73.507 Y78.728 Z0.3
;TYPE:SKIRT
G1 F2400 E0
G1 F1500 X74.056 Y78.234 E0.03665
G1 X74.656 Y77.804 E0.07329
G1 X75.299 Y77.44 E0.10996
G1 X75.977 Y77.148 E0.14659
G1 X76.683 Y76.932 E0.18323
G1 X77.408 Y76.792 E0.21988
G1 X78.329 Y76.73 E0.26569
G1 X101.671 Y76.73 E1.42412
G1 X102.408 Y76.77 E1.46075
G1 X103.137 Y76.889 E1.4974
G1 X103.848 Y77.087 E1.53403
G1 X104.534 Y77.36 E1.57067
G1 X105.187 Y77.706 E1.60735
G1 X105.798 Y78.12 E1.64398
G1 X106.493 Y78.728 E1.6898
G1 X106.622 Y78.857 E1.69886
G1 X107.116 Y79.406 E1.73551
G1 X107.546 Y80.006 E1.77215
G1 X107.91 Y80.649 E1.80881
G1 X108.202 Y81.327 E1.84545
G1 X108.418 Y82.033 E1.88209
G1 X108.558 Y82.758 E1.91874
G1 X108.62 Y83.679 E1.96455
G1 X108.62 Y87.94 E2.17601
G1 X110.585 Y89.277 E2.29397
G1 X111.172 Y89.725 E2.33061
G1 X111.708 Y90.234 E2.3673
G1 X112.185 Y90.797 E2.40392
G1 X112.772 Y91.716 E2.45804
G1 X112.823 Y91.812 E2.46343
G1 X113.133 Y92.482 E2.50007
G1 X113.37 Y93.182 E2.53675
G1 X113.529 Y93.903 E2.57339
G1 X113.61 Y94.637 E2.61004
G1 X113.62 Y95.012 E2.62865
G1 X113.62 Y96.321 E2.69362
G1 X113.58 Y97.058 E2.73025
G1 X113.461 Y97.787 E2.76691
G1 X113.263 Y98.498 E2.80353
G1 X112.99 Y99.184 E2.84018
G1 X112.644 Y99.837 E2.87685
G1 X112.23 Y100.448 E2.91348
G1 X111.622 Y101.143 E2.95931
G1 X111.493 Y101.272 E2.96836
G1 X110.944 Y101.766 E3.00501
G1 X110.344 Y102.196 E3.04165
G1 X109.701 Y102.56 E3.07832
G1 X109.023 Y102.852 E3.11495
G1 X108.317 Y103.068 E3.15159
G1 X107.592 Y103.208 E3.18824
G1 X106.671 Y103.27 E3.23405
G1 X73.329 Y103.27 E4.88876
G1 X72.592 Y103.23 E4.92539
G1 X71.863 Y103.111 E4.96205
G1 X71.152 Y102.913 E4.99868
G1 X70.466 Y102.64 E5.03532
G1 X69.813 Y102.294 E5.07199
G1 X69.202 Y101.88 E5.10862
G1 X68.507 Y101.272 E5.15445
G1 X68.378 Y101.143 E5.1635
G1 X67.884 Y100.594 E5.20016
G1 X67.454 Y99.994 E5.23679
G1 X67.09 Y99.351 E5.27346
G1 X66.798 Y98.673 E5.3101
G1 X66.582 Y97.967 E5.34674
G1 X66.442 Y97.242 E5.38338
G1 X66.38 Y96.321 E5.42919
G1 X66.38 Y95.012 E5.49416
G1 X66.42 Y94.275 E5.53079
G1 X66.539 Y93.546 E5.56744
G1 X66.737 Y92.835 E5.60407
G1 X67.01 Y92.149 E5.64071
G1 X67.228 Y91.716 E5.66477
G1 X67.609 Y91.084 E5.7014
G1 X68.057 Y90.497 E5.73804
G1 X68.565 Y89.961 E5.77469
G1 X69.415 Y89.277 E5.82884
G1 X71.38 Y87.94 E5.94679
G1 X71.38 Y83.679 E6.15826
G1 X71.42 Y82.942 E6.19489
G1 X71.539 Y82.213 E6.23155
G1 X71.737 Y81.502 E6.26818
G1 X72.01 Y80.816 E6.30482
G1 X72.356 Y80.163 E6.34149
G1 X72.77 Y79.552 E6.37812
G1 X73.378 Y78.857 E6.42395
G1 X73.507 Y78.728 E6.433
G0 F3000 X73.818 Y79.039
G1 F1500 X74.35 Y78.563 E6.46843
G1 X74.932 Y78.149 E6.50388
G1 X75.557 Y77.804 E6.53931
G1 X76.217 Y77.53 E6.57477
G1 X76.903 Y77.331 E6.61022
G1 X77.607 Y77.211 E6.64566
G1 X78.329 Y77.17 E6.68155
G1 X101.671 Y77.17 E7.83998
G1 X102.384 Y77.21 E7.87542
G1 X103.088 Y77.329 E7.91085
G1 X103.774 Y77.527 E7.94629
G1 X104.434 Y77.8 E7.98173
G1 X105.06 Y78.144 E8.01718
G1 X105.643 Y78.557 E8.05264
G1 X106.182 Y79.039 E8.08852
G1 X106.311 Y79.168 E8.09758
G1 X106.787 Y79.7 E8.13301
G1 X107.201 Y80.282 E8.16845
G1 X107.546 Y80.907 E8.20388
G1 X107.82 Y81.567 E8.23935
G1 X108.019 Y82.253 E8.2748
G1 X108.139 Y82.957 E8.31024
G1 X108.18 Y83.679 E8.34613
G1 X108.18 Y88.173 E8.56916
G1 X110.338 Y89.641 E8.69869
G1 X110.905 Y90.075 E8.73412
G1 X111.42 Y90.57 E8.76957
G1 X111.876 Y91.119 E8.80499
G1 X112.383 Y91.923 E8.85216
G1 X112.434 Y92.019 E8.85756
G1 X112.734 Y92.667 E8.893
G1 X112.958 Y93.345 E8.92843
G1 X113.106 Y94.044 E8.96389
G1 X113.18 Y95.012 E9.01207
G1 X113.18 Y96.321 E9.07704
G1 X113.14 Y97.034 E9.11248
G1 X113.021 Y97.738 E9.14791
G1 X112.823 Y98.424 E9.18335
G1 X112.55 Y99.084 E9.21879
G1 X112.206 Y99.71 E9.25424
G1 X111.793 Y100.293 E9.2897
G1 X111.311 Y100.832 E9.32559
G1 X111.182 Y100.961 E9.33464
G1 X110.65 Y101.437 E9.37007
G1 X110.068 Y101.851 E9.40551
G1 X109.443 Y102.196 E9.44094
G1 X108.783 Y102.47 E9.47641
G1 X108.097 Y102.669 E9.51186
G1 X107.393 Y102.789 E9.5473
G1 X106.671 Y102.83 E9.58319
G1 X73.329 Y102.83 E11.2379
G1 X72.616 Y102.79 E11.27334
G1 X71.912 Y102.671 E11.30877
G1 X71.226 Y102.473 E11.34421
G1 X70.566 Y102.2 E11.37965
G1 X69.94 Y101.856 E11.4151
G1 X69.357 Y101.443 E11.45056
G1 X68.818 Y100.961 E11.48645
G1 X68.689 Y100.832 E11.4955
G1 X68.213 Y100.3 E11.53093
G1 X67.799 Y99.718 E11.56637
G1 X67.454 Y99.093 E11.6018
G1 X67.18 Y98.433 E11.63727
G1 X66.981 Y97.747 E11.67272
G1 X66.861 Y97.043 E11.70816
G1 X66.82 Y96.321 E11.74405
G1 X66.82 Y95.012 E11.80901
G1 X66.86 Y94.299 E11.84445
G1 X66.979 Y93.595 E11.87989
G1 X67.177 Y92.909 E11.91532
G1 X67.566 Y92.019 E11.96353
G1 X67.617 Y91.923 E11.96892
G1 X67.987 Y91.312 E12.00437
G1 X68.422 Y90.746 E12.0398
G1 X68.919 Y90.233 E12.07524
G1 X69.662 Y89.641 E12.12239
G1 X71.82 Y88.173 E12.25192
G1 X71.82 Y83.679 E12.47495
G1 X71.86 Y82.966 E12.51039
G1 X71.979 Y82.262 E12.54583
G1 X72.177 Y81.576 E12.58126
G1 X72.45 Y80.916 E12.61671
G1 X72.794 Y80.29 E12.65216
G1 X73.207 Y79.707 E12.68761
G1 X73.689 Y79.168 E12.7235
G1 X73.818 Y79.039 E12.73255
G0 F3000 X74.129 Y79.35
G1 F1500 X74.643 Y78.892 E12.76672
G1 X75.208 Y78.496 E12.80096
G1 X75.814 Y78.169 E12.83513
G1 X76.454 Y77.914 E12.86933
G1 X77.119 Y77.734 E12.90352
G1 X77.801 Y77.634 E12.93772
G1 X78.329 Y77.61 E12.96395
G1 X101.671 Y77.61 E14.12238
G1 X102.359 Y77.65 E14.15658
G1 X103.038 Y77.769 E14.19079
G1 X103.698 Y77.966 E14.22498
G1 X104.331 Y78.239 E14.25919
G1 X104.928 Y78.583 E14.29338
G1 X105.481 Y78.993 E14.32755
G1 X105.871 Y79.35 E14.35379
G1 X106 Y79.479 E14.36284
G1 X106.458 Y79.993 E14.39701
G1 X106.854 Y80.558 E14.43125
G1 X107.181 Y81.164 E14.46542
G1 X107.436 Y81.804 E14.49961
G1 X107.616 Y82.469 E14.5338
G1 X107.716 Y83.151 E14.56801
G1 X107.74 Y83.679 E14.59424
G1 X107.74 Y88.406 E14.82884
G1 X110.09 Y90.005 E14.9699
G1 X110.637 Y90.425 E15.00413
G1 X111.13 Y90.905 E15.03828
G1 X111.565 Y91.44 E15.0725
G1 X111.995 Y92.129 E15.1128
G1 X112.046 Y92.225 E15.1182
G1 X112.333 Y92.851 E15.15237
G1 X112.546 Y93.507 E15.1866
G1 X112.682 Y94.182 E15.22078
G1 X112.74 Y95.012 E15.26207
G1 X112.74 Y96.321 E15.32703
G1 X112.7 Y97.009 E15.36123
G1 X112.581 Y97.688 E15.39544
G1 X112.384 Y98.348 E15.42963
G1 X112.111 Y98.981 E15.46384
G1 X111.767 Y99.578 E15.49803
G1 X111.357 Y100.131 E15.5322
G1 X111 Y100.521 E15.55844
G1 X110.871 Y100.65 E15.56749
G1 X110.357 Y101.108 E15.60166
G1 X109.792 Y101.504 E15.6359
G1 X109.186 Y101.831 E15.67007
G1 X108.546 Y102.086 E15.70426
G1 X107.881 Y102.266 E15.73845
G1 X107.199 Y102.366 E15.77266
G1 X106.671 Y102.39 E15.79889
G1 X73.329 Y102.39 E17.4536
G1 X72.641 Y102.35 E17.48781
G1 X71.962 Y102.231 E17.52202
G1 X71.302 Y102.034 E17.5562
G1 X70.669 Y101.761 E17.59041
G1 X70.072 Y101.417 E17.62461
G1 X69.519 Y101.007 E17.65877
G1 X69.129 Y100.65 E17.68501
G1 X69 Y100.521 E17.69406
G1 X68.542 Y100.007 E17.72823
G1 X68.146 Y99.442 E17.76247
G1 X67.819 Y98.836 E17.79665
G1 X67.564 Y98.196 E17.83084
G1 X67.384 Y97.531 E17.86503
G1 X67.284 Y96.849 E17.89924
G1 X67.26 Y96.321 E17.92547
G1 X67.26 Y95.012 E17.99043
G1 X67.3 Y94.324 E18.02463
G1 X67.419 Y93.645 E18.05884
G1 X67.616 Y92.985 E18.09303
G1 X67.954 Y92.225 E18.13431
G1 X68.005 Y92.129 E18.1397
G1 X68.363 Y91.54 E18.17391
G1 X68.787 Y90.997 E18.2081
G1 X69.271 Y90.507 E18.24228
G1 X69.91 Y90.005 E18.28261
G1 X72.26 Y88.406 E18.42367
G1 X72.26 Y83.679 E18.65826
G1 X72.3 Y82.991 E18.69247
G1 X72.419 Y82.312 E18.72668
G1 X72.616 Y81.652 E18.76086
G1 X72.889 Y81.019 E18.79507
G1 X73.233 Y80.422 E18.82927
G1 X73.643 Y79.869 E18.86343
G1 X74 Y79.479 E18.88967
G1 X74.129 Y79.35 E18.89873
G0 F3000 X74.44 Y79.661
G1 F1500 X74.936 Y79.221 E18.93163
G1 X75.482 Y78.844 E18.96456
G1 X76.069 Y78.536 E18.99746
G1 X76.688 Y78.3 E19.03034
G1 X77.332 Y78.141 E19.06326
G1 X77.99 Y78.06 E19.09616
G1 X78.329 Y78.05 E19.11299
G1 X101.671 Y78.05 E20.27141
G1 X102.333 Y78.09 E20.30433
G1 X102.985 Y78.209 E20.33722
G1 X103.618 Y78.406 E20.37012
G1 X104.223 Y78.678 E20.40304
G1 X104.791 Y79.02 E20.43595
G1 X105.313 Y79.429 E20.46886
G1 X105.689 Y79.79 E20.49473
G1 X106.129 Y80.286 E20.52763
G1 X106.506 Y80.832 E20.56056
G1 X106.814 Y81.419 E20.59346
G1 X107.05 Y82.038 E20.62634
G1 X107.209 Y82.682 E20.65926
G1 X107.29 Y83.34 E20.69216
G1 X107.3 Y83.679 E20.70899
G1 X107.3 Y88.639 E20.95515
G1 X109.843 Y90.369 E21.10779
G1 X110.367 Y90.774 E21.14065
G1 X110.84 Y91.239 E21.17357
G1 X111.252 Y91.758 E21.20646
G1 X111.606 Y92.336 E21.2401
G1 X111.657 Y92.432 E21.24549
G1 X111.932 Y93.035 E21.27838
G1 X112.133 Y93.667 E21.3113
G1 X112.256 Y94.318 E21.34417
G1 X112.3 Y95.012 E21.37869
G1 X112.3 Y96.321 E21.44365
G1 X112.26 Y96.983 E21.47656
G1 X112.141 Y97.635 E21.50946
G1 X111.944 Y98.268 E21.54236
G1 X111.672 Y98.873 E21.57528
G1 X111.33 Y99.441 E21.60818
G1 X110.921 Y99.963 E21.64109
G1 X110.56 Y100.339 E21.66696
G1 X110.064 Y100.779 E21.69987
G1 X109.518 Y101.156 E21.73279
G1 X108.931 Y101.464 E21.76569
G1 X108.312 Y101.7 E21.79857
G1 X107.668 Y101.859 E21.83149
G1 X107.01 Y101.94 E21.86439
G1 X106.671 Y101.95 E21.88122
G1 X73.329 Y101.95 E23.53593
G1 X72.667 Y101.91 E23.56885
G1 X72.015 Y101.791 E23.60174
G1 X71.382 Y101.594 E23.63464
G1 X70.777 Y101.322 E23.66756
G1 X70.209 Y100.98 E23.70046
G1 X69.687 Y100.571 E23.73338
G1 X69.311 Y100.21 E23.75924
G1 X68.871 Y99.714 E23.79215
G1 X68.494 Y99.168 E23.82508
G1 X68.186 Y98.581 E23.85798
G1 X67.95 Y97.962 E23.89085
G1 X67.791 Y97.318 E23.92377
G1 X67.71 Y96.66 E23.95668
G1 X67.7 Y96.321 E23.97351
G1 X67.7 Y95.012 E24.03847
G1 X67.74 Y94.35 E24.07139
G1 X67.859 Y93.698 E24.10428
G1 X68.056 Y93.065 E24.13718
G1 X68.343 Y92.432 E24.17167
G1 X68.394 Y92.336 E24.17707
G1 X68.74 Y91.77 E24.20999
G1 X69.151 Y91.25 E24.24288
G1 X69.622 Y90.783 E24.2758
G1 X70.157 Y90.369 E24.30937
G1 X72.7 Y88.639 E24.46201
G1 X72.7 Y83.679 E24.70817
G1 X72.74 Y83.017 E24.74108
G1 X72.859 Y82.365 E24.77398
G1 X73.056 Y81.732 E24.80688
G1 X73.328 Y81.127 E24.8398
G1 X73.67 Y80.559 E24.8727
G1 X74.079 Y80.037 E24.90561
G1 X74.44 Y79.661 E24.93148
G0 F3000 X74.751 Y79.972
G1 F1500 X75.228 Y79.552 E24.96302
G1 X75.754 Y79.194 E24.9946
G1 X76.321 Y78.906 E25.02616
G1 X76.919 Y78.69 E25.05772
G1 X77.54 Y78.552 E25.08929
G1 X78.329 Y78.49 E25.12856
G1 X101.671 Y78.49 E26.28699
G1 X102.306 Y78.53 E26.31857
G1 X102.93 Y78.649 E26.35009
G1 X103.535 Y78.846 E26.38167
G1 X104.11 Y79.117 E26.41322
G1 X104.647 Y79.458 E26.44479
G1 X105.249 Y79.972 E26.48407
G1 X105.378 Y80.101 E26.49312
G1 X105.798 Y80.578 E26.52467
G1 X106.156 Y81.104 E26.55624
G1 X106.444 Y81.671 E26.5878
G1 X106.66 Y82.269 E26.61936
G1 X106.798 Y82.89 E26.65093
G1 X106.86 Y83.679 E26.69021
G1 X106.86 Y88.871 E26.94788
G1 X109.595 Y90.732 E27.11205
G1 X110.098 Y91.122 E27.14364
G1 X110.547 Y91.572 E27.17519
G1 X110.936 Y92.075 E27.20675
G1 X111.218 Y92.542 E27.23382
G1 X111.269 Y92.638 E27.23922
G1 X111.531 Y93.217 E27.27076
G1 X111.719 Y93.825 E27.30234
G1 X111.829 Y94.451 E27.33388
G1 X111.86 Y95.012 E27.36177
G1 X111.86 Y96.321 E27.42673
G1 X111.82 Y96.956 E27.45831
G1 X111.701 Y97.58 E27.48983
G1 X111.504 Y98.185 E27.52141
G1 X111.233 Y98.76 E27.55296
G1 X110.892 Y99.297 E27.58453
G1 X110.378 Y99.899 E27.62381
G1 X110.249 Y100.028 E27.63286
G1 X109.772 Y100.448 E27.66441
G1 X109.246 Y100.806 E27.69598
G1 X108.679 Y101.094 E27.72754
G1 X108.081 Y101.31 E27.7591
G1 X107.46 Y101.448 E27.79067
G1 X106.671 Y101.51 E27.82995
G1 X73.329 Y101.51 E29.48466
G1 X72.694 Y101.47 E29.51623
G1 X72.07 Y101.351 E29.54776
G1 X71.465 Y101.154 E29.57934
G1 X70.89 Y100.883 E29.61088
G1 X70.353 Y100.542 E29.64245
G1 X69.751 Y100.028 E29.68174
G1 X69.622 Y99.899 E29.69079
G1 X69.202 Y99.422 E29.72233
G1 X68.844 Y98.896 E29.75391
G1 X68.556 Y98.329 E29.78547
G1 X68.34 Y97.731 E29.81703
G1 X68.202 Y97.11 E29.8486
G1 X68.14 Y96.321 E29.88787
G1 X68.14 Y95.012 E29.95284
G1 X68.18 Y94.377 E29.98441
G1 X68.299 Y93.753 E30.01594
G1 X68.496 Y93.148 E30.04752
G1 X68.731 Y92.638 E30.07539
G1 X68.782 Y92.542 E30.08078
G1 X69.115 Y92 E30.11235
G1 X69.514 Y91.505 E30.1439
G1 X69.971 Y91.063 E30.17546
G1 X70.405 Y90.732 E30.20254
G1 X73.14 Y88.871 E30.36672
G1 X73.14 Y83.679 E30.62439
G1 X73.18 Y83.044 E30.65597
G1 X73.299 Y82.42 E30.68749
G1 X73.496 Y81.815 E30.71907
G1 X73.767 Y81.24 E30.75062
G1 X74.108 Y80.703 E30.78219
G1 X74.622 Y80.101 E30.82147
G1 X74.751 Y79.972 E30.83052
G0 F3000 X75.062 Y80.283
G1 F1500 X75.519 Y79.883 E30.86067
G1 X76.025 Y79.546 E30.89084
G1 X76.57 Y79.278 E30.92098
G1 X77.146 Y79.084 E30.95114
G1 X77.742 Y78.967 E30.98129
G1 X78.329 Y78.93 E31.01047
G1 X101.671 Y78.93 E32.1689
G1 X102.277 Y78.97 E32.19904
G1 X102.873 Y79.089 E32.2292
G1 X103.448 Y79.285 E32.25935
G1 X103.992 Y79.556 E32.28951
G1 X104.497 Y79.895 E32.3197
G1 X104.938 Y80.283 E32.34885
G1 X105.067 Y80.412 E32.3579
G1 X105.467 Y80.869 E32.38805
G1 X105.804 Y81.375 E32.41822
G1 X106.072 Y81.92 E32.44836
G1 X106.266 Y82.496 E32.47852
G1 X106.383 Y83.092 E32.50866
G1 X106.42 Y83.679 E32.53785
G1 X106.42 Y89.104 E32.80709
G1 X109.348 Y91.096 E32.98284
G1 X109.827 Y91.47 E33.013
G1 X110.252 Y91.904 E33.04315
G1 X110.617 Y92.39 E33.07331
G1 X110.88 Y92.845 E33.09939
G1 X111.129 Y93.399 E33.12954
G1 X111.303 Y93.981 E33.15968
G1 X111.4 Y94.581 E33.18985
G1 X111.42 Y95.012 E33.21126
G1 X111.42 Y96.321 E33.27622
G1 X111.38 Y96.927 E33.30636
G1 X111.261 Y97.523 E33.33653
G1 X111.065 Y98.098 E33.36667
G1 X110.794 Y98.642 E33.39684
G1 X110.455 Y99.147 E33.42702
G1 X110.067 Y99.588 E33.45617
G1 X109.938 Y99.717 E33.46523
G1 X109.481 Y100.117 E33.49537
G1 X108.975 Y100.454 E33.52554
G1 X108.43 Y100.722 E33.55568
G1 X107.854 Y100.916 E33.58584
G1 X107.258 Y101.033 E33.61599
G1 X106.671 Y101.07 E33.64518
G1 X73.329 Y101.07 E35.29989
G1 X72.723 Y101.03 E35.33003
G1 X72.127 Y100.911 E35.36019
G1 X71.552 Y100.715 E35.39034
G1 X71.008 Y100.444 E35.4205
G1 X70.503 Y100.105 E35.45068
G1 X70.062 Y99.717 E35.47984
G1 X69.933 Y99.588 E35.48889
G1 X69.533 Y99.131 E35.51903
G1 X69.196 Y98.625 E35.5492
G1 X68.928 Y98.08 E35.57934
G1 X68.734 Y97.504 E35.60951
G1 X68.617 Y96.908 E35.63965
G1 X68.58 Y96.321 E35.66884
G1 X68.58 Y95.012 E35.7338
G1 X68.62 Y94.406 E35.76394
G1 X68.739 Y93.81 E35.79411
G1 X68.935 Y93.235 E35.82425
G1 X69.171 Y92.749 E35.85107
G1 X69.491 Y92.232 E35.88124
G1 X69.876 Y91.762 E35.91139
G1 X70.319 Y91.346 E35.94155
G1 X70.652 Y91.096 E35.96222
G1 X73.58 Y89.104 E36.13797
G1 X73.58 Y83.679 E36.4072
G1 X73.62 Y83.073 E36.43735
G1 X73.739 Y82.477 E36.46751
G1 X73.935 Y81.902 E36.49766
G1 X74.206 Y81.358 E36.52782
G1 X74.545 Y80.853 E36.558
G1 X74.933 Y80.412 E36.58716
G1 X75.062 Y80.283 E36.59621
G0 F3000 X75.373 Y80.594
G1 F1500 X75.809 Y80.215 E36.62488
G1 X76.293 Y79.899 E36.65357
G1 X76.816 Y79.653 E36.68225
G1 X77.368 Y79.482 E36.71093
G1 X77.939 Y79.388 E36.73965
G1 X78.329 Y79.37 E36.75902
G1 X101.671 Y79.37 E37.91745
G1 X102.248 Y79.41 E37.94615
G1 X102.813 Y79.529 E37.97481
G1 X103.357 Y79.725 E38.00351
G1 X103.868 Y79.994 E38.03216
G1 X104.338 Y80.331 E38.06087
G1 X104.756 Y80.723 E38.08931
G1 X105.135 Y81.159 E38.11798
G1 X105.451 Y81.643 E38.14666
G1 X105.697 Y82.166 E38.17535
G1 X105.868 Y82.718 E38.20403
G1 X105.962 Y83.289 E38.23274
G1 X105.98 Y83.679 E38.25212
G1 X105.98 Y89.337 E38.53292
