;FLAVOR:Marlin
;TIME:5826
;Filament used: 9.89688m
;Layer height: 0.3
;MINX:62.19
;MINY:64.222
;MINZ:0.3
;MAXX:117.81
;MAXY:116.498
;MAXZ:45.9
;Generated with Cura_SteamEngine 4.12.1
M82 ;absolute extrusion mode
G21 ;metric values
G90 ;absolute positioning
M82 ;set extruder to absolute mode
M107 ;start with the fan off

M104 S200 T0 ; start heating T0 to what is set in Cura
M140 S60 ; start heating the bed to what is set in Cura
M190 S60 ; start heating the bed to what is set in Cura
M109 S200 T0 ; start heating T0 to what is set in Cura

G28 X0 Y0 ;move X/Y to min endstops
G28 Z0 ;move Z to min endstops
G1 Z15.0 F2400 ;move the platform down 15mm
G92 E0 ;zero the extruded length
G1 F200 E3 ;extrude 3mm of feed stock
G92 E0 ;zero the extruded length again
G1 F2400
G0 Y20 F2400
M117 Printing...
G5
G92 E0
G92 E0
G1 F2400 E-1.2
;LAYER_COUNT:153
;LAYER:0
M107
G0 F3000 X64.317 Y66.22 Z0.3
;TYPE:SKIRT
G1 F2400 E0
G1 F1500 X64.866 Y65.726 E0.03665
G1 X65.466 Y65.296 E0.07329
G1 X66.109 Y64.932 E0.10996
G1 X66.787 Y64.64 E0.14659
G1 X67.493 Y64.424 E0.18323
G1 X68.218 Y64.284 E0.21988
G1 X69.139 Y64.222 E0.26569
G1 X110.861 Y64.222 E2.33628
G1 X111.598 Y64.262 E2.37291
G1 X112.327 Y64.381 E2.40957
G1 X113.038 Y64.579 E2.4462
G1 X113.724 Y64.852 E2.48284
G1 X114.377 Y65.198 E2.51952
G1 X114.988 Y65.612 E2.55615
G1 X115.683 Y66.22 E2.60197
G1 X115.812 Y66.349 E2.61103
G1 X116.306 Y66.898 E2.64768
G1 X116.736 Y67.498 E2.68431
G1 X117.1 Y68.141 E2.72098
G1 X117.392 Y68.819 E2.75762
G1 X117.608 Y69.525 E2.79426
G1 X117.748 Y70.25 E2.83091
G1 X117.81 Y71.171 E2.87672
G1 X117.81 Y93.313 E3.97559
G1 X117.77 Y94.05 E4.01222
G1 X117.651 Y94.779 E4.04888
G1 X117.453 Y95.49 E4.08551
G1 X117.18 Y96.176 E4.12215
G1 X116.834 Y96.829 E4.15882
G1 X116.42 Y97.44 E4.19545
G1 X115.812 Y98.135 E4.24128
G1 X115.683 Y98.264 E4.25033
G1 X115.134 Y98.758 E4.28698
G1 X114.534 Y99.188 E4.32362
G1 X113.891 Y99.552 E4.36029
G1 X113.213 Y99.844 E4.39692
G1 X112.507 Y100.06 E4.43357
G1 X111.782 Y100.2 E4.47021
G1 X110.861 Y100.262 E4.51602
G1 X108.82 Y100.262 E4.61731
G1 X108.82 Y101.068 E4.65731
G1 X110.785 Y102.405 E4.77527
G1 X111.372 Y102.853 E4.81191
G1 X111.908 Y103.362 E4.8486
G1 X112.385 Y103.925 E4.88522
G1 X112.972 Y104.844 E4.93934
G1 X113.023 Y104.94 E4.94473
G1 X113.333 Y105.61 E4.98137
G1 X113.57 Y106.31 E5.01805
G1 X113.729 Y107.031 E5.05469
G1 X113.81 Y107.765 E5.09134
G1 X113.82 Y108.14 E5.10995
G1 X113.82 Y109.549 E5.17988
G1 X113.78 Y110.286 E5.21651
G1 X113.661 Y111.015 E5.25317
G1 X113.463 Y111.726 E5.2898
G1 X113.19 Y112.412 E5.32644
G1 X112.844 Y113.065 E5.36311
G1 X112.43 Y113.676 E5.39974
G1 X111.822 Y114.371 E5.44557
G1 X111.693 Y114.5 E5.45462
G1 X111.144 Y114.994 E5.49128
G1 X110.544 Y115.424 E5.52791
G1 X109.901 Y115.788 E5.56458
G1 X109.223 Y116.08 E5.60122
G1 X108.517 Y116.296 E5.63786
G1 X107.792 Y116.436 E5.6745
G1 X106.871 Y116.498 E5.72031
G1 X73.129 Y116.498 E7.39487
G1 X72.392 Y116.458 E7.4315
G1 X71.663 Y116.339 E7.46816
G1 X70.952 Y116.141 E7.50479
G1 X70.266 Y115.868 E7.54143
G1 X69.613 Y115.522 E7.57811
G1 X69.002 Y115.108 E7.61474
G1 X68.307 Y114.5 E7.66056
G1 X68.178 Y114.371 E7.66962
G1 X67.684 Y113.822 E7.70627
G1 X67.254 Y113.222 E7.7429
G1 X66.89 Y112.579 E7.77957
G1 X66.598 Y111.901 E7.81621
G1 X66.382 Y111.195 E7.85285
G1 X66.242 Y110.47 E7.88949
G1 X66.18 Y109.549 E7.93531
G1 X66.18 Y108.14 E8.00523
G1 X66.22 Y107.403 E8.04186
G1 X66.339 Y106.674 E8.07852
G1 X66.537 Y105.963 E8.11515
G1 X66.81 Y105.277 E8.15179
G1 X67.028 Y104.844 E8.17585
G1 X67.409 Y104.212 E8.21247
G1 X67.857 Y103.625 E8.24912
G1 X68.365 Y103.089 E8.28577
G1 X69.215 Y102.405 E8.33992
G1 X71.18 Y101.068 E8.45787
G1 X71.18 Y100.262 E8.49787
G1 X69.139 Y100.262 E8.59916
G1 X68.402 Y100.222 E8.63579
G1 X67.673 Y100.103 E8.67245
G1 X66.962 Y99.905 E8.70908
G1 X66.276 Y99.632 E8.74572
G1 X65.623 Y99.286 E8.78239
G1 X65.012 Y98.872 E8.81902
G1 X64.317 Y98.264 E8.86485
G1 X64.188 Y98.135 E8.8739
G1 X63.694 Y97.586 E8.91056
G1 X63.264 Y96.986 E8.94719
G1 X62.9 Y96.343 E8.98386
G1 X62.608 Y95.665 E9.0205
G1 X62.392 Y94.959 E9.05714
G1 X62.252 Y94.234 E9.09378
G1 X62.19 Y93.313 E9.13959
G1 X62.19 Y71.171 E10.23847
G1 X62.23 Y70.434 E10.2751
G1 X62.349 Y69.705 E10.31175
G1 X62.547 Y68.994 E10.34838
G1 X62.82 Y68.308 E10.38502
G1 X63.166 Y67.655 E10.4217
G1 X63.58 Y67.044 E10.45833
G1 X64.188 Y66.349 E10.50415
G1 X64.317 Y66.22 E10.51321
G0 F3000 X64.628 Y66.531
G1 F1500 X65.16 Y66.055 E10.54864
G1 X65.742 Y65.641 E10.58408
G1 X66.367 Y65.296 E10.61951
G1 X67.027 Y65.022 E10.65498
G1 X67.713 Y64.823 E10.69043
G1 X68.417 Y64.703 E10.72587
G1 X69.139 Y64.662 E10.76176
G1 X110.861 Y64.662 E12.83235
G1 X111.574 Y64.702 E12.86779
G1 X112.278 Y64.821 E12.90323
G1 X112.964 Y65.019 E12.93866
G1 X113.624 Y65.292 E12.97411
G1 X114.25 Y65.636 E13.00956
G1 X114.833 Y66.049 E13.04502
G1 X115.372 Y66.531 E13.0809
G1 X115.501 Y66.66 E13.08995
G1 X115.977 Y67.192 E13.12538
G1 X116.391 Y67.774 E13.16083
G1 X116.736 Y68.399 E13.19626
G1 X117.01 Y69.059 E13.23172
G1 X117.209 Y69.745 E13.26717
G1 X117.329 Y70.449 E13.30261
G1 X117.37 Y71.171 E13.3385
G1 X117.37 Y93.313 E14.43737
G1 X117.33 Y94.026 E14.47282
G1 X117.211 Y94.73 E14.50825
G1 X117.013 Y95.416 E14.54368
G1 X116.74 Y96.076 E14.57913
G1 X116.396 Y96.702 E14.61458
G1 X115.983 Y97.285 E14.65004
G1 X115.501 Y97.824 E14.68592
G1 X115.372 Y97.953 E14.69498
G1 X114.84 Y98.429 E14.7304
G1 X114.258 Y98.843 E14.76585
G1 X113.633 Y99.188 E14.80128
G1 X112.973 Y99.462 E14.83675
G1 X112.287 Y99.661 E14.87219
G1 X111.583 Y99.781 E14.90764
G1 X110.861 Y99.822 E14.94353
G1 X108.38 Y99.822 E15.06665
G1 X108.38 Y101.301 E15.14005
G1 X110.538 Y102.769 E15.26958
G1 X111.105 Y103.203 E15.30502
G1 X111.62 Y103.698 E15.34047
G1 X112.076 Y104.247 E15.37589
G1 X112.583 Y105.051 E15.42306
G1 X112.634 Y105.147 E15.42846
G1 X112.934 Y105.795 E15.46389
G1 X113.158 Y106.473 E15.49933
G1 X113.306 Y107.172 E15.53479
G1 X113.38 Y108.14 E15.58297
G1 X113.38 Y109.549 E15.6529
G1 X113.34 Y110.262 E15.68834
G1 X113.221 Y110.966 E15.72377
G1 X113.023 Y111.652 E15.75921
G1 X112.75 Y112.312 E15.79465
G1 X112.406 Y112.938 E15.8301
G1 X111.993 Y113.521 E15.86556
G1 X111.511 Y114.06 E15.90144
G1 X111.382 Y114.189 E15.9105
G1 X110.85 Y114.665 E15.94593
G1 X110.268 Y115.079 E15.98137
G1 X109.643 Y115.424 E16.0168
G1 X108.983 Y115.698 E16.05227
G1 X108.297 Y115.897 E16.08772
G1 X107.593 Y116.017 E16.12316
G1 X106.871 Y116.058 E16.15905
G1 X73.129 Y116.058 E17.83361
G1 X72.416 Y116.018 E17.86905
G1 X71.712 Y115.899 E17.90448
G1 X71.026 Y115.701 E17.93992
G1 X70.366 Y115.428 E17.97536
G1 X69.74 Y115.084 E18.01081
G1 X69.157 Y114.671 E18.04627
G1 X68.618 Y114.189 E18.08216
G1 X68.489 Y114.06 E18.09121
G1 X68.013 Y113.528 E18.12664
G1 X67.599 Y112.946 E18.16208
G1 X67.254 Y112.321 E18.19751
G1 X66.98 Y111.661 E18.23298
G1 X66.781 Y110.975 E18.26843
G1 X66.661 Y110.271 E18.30387
G1 X66.62 Y109.549 E18.33976
G1 X66.62 Y108.14 E18.40969
G1 X66.66 Y107.427 E18.44513
G1 X66.779 Y106.723 E18.48056
G1 X66.977 Y106.037 E18.51599
G1 X67.366 Y105.147 E18.5642
G1 X67.417 Y105.051 E18.56959
G1 X67.787 Y104.44 E18.60504
G1 X68.222 Y103.874 E18.64047
G1 X68.719 Y103.361 E18.67592
G1 X69.462 Y102.769 E18.72307
G1 X71.62 Y101.301 E18.85259
G1 X71.62 Y99.822 E18.92599
G1 X69.139 Y99.822 E19.04912
G1 X68.426 Y99.782 E19.08456
G1 X67.722 Y99.663 E19.12
G1 X67.036 Y99.465 E19.15543
G1 X66.376 Y99.192 E19.19088
G1 X65.75 Y98.848 E19.22633
G1 X65.167 Y98.435 E19.26179
G1 X64.628 Y97.953 E19.29767
G1 X64.499 Y97.824 E19.30672
G1 X64.023 Y97.292 E19.34215
G1 X63.609 Y96.71 E19.3776
G1 X63.264 Y96.085 E19.41303
G1 X62.99 Y95.425 E19.44849
G1 X62.791 Y94.739 E19.48394
G1 X62.671 Y94.035 E19.51938
G1 X62.63 Y93.313 E19.55527
G1 X62.63 Y71.171 E20.65414
G1 X62.67 Y70.458 E20.68959
G1 X62.789 Y69.754 E20.72502
G1 X62.987 Y69.068 E20.76045
G1 X63.26 Y68.408 E20.7959
G1 X63.604 Y67.782 E20.83135
G1 X64.017 Y67.199 E20.86681
G1 X64.499 Y66.66 E20.90269
G1 X64.628 Y66.531 E20.91175
G0 F3000 X64.939 Y66.842
G1 F1500 X65.453 Y66.384 E20.94591
G1 X66.018 Y65.988 E20.98015
G1 X66.624 Y65.661 E21.01433
G1 X67.264 Y65.406 E21.04852
G1 X67.929 Y65.226 E21.08271
G1 X68.611 Y65.126 E21.11692
G1 X69.139 Y65.102 E21.14315
G1 X110.861 Y65.102 E23.21374
G1 X111.549 Y65.142 E23.24795
G1 X112.228 Y65.261 E23.28216
G1 X112.888 Y65.458 E23.31634
G1 X113.521 Y65.731 E23.35055
G1 X114.118 Y66.075 E23.38475
G1 X114.671 Y66.485 E23.41891
G1 X115.061 Y66.842 E23.44515
G1 X115.19 Y66.971 E23.4542
G1 X115.648 Y67.485 E23.48837
G1 X116.044 Y68.05 E23.52261
G1 X116.371 Y68.656 E23.55679
G1 X116.626 Y69.296 E23.59098
G1 X116.806 Y69.961 E23.62517
G1 X116.906 Y70.643 E23.65938
G1 X116.93 Y71.171 E23.68561
G1 X116.93 Y93.313 E24.78448
G1 X116.89 Y94.001 E24.81868
G1 X116.771 Y94.68 E24.85289
G1 X116.574 Y95.34 E24.88707
G1 X116.301 Y95.973 E24.92129
G1 X115.957 Y96.57 E24.95548
G1 X115.547 Y97.123 E24.98965
G1 X115.19 Y97.513 E25.01589
G1 X115.061 Y97.642 E25.02494
G1 X114.547 Y98.1 E25.05911
G1 X113.982 Y98.496 E25.09335
G1 X113.376 Y98.823 E25.12752
G1 X112.736 Y99.078 E25.16171
G1 X112.071 Y99.258 E25.1959
G1 X111.389 Y99.358 E25.23011
G1 X110.861 Y99.382 E25.25634
G1 X107.94 Y99.382 E25.40131
G1 X107.94 Y101.534 E25.50811
G1 X110.29 Y103.133 E25.64917
G1 X110.837 Y103.553 E25.6834
G1 X111.33 Y104.033 E25.71754
G1 X111.765 Y104.568 E25.75177
G1 X112.195 Y105.257 E25.79207
G1 X112.246 Y105.353 E25.79747
G1 X112.533 Y105.979 E25.83164
G1 X112.746 Y106.635 E25.86587
G1 X112.882 Y107.31 E25.90005
G1 X112.94 Y108.14 E25.94134
G1 X112.94 Y109.549 E26.01126
G1 X112.9 Y110.237 E26.04547
G1 X112.781 Y110.916 E26.07968
G1 X112.584 Y111.576 E26.11386
G1 X112.311 Y112.209 E26.14807
G1 X111.967 Y112.806 E26.18227
G1 X111.557 Y113.359 E26.21643
G1 X111.2 Y113.749 E26.24267
G1 X111.071 Y113.878 E26.25172
G1 X110.557 Y114.336 E26.28589
G1 X109.992 Y114.732 E26.32013
G1 X109.386 Y115.059 E26.35431
G1 X108.746 Y115.314 E26.3885
G1 X108.081 Y115.494 E26.42269
G1 X107.399 Y115.594 E26.4569
G1 X106.871 Y115.618 E26.48313
G1 X73.129 Y115.618 E28.15769
G1 X72.441 Y115.578 E28.19189
G1 X71.762 Y115.459 E28.2261
G1 X71.102 Y115.262 E28.26028
G1 X70.469 Y114.989 E28.2945
G1 X69.872 Y114.645 E28.32869
G1 X69.319 Y114.235 E28.36285
G1 X68.929 Y113.878 E28.38909
G1 X68.8 Y113.749 E28.39815
G1 X68.342 Y113.235 E28.43231
G1 X67.946 Y112.67 E28.46656
G1 X67.619 Y112.064 E28.50073
G1 X67.364 Y111.424 E28.53492
G1 X67.184 Y110.759 E28.56911
G1 X67.084 Y110.077 E28.60332
G1 X67.06 Y109.549 E28.62955
G1 X67.06 Y108.14 E28.69948
G1 X67.1 Y107.452 E28.73368
G1 X67.219 Y106.773 E28.76789
G1 X67.416 Y106.113 E28.80207
G1 X67.754 Y105.353 E28.84335
G1 X67.805 Y105.257 E28.84875
G1 X68.163 Y104.668 E28.88295
G1 X68.587 Y104.125 E28.91714
G1 X69.071 Y103.635 E28.95133
G1 X69.71 Y103.133 E28.99165
G1 X72.06 Y101.534 E29.13272
G1 X72.06 Y99.382 E29.23952
G1 X69.139 Y99.382 E29.38448
G1 X68.451 Y99.342 E29.41868
G1 X67.772 Y99.223 E29.4529
G1 X67.112 Y99.026 E29.48708
G1 X66.479 Y98.753 E29.52129
G1 X65.882 Y98.409 E29.55549
G1 X65.329 Y97.999 E29.58965
G1 X64.939 Y97.642 E29.61589
G1 X64.81 Y97.513 E29.62494
G1 X64.352 Y96.999 E29.65911
G1 X63.956 Y96.434 E29.69335
G1 X63.629 Y95.828 E29.72753
G1 X63.374 Y95.188 E29.76172
G1 X63.194 Y94.523 E29.79591
G1 X63.094 Y93.841 E29.83012
G1 X63.07 Y93.313 E29.85635
G1 X63.07 Y71.171 E30.95522
G1 X63.11 Y70.483 E30.98942
G1 X63.229 Y69.804 E31.02363
G1 X63.426 Y69.144 E31.05781
G1 X63.699 Y68.511 E31.09203
G1 X64.043 Y67.914 E31.12622
G1 X64.453 Y67.361 E31.16038
G1 X64.81 Y66.971 E31.18662
G1 X64.939 Y66.842 E31.19568
G0 F3000 X65.25 Y67.153
G1 F1500 X65.746 Y66.713 E31.22858
G1 X66.292 Y66.336 E31.26151
G1 X66.879 Y66.028 E31.29441
G1 X67.498 Y65.792 E31.32729
G1 X68.142 Y65.633 E31.36021
G1 X68.8 Y65.552 E31.39311
G1 X69.139 Y65.542 E31.40994
G1 X110.861 Y65.542 E33.48054
G1 X111.523 Y65.582 E33.51345
G1 X112.175 Y65.701 E33.54634
G1 X112.808 Y65.898 E33.57924
G1 X113.413 Y66.17 E33.61216
G1 X113.981 Y66.512 E33.64507
G1 X114.503 Y66.921 E33.67798
G1 X114.879 Y67.282 E33.70385
G1 X115.319 Y67.778 E33.73675
G1 X115.696 Y68.324 E33.76968
G1 X116.004 Y68.911 E33.80258
G1 X116.24 Y69.53 E33.83546
G1 X116.399 Y70.174 E33.86838
G1 X116.48 Y70.832 E33.90128
G1 X116.49 Y71.171 E33.91811
G1 X116.49 Y93.313 E35.01698
G1 X116.45 Y93.975 E35.0499
G1 X116.331 Y94.627 E35.08279
G1 X116.134 Y95.26 E35.11569
G1 X115.862 Y95.865 E35.14861
G1 X115.52 Y96.433 E35.18151
G1 X115.111 Y96.955 E35.21443
G1 X114.75 Y97.331 E35.24029
G1 X114.254 Y97.771 E35.2732
G1 X113.708 Y98.148 E35.30613
G1 X113.121 Y98.456 E35.33903
G1 X112.502 Y98.692 E35.3719
G1 X111.858 Y98.851 E35.40482
G1 X111.2 Y98.932 E35.43773
G1 X110.861 Y98.942 E35.45456
G1 X107.5 Y98.942 E35.62136
G1 X107.5 Y101.767 E35.76156
G1 X110.043 Y103.497 E35.9142
G1 X110.567 Y103.902 E35.94707
G1 X111.04 Y104.367 E35.97998
G1 X111.452 Y104.886 E36.01287
G1 X111.806 Y105.464 E36.04651
G1 X111.857 Y105.56 E36.0519
G1 X112.132 Y106.163 E36.08479
G1 X112.333 Y106.795 E36.11771
G1 X112.456 Y107.446 E36.15059
G1 X112.5 Y108.14 E36.1851
G1 X112.5 Y109.549 E36.25503
G1 X112.46 Y110.211 E36.28794
G1 X112.341 Y110.863 E36.32083
G1 X112.144 Y111.496 E36.35373
G1 X111.872 Y112.101 E36.38665
G1 X111.53 Y112.669 E36.41956
G1 X111.121 Y113.191 E36.45247
G1 X110.76 Y113.567 E36.47834
G1 X110.264 Y114.007 E36.51124
G1 X109.718 Y114.384 E36.54417
G1 X109.131 Y114.692 E36.57707
G1 X108.512 Y114.928 E36.60995
G1 X107.868 Y115.087 E36.64287
G1 X107.21 Y115.168 E36.67577
G1 X106.871 Y115.178 E36.6926
G1 X73.129 Y115.178 E38.36716
G1 X72.467 Y115.138 E38.40007
G1 X71.815 Y115.019 E38.43297
G1 X71.182 Y114.822 E38.46587
G1 X70.577 Y114.55 E38.49879
G1 X70.009 Y114.208 E38.53169
G1 X69.487 Y113.799 E38.5646
G1 X69.111 Y113.438 E38.59047
G1 X68.671 Y112.942 E38.62338
G1 X68.294 Y112.396 E38.65631
G1 X67.986 Y111.809 E38.6892
G1 X67.75 Y111.19 E38.72208
G1 X67.591 Y110.546 E38.755
G1 X67.51 Y109.888 E38.7879
G1 X67.5 Y109.549 E38.80473
G1 X67.5 Y108.14 E38.87466
G1 X67.54 Y107.478 E38.90758
G1 X67.659 Y106.826 E38.94047
G1 X67.856 Y106.193 E38.97337
G1 X68.143 Y105.56 E39.00786
G1 X68.194 Y105.464 E39.01326
G1 X68.54 Y104.898 E39.04618
G1 X68.951 Y104.378 E39.07907
G1 X69.422 Y103.911 E39.11199
G1 X69.957 Y103.497 E39.14556
G1 X72.5 Y101.767 E39.2982
G1 X72.5 Y98.942 E39.4384
G1 X69.139 Y98.942 E39.6052
G1 X68.477 Y98.902 E39.63812
G1 X67.825 Y98.783 E39.67101
G1 X67.192 Y98.586 E39.70391
G1 X66.587 Y98.314 E39.73683
G1 X66.019 Y97.972 E39.76974
G1 X65.497 Y97.563 E39.80265
G1 X65.121 Y97.202 E39.82852
G1 X64.681 Y96.706 E39.86142
G1 X64.304 Y96.16 E39.89435
G1 X63.996 Y95.573 E39.92725
G1 X63.76 Y94.954 E39.96013
G1 X63.601 Y94.31 E39.99305
G1 X63.52 Y93.652 E40.02595
G1 X63.51 Y93.313 E40.04278
G1 X63.51 Y71.171 E41.14165
G1 X63.55 Y70.509 E41.17456
G1 X63.669 Y69.857 E41.20746
G1 X63.866 Y69.224 E41.24036
G1 X64.138 Y68.619 E41.27328
G1 X64.48 Y68.051 E41.30618
G1 X64.889 Y67.529 E41.33909
G1 X65.25 Y67.153 E41.36496
G0 F3000 X65.561 Y67.464
G1 F1500 X66.038 Y67.044 E41.3965
G1 X66.564 Y66.686 E41.42808
G1 X67.131 Y66.398 E41.45964
G1 X67.729 Y66.182 E41.4912
G1 X68.35 Y66.044 E41.52277
G1 X69.139 Y65.982 E41.56204
G1 X110.861 Y65.982 E43.63264
G1 X111.496 Y66.022 E43.66422
G1 X112.12 Y66.141 E43.69574
G1 X112.725 Y66.338 E43.72732
G1 X113.3 Y66.609 E43.75887
G1 X113.837 Y66.95 E43.79044
G1 X114.439 Y67.464 E43.82972
G1 X114.568 Y67.593 E43.83877
G1 X114.988 Y68.07 E43.87032
G1 X115.346 Y68.596 E43.90189
G1 X115.634 Y69.163 E43.93345
G1 X115.85 Y69.761 E43.96501
G1 X115.988 Y70.382 E43.99658
G1 X116.05 Y71.171 E44.03586
G1 X116.05 Y93.313 E45.13473
G1 X116.01 Y93.948 E45.1663
G1 X115.891 Y94.572 E45.19783
G1 X115.694 Y95.177 E45.22941
G1 X115.423 Y95.752 E45.26095
G1 X115.082 Y96.289 E45.29252
G1 X114.568 Y96.891 E45.33181
G1 X114.439 Y97.02 E45.34086
G1 X113.962 Y97.44 E45.3724
G1 X113.436 Y97.798 E45.40398
G1 X112.869 Y98.086 E45.43554
G1 X112.271 Y98.302 E45.4671
G1 X111.65 Y98.44 E45.49867
G1 X110.861 Y98.502 E45.53795
G1 X107.06 Y98.502 E45.72658
G1 X107.06 Y101.999 E45.90013
