;FLAVOR:Marlin
;TIME:6427
;Filament used: 11.6943m
;Layer height: 0.3
;MINX:69.2
;MINY:16.309
;MINZ:0.3
;MAXX:110.798
;MAXY:167.55
;MAXZ:39.9
;Generated with Cura_SteamEngine 4.12.1
M82 ;absolute extrusion mode
G21 ;metric values
G90 ;absolute positioning
M82 ;set extruder to absolute mode
M107 ;start with the fan off

M104 S200 T0 ; start heating T0 to what is set in Cura
M140 S60 ; start heating the bed to what is set in Cura
M190 S60 ; start heating the bed to what is set in Cura
M109 S200 T0 ; start heating T0 to what is set in Cura

G28 X0 Y0 ;move X/Y to min endstops
G28 Z0 ;move Z to min endstops
G1 Z15.0 F2400 ;move the platform down 15mm
G92 E0 ;zero the extruded length
G1 F200 E3 ;extrude 3mm of feed stock
G92 E0 ;zero the extruded length again
G1 F2400
G0 Y20 F2400
M117 Printing...
G5
G92 E0
G92 E0
G1 F2400 E-1.2
;LAYER_COUNT:133
;LAYER:0
M107
G0 F3000 X74.542 Y19.287 Z0.3
;TYPE:SKIRT
G1 F2400 E0
G1 F1500 X74.745 Y18.76 E0.02548
G1 X75.02 Y18.266 E0.05099
G1 X75.362 Y17.816 E0.07649
G1 X75.731 Y17.441 E0.10022
G1 X76.165 Y17.078 E0.12575
G1 X76.646 Y16.78 E0.15128
G1 X77.163 Y16.553 E0.17675
G1 X77.708 Y16.401 E0.20228
G1 X78.377 Y16.322 E0.23267
G1 X78.882 Y16.31 E0.25546
G1 X100.848 Y16.309 E1.2465
G1 X101.551 Y16.319 E1.27822
G1 X102.114 Y16.367 E1.30371
G1 X102.665 Y16.494 E1.32922
G1 X103.193 Y16.698 E1.35476
G1 X103.686 Y16.973 E1.38023
G1 X104.312 Y17.48 E1.41657
G1 X104.448 Y17.615 E1.42522
G1 X104.82 Y18.041 E1.45074
G1 X105.128 Y18.515 E1.47624
G1 X105.367 Y19.027 E1.50173
G1 X105.531 Y19.568 E1.52724
G1 X105.628 Y20.314 E1.56118
G1 X105.64 Y20.835 E1.58469
G1 X105.641 Y130.293 E6.52307
G1 X105.681 Y133.093 E6.64941
G1 X105.794 Y135.763 E6.76998
G1 X105.986 Y138.47 E6.89242
G1 X106.256 Y141.191 E7.01579
G1 X106.599 Y143.877 E7.13795
G1 X107.022 Y146.568 E7.26085
G1 X107.524 Y149.266 E7.38467
G1 X108.084 Y151.87 E7.50484
G1 X108.729 Y154.504 E7.62719
G1 X109.458 Y157.149 E7.75097
G1 X110.187 Y159.542 E7.86383
G1 X110.589 Y160.8 E7.92342
G1 X110.723 Y161.35 E7.94896
G1 X110.778 Y161.937 E7.97556
G1 X110.797 Y162.88 E8.01811
G1 X110.798 Y163.016 E8.02425
G1 X110.79 Y163.596 E8.05042
G1 X110.742 Y164.159 E8.07591
G1 X110.615 Y164.71 E8.10142
G1 X110.412 Y165.238 E8.12694
G1 X110.137 Y165.732 E8.15245
G1 X109.794 Y166.182 E8.17798
G1 X109.392 Y166.579 E8.20347
G1 X108.938 Y166.915 E8.22895
G1 X108.441 Y167.184 E8.25445
G1 X107.911 Y167.381 E8.27996
G1 X107.358 Y167.5 E8.30548
G1 X106.582 Y167.548 E8.34055
G1 X106.47 Y167.55 E8.34561
G1 X73.855 Y167.55 E9.81709
G1 X73.157 Y167.541 E9.84858
G1 X72.594 Y167.493 E9.87408
G1 X72.043 Y167.367 E9.89958
G1 X71.515 Y167.165 E9.92508
G1 X71.021 Y166.89 E9.95059
G1 X70.571 Y166.548 E9.97609
G1 X70.173 Y166.146 E10.00161
G1 X69.837 Y165.692 E10.0271
G1 X69.567 Y165.195 E10.05262
G1 X69.37 Y164.665 E10.07813
G1 X69.25 Y164.113 E10.10361
G1 X69.201 Y163.316 E10.13964
G1 X69.2 Y162.725 E10.1663
G1 X69.212 Y161.986 E10.19965
G1 X69.261 Y161.423 E10.22514
G1 X69.383 Y160.889 E10.24986
G1 X69.488 Y160.547 E10.266
G1 X70.147 Y158.497 E10.36315
G1 X70.914 Y155.862 E10.48696
G1 X71.597 Y153.236 E10.60938
G1 X72.205 Y150.595 E10.73165
G1 X72.744 Y147.921 E10.85472
G1 X73.198 Y145.26 E10.97651
G1 X73.583 Y142.561 E11.09951
G1 X73.886 Y139.901 E11.2203
G1 X74.118 Y137.169 E11.344
G1 X74.273 Y134.431 E11.46773
G1 X74.35 Y131.75 E11.58874
G1 X74.36 Y130.344 E11.65217
G1 X74.359 Y21.076 E16.58199
G1 X74.368 Y20.402 E16.6124
G1 X74.416 Y19.838 E16.63794
G1 X74.542 Y19.287 E16.66344
G0 F3000 X74.941 Y19.351
G1 F1500 X75.143 Y18.855 E16.6876
G1 X75.417 Y18.393 E16.71183
G1 X75.869 Y17.864 E16.74323
G1 X76.009 Y17.729 E16.752
G1 X76.422 Y17.386 E16.77622
G1 X76.881 Y17.109 E16.80041
G1 X77.376 Y16.903 E16.8246
G1 X77.896 Y16.772 E16.84879
G1 X78.636 Y16.714 E16.88228
G1 X78.928 Y16.71 E16.89546
G1 X100.842 Y16.709 E17.88414
G1 X101.545 Y16.719 E17.91586
G1 X102.079 Y16.767 E17.94005
G1 X102.601 Y16.893 E17.96428
G1 X103.097 Y17.096 E17.98846
G1 X103.558 Y17.37 E18.01266
G1 X104.03 Y17.764 E18.0404
G1 X104.166 Y17.899 E18.04904
G1 X104.518 Y18.304 E18.07325
G1 X104.805 Y18.757 E18.09744
G1 X105.022 Y19.247 E18.12162
G1 X105.163 Y19.765 E18.14584
G1 X105.228 Y20.328 E18.17141
G1 X105.24 Y20.835 E18.19429
G1 X105.241 Y130.299 E23.13295
G1 X105.28 Y133.08 E23.25843
G1 X105.396 Y135.808 E23.38162
G1 X105.59 Y138.537 E23.50505
G1 X105.855 Y141.214 E23.62642
G1 X106.205 Y143.953 E23.751
G1 X106.626 Y146.631 E23.87331
G1 X107.126 Y149.317 E23.99657
G1 X107.687 Y151.928 E24.11706
G1 X108.344 Y154.609 E24.2416
G1 X109.073 Y157.257 E24.36551
G1 X109.821 Y159.71 E24.48121
G1 X110.208 Y160.922 E24.53862
G1 X110.333 Y161.444 E24.56283
G1 X110.378 Y161.945 E24.58553
G1 X110.398 Y163.011 E24.63363
G1 X110.39 Y163.591 E24.6598
G1 X110.342 Y164.125 E24.68399
G1 X110.216 Y164.646 E24.70817
G1 X110.014 Y165.143 E24.73238
G1 X109.74 Y165.604 E24.75657
G1 X109.401 Y166.019 E24.78075
G1 X109.004 Y166.38 E24.80496
G1 X108.558 Y166.677 E24.82913
G1 X108.072 Y166.905 E24.85335
G1 X107.558 Y167.058 E24.87755
G1 X106.891 Y167.14 E24.90787
G1 X106.47 Y167.15 E24.92687
G1 X73.861 Y167.15 E26.39808
G1 X73.163 Y167.141 E26.42957
G1 X72.628 Y167.094 E26.4538
G1 X72.107 Y166.968 E26.47799
G1 X71.61 Y166.766 E26.50219
G1 X71.149 Y166.493 E26.52636
G1 X70.733 Y166.154 E26.55057
G1 X70.372 Y165.758 E26.57475
G1 X70.074 Y165.312 E26.59895
G1 X69.846 Y164.826 E26.62317
G1 X69.693 Y164.312 E26.64737
G1 X69.61 Y163.638 E26.678
G1 X69.6 Y163.208 E26.69741
G1 X69.6 Y162.666 E26.72186
G1 X69.611 Y161.992 E26.75227
G1 X69.66 Y161.458 E26.77647
G1 X69.851 Y160.725 E26.81064
G1 X70.529 Y158.616 E26.91059
G1 X71.299 Y155.969 E27.03496
G1 X71.988 Y153.322 E27.15837
G1 X72.594 Y150.692 E27.28013
G1 X73.135 Y148.002 E27.40393
G1 X73.595 Y145.312 E27.52705
G1 X73.978 Y142.625 E27.64951
G1 X74.287 Y139.909 E27.77284
G1 X74.518 Y137.192 E27.89586
G1 X74.671 Y134.499 E28.01755
G1 X74.751 Y131.698 E28.14398
G1 X74.76 Y130.347 E28.20493
G1 X74.759 Y21.081 E33.13465
G1 X74.768 Y20.407 E33.16507
G1 X74.815 Y19.873 E33.18925
G1 X74.941 Y19.351 E33.21348
G0 F3000 X75.34 Y19.419
G1 F1500 X75.541 Y18.955 E33.23629
G1 X75.813 Y18.529 E33.2591
G1 X76.147 Y18.151 E33.28185
G1 X76.287 Y18.016 E33.29063
G1 X76.677 Y17.695 E33.31342
G1 X77.113 Y17.44 E33.33621
G1 X77.585 Y17.256 E33.35906
G1 X78.079 Y17.149 E33.38187
G1 X78.649 Y17.114 E33.40763
G1 X78.928 Y17.11 E33.42022
G1 X100.837 Y17.109 E34.40868
G1 X101.54 Y17.119 E34.4404
G1 X102.043 Y17.166 E34.46319
G1 X102.533 Y17.292 E34.48602
G1 X102.996 Y17.494 E34.50881
G1 X103.423 Y17.765 E34.53163
G1 X103.884 Y18.183 E34.5597
G1 X104.214 Y18.566 E34.58251
G1 X104.479 Y18.997 E34.60534
G1 X104.673 Y19.464 E34.62816
G1 X104.791 Y19.955 E34.65094
G1 X104.836 Y20.571 E34.6788
G1 X104.84 Y20.835 E34.69072
G1 X104.841 Y130.305 E39.62964
G1 X104.881 Y133.102 E39.75585
G1 X104.996 Y135.819 E39.87854
G1 X105.191 Y138.565 E40.00274
G1 X105.459 Y141.271 E40.12542
G1 X105.807 Y143.994 E40.24928
G1 X106.232 Y146.695 E40.37264
G1 X106.735 Y149.403 E40.4969
G1 X107.307 Y152.06 E40.61952
G1 X107.953 Y154.697 E40.74201
G1 X108.688 Y157.365 E40.86687
G1 X109.436 Y159.82 E40.98266
G1 X109.827 Y161.044 E41.04063
G1 X109.943 Y161.536 E41.06344
G1 X109.978 Y161.954 E41.08236
G1 X109.998 Y163.005 E41.12979
G1 X109.99 Y163.585 E41.15596
G1 X109.943 Y164.089 E41.17879
G1 X109.817 Y164.578 E41.20158
G1 X109.616 Y165.042 E41.22439
G1 X109.344 Y165.468 E41.24719
G1 X109.009 Y165.847 E41.27002
G1 X108.618 Y166.167 E41.29281
G1 X108.182 Y166.423 E41.31562
G1 X107.71 Y166.606 E41.33846
G1 X107.216 Y166.712 E41.36126
G1 X106.56 Y166.749 E41.3909
G1 X73.866 Y166.75 E42.86595
G1 X73.168 Y166.741 E42.89744
G1 X72.664 Y166.694 E42.92028
G1 X72.174 Y166.569 E42.94309
G1 X71.71 Y166.368 E42.96591
G1 X71.284 Y166.097 E42.98869
G1 X70.905 Y165.762 E43.01151
G1 X70.584 Y165.371 E43.03433
G1 X70.329 Y164.935 E43.05712
G1 X70.145 Y164.464 E43.07993
G1 X70.038 Y163.97 E43.10274
G1 X70.001 Y163.294 E43.13328
G1 X70 Y162.673 E43.1613
G1 X70.011 Y161.999 E43.19171
G1 X70.06 Y161.496 E43.21451
G1 X70.234 Y160.841 E43.24509
G1 X70.911 Y158.735 E43.3449
G1 X71.685 Y156.077 E43.4698
G1 X72.378 Y153.415 E43.5939
G1 X72.984 Y150.782 E43.7158
G1 X73.534 Y148.05 E43.84153
G1 X73.987 Y145.394 E43.96309
G1 X74.377 Y142.66 E44.08769
G1 X74.685 Y139.955 E44.21052
G1 X74.915 Y137.245 E44.33322
G1 X75.071 Y134.499 E44.45731
G1 X75.15 Y131.733 E44.58216
G1 X75.16 Y130.35 E44.64456
G1 X75.159 Y21.086 E49.57419
G1 X75.168 Y20.412 E49.6046
G1 X75.215 Y19.909 E49.62739
G1 X75.34 Y19.419 E49.65021
G1 F2400 E48.45021
;MESH:generic_spool_holder_v4.stl
G0 F3000 X78.959 Y20.91
;TYPE:WALL-INNER
G1 F2400 E49.65021
G1 F1500 X101.04 Y20.909 E50.64643
G1 X101.041 Y149.991 E56.47018
G1 X100.257 Y149.992 E56.50555
G1 X101.2 Y154.707 E56.72249
G1 X101.2 Y158.968 E56.91473
G1 X106.2 Y162.367 E57.18751
G1 X106.2 Y162.95 E57.21381
G1 X73.8 Y162.95 E58.67559
G1 X73.8 Y162.367 E58.70189
G1 X78.8 Y158.968 E58.97467
G1 X78.8 Y154.707 E59.16691
G1 X79.743 Y149.991 E59.38389
G1 X78.96 Y149.991 E59.41922
G1 X78.959 Y20.91 E65.24293
G0 F3000 X78.559 Y20.533
;TYPE:WALL-OUTER
G1 F1500 X78.583 Y20.51 E65.24443
G1 X101.417 Y20.509 E66.27462
G1 X101.44 Y20.533 E66.27612
G1 X101.441 Y150.367 E72.1338
G1 X101.417 Y150.39 E72.1353
G1 X100.745 Y150.391 E72.16562
G1 X101.6 Y154.669 E72.36245
G1 X101.6 Y158.756 E72.54684
G1 X106.6 Y162.155 E72.81961
G1 X106.6 Y163.35 E72.87353
G1 X73.4 Y163.35 E74.3714
G1 X73.4 Y162.155 E74.42532
G1 X78.4 Y158.756 E74.69809
G1 X78.4 Y154.669 E74.88248
G1 X79.255 Y150.391 E75.07931
G1 X78.583 Y150.391 E75.10963
G1 X78.56 Y150.367 E75.11113
G1 X78.559 Y20.533 E80.96881
G0 F3000 X78.583 Y20.51
G0 X78.75 Y20.51
G0 X79 Y20.951
G0 X79.349 Y21.3
;TYPE:SKIN
G1 F1500 X100.65 Y21.299 E81.9482
G1 X100.651 Y149.601 E87.84738
G1 X99.781 Y149.602 E87.88738
G1 X100.81 Y154.743 E88.12844
G1 X100.81 Y159.175 E88.33222
G1 X105.791 Y162.56 E88.60912
G1 X74.209 Y162.56 E90.06122
G1 X79.19 Y159.175 E90.33812
G1 X79.19 Y154.743 E90.5419
G1 X80.219 Y149.601 E90.78301
G1 X79.35 Y149.601 E90.82297
G1 X79.349 Y21.3 E96.7221
G1 F2400 E95.5221
G0 F3000 X100.469 Y21.839
G1 F2400 E96.7221
G1 F1500 X100.109 Y21.479 E96.7455
G0 F3000 X99.543 Y21.479
G1 F1500 X100.469 Y22.405 E96.80572
G0 F3000 X100.469 Y22.971
G1 F1500 X98.977 Y21.479 E96.90273
G0 F3000 X98.412 Y21.479
G1 F1500 X100.469 Y23.536 E97.03649
G0 F3000 X100.469 Y24.102
G1 F1500 X97.846 Y21.479 E97.20704
G0 F3000 X97.28 Y21.479
G1 F1500 X100.469 Y24.668 E97.4144
G0 F3000 X100.469 Y25.233
G1 F1500 X96.715 Y21.479 E97.6585
G0 F3000 X96.149 Y21.479
G1 F1500 X100.469 Y25.799 E97.93941
G0 F3000 X100.469 Y26.365
G1 F1500 X95.583 Y21.479 E98.25711
G0 F3000 X95.018 Y21.479
G1 F1500 X100.469 Y26.93 E98.61156
G0 F3000 X100.469 Y27.496
G1 F1500 X94.452 Y21.479 E99.00281
G0 F3000 X93.886 Y21.479
G1 F1500 X100.469 Y28.062 E99.43086
G0 F3000 X100.469 Y28.627
G1 F1500 X93.321 Y21.479 E99.89565
G0 F3000 X92.756 Y21.479
G1 F1500 X100.469 Y29.193 E100.39721
G0 F3000 X100.469 Y29.759
G1 F1500 X92.19 Y21.479 E100.93558
G0 F3000 X91.624 Y21.479
G1 F1500 X100.469 Y30.324 E101.51071
G0 F3000 X100.469 Y30.89
G1 F1500 X91.059 Y21.479 E102.12262
G0 F3000 X90.493 Y21.479
G1 F1500 X100.469 Y31.456 E102.77133
G0 F3000 X100.469 Y32.022
G1 F1500 X89.927 Y21.479 E103.45684
G0 F3000 X89.362 Y21.479
G1 F1500 X100.469 Y32.587 E104.1791
G0 F3000 X100.469 Y33.153
G1 F1500 X88.796 Y21.479 E104.93815
G0 F3000 X88.23 Y21.479
G1 F1500 X100.469 Y33.719 E105.73401
G0 F3000 X100.469 Y34.284
G1 F1500 X87.664 Y21.479 E106.56664
G0 F3000 X87.099 Y21.479
G1 F1500 X100.469 Y34.85 E107.43604
G0 F3000 X100.469 Y35.416
G1 F1500 X86.533 Y21.479 E108.34225
G0 F3000 X85.968 Y21.48
G1 F1500 X100.469 Y35.981 E109.28516
G0 F3000 X100.469 Y36.547
G1 F1500 X85.402 Y21.48 E110.26487
G0 F3000 X84.837 Y21.48
G1 F1500 X100.469 Y37.113 E111.28136
G0 F3000 X100.469 Y37.678
G1 F1500 X84.271 Y21.48 E112.33462
G0 F3000 X83.705 Y21.48
G1 F1500 X100.469 Y38.244 E113.42468
G0 F3000 X100.469 Y38.81
G1 F1500 X83.14 Y21.48 E114.55151
G0 F3000 X82.574 Y21.48
G1 F1500 X100.469 Y39.375 E115.71511
G0 F3000 X100.469 Y39.941
G1 F1500 X82.008 Y21.48 E116.91552
G0 F3000 X81.443 Y21.48
G1 F1500 X100.469 Y40.507 E118.15269
G0 F3000 X100.469 Y41.073
G1 F1500 X80.877 Y21.48 E119.42667
G0 F3000 X80.311 Y21.48
G1 F1500 X100.469 Y41.638 E120.73742
G0 F3000 X100.469 Y42.204
G1 F1500 X79.746 Y21.48 E122.08494
G0 F3000 X79.528 Y21.828
G1 F1500 X100.469 Y42.77 E123.44664
G0 F3000 X100.469 Y43.335
G1 F1500 X79.528 Y22.394 E124.80831
G0 F3000 X79.528 Y22.959
G1 F1500 X100.469 Y43.901 E126.17
G0 F3000 X100.469 Y44.467
G1 F1500 X79.528 Y23.525 E127.5317
G0 F3000 X79.528 Y24.091
G1 F1500 X100.469 Y45.032 E128.89336
G0 F3000 X100.469 Y45.598
G1 F1500 X79.528 Y24.656 E130.25506
G0 F3000 X79.528 Y25.222
G1 F1500 X100.469 Y46.164 E131.61676
G0 F3000 X100.469 Y46.729
G1 F1500 X79.528 Y25.788 E132.97842
G0 F3000 X79.528 Y26.353
G1 F1500 X100.469 Y47.295 E134.34012
G0 F3000 X100.469 Y47.861
G1 F1500 X79.528 Y26.919 E135.70182
G0 F3000 X79.528 Y27.485
G1 F1500 X100.469 Y48.426 E137.06348
G0 F3000 X100.469 Y48.992
G1 F1500 X79.528 Y28.05 E138.42518
G0 F3000 X79.528 Y28.616
G1 F1500 X100.469 Y49.558 E139.78688
G0 F3000 X100.469 Y50.123
G1 F1500 X79.528 Y29.182 E141.14854
G0 F3000 X79.528 Y29.747
G1 F1500 X100.469 Y50.689 E142.51024
G0 F3000 X100.469 Y51.255
G1 F1500 X79.528 Y30.313 E143.87194
G0 F3000 X79.528 Y30.879
G1 F1500 X100.469 Y51.821 E145.23363
G0 F3000 X100.469 Y52.386
G1 F1500 X79.528 Y31.445 E146.5953
G0 F3000 X79.528 Y32.01
G1 F1500 X100.469 Y52.952 E147.95699
G0 F3000 X100.469 Y53.518
G1 F1500 X79.528 Y32.576 E149.31869
G0 F3000 X79.528 Y33.142
G1 F1500 X100.469 Y54.083 E150.68036
G0 F3000 X100.469 Y54.649
G1 F1500 X79.528 Y33.707 E152.04205
G0 F3000 X79.528 Y34.273
G1 F1500 X100.469 Y55.215 E153.40375
G0 F3000 X100.469 Y55.78
G1 F1500 X79.528 Y34.839 E154.76541
G0 F3000 X79.528 Y35.404
G1 F1500 X100.469 Y56.346 E156.12711
G0 F3000 X100.469 Y56.912
G1 F1500 X79.528 Y35.97 E157.48881
G0 F3000 X79.528 Y36.536
G1 F1500 X100.469 Y57.477 E158.85047
G0 F3000 X100.469 Y58.043
G1 F1500 X79.528 Y37.101 E160.21217
G0 F3000 X79.528 Y37.667
G1 F1500 X100.469 Y58.609 E161.57387
G0 F3000 X100.469 Y59.174
G1 F1500 X79.528 Y38.233 E162.93553
G0 F3000 X79.528 Y38.798
G1 F1500 X100.469 Y59.74 E164.29723
G0 F3000 X100.469 Y60.306
G1 F1500 X79.528 Y39.364 E165.65893
G0 F3000 X79.528 Y39.93
G1 F1500 X100.469 Y60.871 E167.02059
G0 F3000 X100.469 Y61.437
G1 F1500 X79.528 Y40.496 E168.38226
G0 F3000 X79.528 Y41.061
G1 F1500 X100.469 Y62.003 E169.74395
G0 F3000 X100.469 Y62.569
G1 F1500 X79.528 Y41.627 E171.10565
G0 F3000 X79.528 Y42.193
G1 F1500 X100.469 Y63.134 E172.46731
G0 F3000 X100.469 Y63.7
G1 F1500 X79.528 Y42.758 E173.82901
G0 F3000 X79.528 Y43.324
G1 F1500 X100.47 Y64.266 E175.19074
G0 F3000 X100.47 Y64.832
G1 F1500 X79.528 Y43.89 E176.55247
G0 F3000 X79.528 Y44.455
G1 F1500 X100.47 Y65.398 E177.91423
G0 F3000 X100.47 Y65.963
G1 F1500 X79.528 Y45.021 E179.27596
G0 F3000 X79.528 Y45.587
G1 F1500 X100.47 Y66.529 E180.63769
G0 F3000 X100.47 Y67.095
G1 F1500 X79.528 Y46.152 E181.99945
G0 F3000 X79.528 Y46.718
G1 F1500 X100.47 Y67.66 E183.36118
G0 F3000 X100.47 Y68.226
G1 F1500 X79.528 Y47.284 E184.72291
G0 F3000 X79.528 Y47.849
G1 F1500 X100.47 Y68.792 E186.08468
G0 F3000 X100.47 Y69.357
G1 F1500 X79.528 Y48.415 E187.44641
G0 F3000 X79.528 Y48.981
G1 F1500 X100.47 Y69.923 E188.80814
G0 F3000 X100.47 Y70.489
G1 F1500 X79.528 Y49.546 E190.1699
G0 F3000 X79.528 Y50.112
G1 F1500 X100.47 Y71.055 E191.53166
G0 F3000 X100.47 Y71.62
G1 F1500 X79.528 Y50.678 E192.89339
G0 F3000 X79.528 Y51.244
G1 F1500 X100.47 Y72.186 E194.25512
G0 F3000 X100.47 Y72.752
G1 F1500 X79.528 Y51.809 E195.61688
G0 F3000 X79.528 Y52.375
G1 F1500 X100.47 Y73.317 E196.97861
G0 F3000 X100.47 Y73.883
G1 F1500 X79.528 Y52.941 E198.34034
G0 F3000 X79.528 Y53.506
G1 F1500 X100.47 Y74.449 E199.7021
G0 F3000 X100.47 Y75.014
G1 F1500 X79.528 Y54.072 E201.06383
G0 F3000 X79.528 Y54.638
G1 F1500 X100.47 Y75.58 E202.42556
G0 F3000 X100.47 Y76.146
