;FLAVOR:Marlin
;TIME:10424
;Filament used: 15.5998m
;Layer height: 0.3
;MINX:17.209
;MINY:69.102
;MINZ:0.3
;MAXX:166.65
;MAXY:110.9
;MAXZ:42.9
;Generated with Cura_SteamEngine 4.12.1
M82 ;absolute extrusion mode
G21 ;metric values
G90 ;absolute positioning
M82 ;set extruder to absolute mode
M107 ;start with the fan off

M104 S200 T0 ; start heating T0 to what is set in Cura
M140 S60 ; start heating the bed to what is set in Cura
M190 S60 ; start heating the bed to what is set in Cura
M109 S200 T0 ; start heating T0 to what is set in Cura

G28 X0 Y0 ;move X/Y to min endstops
G28 Z0 ;move Z to min endstops
G1 Z15.0 F2400 ;move the platform down 15mm
G92 E0 ;zero the extruded length
G1 F200 E3 ;extrude 3mm of feed stock
G92 E0 ;zero the extruded length again
G1 F2400
G0 Y20 F2400
M117 Printing...
G5
G92 E0
G92 E0
G1 F2400 E-1.2
;LAYER_COUNT:143
;LAYER:0
M107
G0 F3000 X20.58 Y73.365 Z0.3
;TYPE:SKIRT
G1 F2400 E0
G1 F1500 X21.324 Y73.272 E0.03721
G1 X21.831 Y73.26 E0.06238
G1 X132.476 Y73.259 E5.55351
G1 X135.271 Y73.219 E5.69224
G1 X137.936 Y73.106 E5.82462
G1 X140.669 Y72.913 E5.96059
G1 X143.359 Y72.646 E6.09474
G1 X146.061 Y72.3 E6.22993
G1 X148.722 Y71.882 E6.36362
G1 X151.403 Y71.384 E6.49894
G1 X154.025 Y70.819 E6.63206
G1 X156.685 Y70.168 E6.76796
G1 X159.105 Y69.504 E6.8925
G1 X159.873 Y69.282 E6.93218
G1 X160.433 Y69.162 E6.9606
G1 X160.931 Y69.122 E6.9854
G1 X161.896 Y69.103 E7.0333
G1 X162.035 Y69.102 E7.0402
G1 X162.599 Y69.11 E7.06819
G1 X163.169 Y69.158 E7.09658
G1 X163.728 Y69.285 E7.12503
G1 X164.263 Y69.489 E7.15344
G1 X164.764 Y69.765 E7.18183
G1 X165.222 Y70.108 E7.21023
G1 X165.628 Y70.512 E7.23865
G1 X165.974 Y70.968 E7.26706
G1 X166.252 Y71.468 E7.29545
G1 X166.459 Y72.002 E7.32387
G1 X166.589 Y72.559 E7.35226
G1 X166.639 Y73.094 E7.37893
G1 X166.65 Y73.528 E7.40047
G1 X166.65 Y106.115 E9.01771
G1 X166.641 Y106.842 E9.0538
G1 X166.594 Y107.412 E9.08218
G1 X166.468 Y107.971 E9.11062
G1 X166.265 Y108.506 E9.13902
G1 X165.99 Y109.008 E9.16742
G1 X165.648 Y109.466 E9.19579
G1 X165.245 Y109.873 E9.22422
G1 X164.789 Y110.22 E9.25265
G1 X164.29 Y110.499 E9.28103
G1 X163.756 Y110.707 E9.30947
G1 X163.199 Y110.838 E9.33786
G1 X162.656 Y110.889 E9.36493
G1 X162.22 Y110.9 E9.38658
G1 X161.698 Y110.9 E9.41248
G1 X160.998 Y110.89 E9.44723
G1 X160.532 Y110.856 E9.47041
G1 X159.951 Y110.74 E9.49982
G1 X159.15 Y110.519 E9.54105
G1 X158.027 Y110.191 E9.59912
G1 X155.424 Y109.513 E9.73261
G1 X152.736 Y108.892 E9.86952
G1 X150.114 Y108.366 E10.00224
G1 X147.436 Y107.906 E10.13709
G1 X144.757 Y107.523 E10.2714
G1 X142.034 Y107.212 E10.40742
G1 X139.344 Y106.982 E10.5414
G1 X136.645 Y106.828 E10.67557
G1 X133.94 Y106.751 E10.80987
G1 X132.499 Y106.74 E10.88138
G1 X22.1 Y106.741 E16.36031
G1 X21.396 Y106.731 E16.39525
G1 X20.825 Y106.683 E16.42369
G1 X20.267 Y106.556 E16.45209
G1 X19.732 Y106.352 E16.4805
G1 X19.231 Y106.076 E16.50889
G1 X18.773 Y105.733 E16.53729
G1 X18.358 Y105.325 E16.56617
G1 X17.992 Y104.885 E16.59457
G1 X17.69 Y104.399 E16.62297
G1 X17.46 Y103.875 E16.65137
G1 X17.305 Y103.324 E16.67978
G1 X17.221 Y102.611 E16.71541
G1 X17.211 Y102.219 E16.73487
G1 X17.209 Y78.151 E17.92932
G1 X17.219 Y77.447 E17.96427
G1 X17.267 Y76.876 E17.9927
G1 X17.394 Y76.318 E18.0211
G1 X17.598 Y75.783 E18.04952
G1 X17.874 Y75.282 E18.07791
G1 X18.217 Y74.824 E18.1063
G1 X18.59 Y74.439 E18.13291
G1 X19.026 Y74.068 E18.16132
G1 X19.509 Y73.762 E18.1897
G1 X20.031 Y73.526 E18.21813
G1 X20.58 Y73.365 E18.24652
G0 F3000 X20.791 Y73.771
G1 F1500 X21.338 Y73.712 E18.27382
G1 X21.878 Y73.7 E18.30063
G1 X132.482 Y73.699 E23.78973
G1 X135.261 Y73.66 E23.92766
G1 X137.985 Y73.544 E24.06297
G1 X140.711 Y73.351 E24.19859
G1 X143.421 Y73.082 E24.33375
G1 X146.085 Y72.741 E24.46704
G1 X148.827 Y72.31 E24.60479
G1 X151.476 Y71.818 E24.7385
G1 X154.116 Y71.25 E24.87252
G1 X156.79 Y70.594 E25.00916
G1 X159.276 Y69.913 E25.13708
G1 X159.996 Y69.705 E25.17428
G1 X160.525 Y69.594 E25.2011
G1 X160.94 Y69.562 E25.22176
G1 X162.029 Y69.542 E25.27581
G1 X162.593 Y69.55 E25.30381
G1 X163.132 Y69.598 E25.33066
G1 X163.657 Y69.724 E25.35746
G1 X164.159 Y69.927 E25.38433
G1 X164.625 Y70.201 E25.41116
G1 X165.045 Y70.541 E25.43798
G1 X165.411 Y70.939 E25.46481
G1 X165.715 Y71.387 E25.49168
G1 X165.949 Y71.874 E25.51849
G1 X166.108 Y72.391 E25.54534
G1 X166.2 Y73.106 E25.58111
G1 X166.21 Y73.528 E25.60206
G1 X166.21 Y106.109 E27.219
G1 X166.201 Y106.836 E27.25509
G1 X166.154 Y107.375 E27.28194
G1 X166.029 Y107.901 E27.30877
G1 X165.827 Y108.403 E27.33562
G1 X165.554 Y108.869 E27.36243
G1 X165.215 Y109.291 E27.38929
G1 X164.817 Y109.657 E27.41613
G1 X164.37 Y109.961 E27.44295
G1 X163.883 Y110.196 E27.46979
G1 X163.367 Y110.357 E27.49662
G1 X162.644 Y110.45 E27.53279
G1 X162.22 Y110.46 E27.55384
G1 X161.705 Y110.46 E27.5794
G1 X161.005 Y110.45 E27.61414
G1 X160.587 Y110.42 E27.63494
G1 X160.068 Y110.316 E27.66121
G1 X159.274 Y110.097 E27.70209
G1 X158.131 Y109.764 E27.76117
G1 X155.528 Y109.085 E27.89468
G1 X152.848 Y108.466 E28.03118
G1 X150.175 Y107.93 E28.16648
G1 X147.5 Y107.47 E28.30118
G1 X144.797 Y107.084 E28.43669
G1 X142.122 Y106.779 E28.57031
G1 X139.37 Y106.543 E28.70738
G1 X136.648 Y106.388 E28.84269
G1 X133.955 Y106.311 E28.9764
G1 X132.502 Y106.3 E29.04851
G1 X22.106 Y106.301 E34.52728
G1 X21.402 Y106.291 E34.56222
G1 X20.863 Y106.243 E34.58908
G1 X20.338 Y106.117 E34.61587
G1 X19.836 Y105.914 E34.64275
G1 X19.37 Y105.64 E34.66958
G1 X18.81 Y105.162 E34.70612
G1 X18.675 Y105.021 E34.7158
G1 X18.331 Y104.604 E34.74263
G1 X18.052 Y104.141 E34.76946
G1 X17.845 Y103.641 E34.79632
G1 X17.713 Y103.117 E34.82313
G1 X17.661 Y102.598 E34.84902
G1 X17.651 Y102.219 E34.86783
G1 X17.649 Y78.157 E36.06199
G1 X17.659 Y77.453 E36.09693
G1 X17.707 Y76.914 E36.12379
G1 X17.833 Y76.389 E36.15058
G1 X18.036 Y75.887 E36.17746
G1 X18.31 Y75.421 E36.20429
G1 X18.76 Y74.889 E36.23887
G1 X18.898 Y74.754 E36.24845
G1 X19.311 Y74.405 E36.27528
G1 X19.771 Y74.121 E36.30211
G1 X20.268 Y73.908 E36.32895
G1 X20.791 Y73.771 E36.35578
G0 F3000 X20.996 Y74.183
G1 F1500 X21.598 Y74.144 E36.38572
G1 X21.878 Y74.14 E36.39962
G1 X132.488 Y74.139 E41.88901
G1 X135.285 Y74.099 E42.02783
G1 X138 Y73.984 E42.1627
G1 X140.748 Y73.789 E42.29942
G1 X143.448 Y73.522 E42.43407
G1 X146.175 Y73.173 E42.57051
G1 X148.875 Y72.748 E42.70616
G1 X151.569 Y72.248 E42.84214
G1 X154.248 Y71.671 E42.97814
G1 X156.905 Y71.02 E43.1139
G1 X159.364 Y70.346 E43.24044
G1 X160.118 Y70.128 E43.27939
G1 X160.615 Y70.026 E43.30457
G1 X160.949 Y70.002 E43.32119
G1 X162.023 Y69.982 E43.3745
G1 X162.587 Y69.99 E43.40249
G1 X163.092 Y70.037 E43.42767
G1 X163.583 Y70.163 E43.45282
G1 X164.048 Y70.365 E43.47798
G1 X164.476 Y70.637 E43.50315
G1 X164.856 Y70.972 E43.52829
G1 X165.179 Y71.364 E43.5535
G1 X165.436 Y71.801 E43.57866
G1 X165.622 Y72.273 E43.60384
G1 X165.731 Y72.768 E43.62899
G1 X165.769 Y73.437 E43.66225
G1 X165.77 Y106.104 E45.28346
G1 X165.761 Y106.831 E45.31954
G1 X165.715 Y107.336 E45.34471
G1 X165.59 Y107.827 E45.36985
G1 X165.389 Y108.293 E45.39504
G1 X165.118 Y108.722 E45.42022
G1 X164.783 Y109.102 E45.44536
G1 X164.392 Y109.426 E45.47056
G1 X163.955 Y109.684 E45.49575
G1 X163.484 Y109.87 E45.52088
G1 X162.989 Y109.98 E45.54604
G1 X162.31 Y110.019 E45.5798
G1 X161.711 Y110.02 E45.60952
G1 X161.011 Y110.01 E45.64427
G1 X160.642 Y109.983 E45.66263
G1 X160.185 Y109.892 E45.68576
G1 X159.397 Y109.674 E45.72633
G1 X158.291 Y109.351 E45.78351
G1 X155.598 Y108.649 E45.92163
G1 X152.934 Y108.034 E46.05732
G1 X150.292 Y107.504 E46.19105
G1 X147.57 Y107.037 E46.32811
G1 X144.837 Y106.646 E46.46512
G1 X142.138 Y106.338 E46.59994
G1 X139.434 Y106.106 E46.73463
G1 X136.685 Y105.95 E46.87128
G1 X133.924 Y105.871 E47.00836
G1 X132.506 Y105.86 E47.07873
G1 X22.112 Y105.861 E52.55741
G1 X21.408 Y105.851 E52.59235
G1 X20.903 Y105.804 E52.61752
G1 X20.412 Y105.678 E52.64268
G1 X19.947 Y105.476 E52.66784
G1 X19.519 Y105.204 E52.693
G1 X19.128 Y104.858 E52.71892
G1 X18.993 Y104.717 E52.7286
G1 X18.672 Y104.324 E52.75379
G1 X18.417 Y103.886 E52.77894
G1 X18.234 Y103.413 E52.80411
G1 X18.127 Y102.917 E52.82929
G1 X18.092 Y102.314 E52.85927
G1 X18.089 Y78.163 E54.05784
G1 X18.099 Y77.459 E54.09278
G1 X18.146 Y76.954 E54.11795
G1 X18.272 Y76.463 E54.14311
G1 X18.474 Y75.998 E54.16827
G1 X18.746 Y75.57 E54.19344
G1 X19.205 Y75.068 E54.2272
G1 X19.595 Y74.743 E54.25239
G1 X20.03 Y74.483 E54.27754
G1 X20.501 Y74.295 E54.30271
G1 X20.996 Y74.183 E54.3279
G1 F2400 E53.1279
;MESH:generic_spool_holder_v3.stl
G0 F3000 X22.849 Y78.9
;TYPE:WALL-INNER
G1 F2400 E54.3279
G1 F1500 X150.05 Y78.899 E60.64068
G1 X150.05 Y79.74 E60.68242
G1 X158.465 Y79.74 E61.10004
G1 X160.609 Y76.587 E61.28927
G1 X161.01 Y75.998 E61.32463
G1 X161.01 Y76.711 E61.34311
G1 X161.01 Y103.289 E62.66214
G1 X161.01 Y104.002 E62.69752
G1 X160.609 Y103.413 E62.71597
G1 X158.465 Y100.26 E62.9052
G1 X150.051 Y100.26 E63.32277
G1 X150.051 Y101.1 E63.36446
G1 X22.85 Y101.101 E69.67724
G1 X22.849 Y78.9 E70.77904
G0 F3000 X22.409 Y78.46
G1 F1500 X150.49 Y78.459 E77.13549
G1 X150.49 Y79.3 E77.17723
G1 X158.232 Y79.3 E77.56145
G1 X161.05 Y75.157 E77.81012
G1 X161.45 Y74.569 E77.84541
G1 X161.45 Y75.281 E77.86388
G1 X161.45 Y104.719 E79.32484
G1 X161.45 Y105.431 E79.36017
G1 X161.05 Y104.843 E79.37859
G1 X158.232 Y100.7 E79.62725
G1 X150.491 Y100.7 E80.01143
G1 X150.491 Y101.54 E80.05311
G1 X22.41 Y101.541 E86.40957
G1 X22.409 Y78.46 E87.55504
G0 F3000 X21.969 Y78.02
G1 F1500 X150.93 Y78.019 E93.95516
G1 X150.93 Y78.86 E93.9969
G1 X157.999 Y78.86 E94.34772
G1 X161.4 Y73.86 E94.64783
G1 X161.89 Y73.86 E94.67215
G1 X161.89 Y106.14 E96.27415
G1 X161.4 Y106.14 E96.29847
G1 X157.999 Y101.14 E96.59857
G1 X150.931 Y101.14 E96.94935
G1 X150.931 Y101.98 E96.99104
G1 X21.97 Y101.981 E103.39116
G1 X21.969 Y78.02 E104.58031
G0 F3000 X21.541 Y77.58
;TYPE:WALL-OUTER
G1 F1500 X151.359 Y77.579 E111.02296
G1 X151.37 Y77.591 E111.02377
G1 X151.37 Y78.42 E111.06491
G1 X157.766 Y78.42 E111.38234
G1 X161.167 Y73.42 E111.68244
G1 X162.33 Y73.42 E111.74016
G1 X162.33 Y106.58 E113.38584
G1 X161.167 Y106.58 E113.44355
G1 X157.766 Y101.58 E113.74366
G1 X151.371 Y101.58 E114.06103
G1 X151.371 Y102.409 E114.10217
G1 X151.359 Y102.42 E114.10298
G1 X21.541 Y102.421 E120.54564
G1 X21.53 Y102.409 E120.54645
G1 X21.529 Y77.591 E121.77812
G1 X21.541 Y77.58 E121.77893
G0 F3000 X21.741 Y77.58
G0 X22.014 Y78.065
G1 F2400 E120.57893
G0 F3000 X23.279 Y79.33
;TYPE:SKIN
G1 F2400 E121.77893
G1 F1500 X149.62 Y79.329 E128.16884
G1 X149.62 Y80.17 E128.21138
G1 X158.692 Y80.17 E128.67021
G1 X160.58 Y77.395 E128.83996
G1 X160.58 Y102.605 E130.115
G1 X158.692 Y99.83 E130.28475
G1 X149.621 Y99.83 E130.74354
G1 X149.621 Y100.67 E130.78602
G1 X23.28 Y100.671 E137.17593
G1 X23.279 Y79.33 E138.25529
G1 F2400 E137.05529
G0 F3000 X23.932 Y100.469
G1 F2400 E138.25529
G1 F1500 X23.479 Y100.016 E138.28769
G0 F3000 X23.479 Y99.394
G1 F1500 X24.554 Y100.469 E138.36458
G0 F3000 X25.177 Y100.469
G1 F1500 X23.479 Y98.772 E138.486
G0 F3000 X23.479 Y98.149
G1 F1500 X25.799 Y100.469 E138.65194
G0 F3000 X26.421 Y100.469
G1 F1500 X23.479 Y97.527 E138.86237
G0 F3000 X23.479 Y96.905
G1 F1500 X27.044 Y100.469 E139.11732
G0 F3000 X27.666 Y100.469
G1 F1500 X23.479 Y96.283 E139.41677
G0 F3000 X23.479 Y95.66
G1 F1500 X28.288 Y100.469 E139.76074
G0 F3000 X28.91 Y100.469
G1 F1500 X23.479 Y95.038 E140.1492
G0 F3000 X23.479 Y94.416
G1 F1500 X29.533 Y100.469 E140.58218
G0 F3000 X30.155 Y100.469
G1 F1500 X23.479 Y93.794 E141.05965
G0 F3000 X23.479 Y93.171
G1 F1500 X30.777 Y100.469 E141.58165
G0 F3000 X31.399 Y100.469
G1 F1500 X23.479 Y92.549 E142.14814
G0 F3000 X23.479 Y91.927
G1 F1500 X32.022 Y100.469 E142.75915
G0 F3000 X32.644 Y100.469
G1 F1500 X23.479 Y91.305 E143.41465
G0 F3000 X23.479 Y90.682
G1 F1500 X33.266 Y100.469 E144.11468
G0 F3000 X33.888 Y100.469
G1 F1500 X23.479 Y90.06 E144.8592
G0 F3000 X23.478 Y89.437
G1 F1500 X34.511 Y100.469 E145.64831
G0 F3000 X35.133 Y100.469
G1 F1500 X23.478 Y88.815 E146.48191
G0 F3000 X23.478 Y88.193
G1 F1500 X35.755 Y100.469 E147.36001
G0 F3000 X36.377 Y100.469
G1 F1500 X23.478 Y87.57 E148.28262
G0 F3000 X23.478 Y86.948
G1 F1500 X37 Y100.469 E149.24977
G0 F3000 X37.622 Y100.469
G1 F1500 X23.478 Y86.326 E150.2614
G0 F3000 X23.478 Y85.704
G1 F1500 X38.244 Y100.469 E151.31752
G0 F3000 X38.866 Y100.469
G1 F1500 X23.478 Y85.081 E152.41816
G0 F3000 X23.478 Y84.459
G1 F1500 X39.489 Y100.469 E153.56333
G0 F3000 X40.111 Y100.469
G1 F1500 X23.478 Y83.837 E154.75299
G0 F3000 X23.478 Y83.215
G1 F1500 X40.733 Y100.469 E155.98714
G0 F3000 X41.355 Y100.469
G1 F1500 X23.478 Y82.592 E157.26582
G0 F3000 X23.478 Y81.97
G1 F1500 X41.978 Y100.469 E158.58902
G0 F3000 X42.6 Y100.469
G1 F1500 X23.478 Y81.348 E159.95671
G0 F3000 X23.478 Y80.726
G1 F1500 X43.222 Y100.469 E161.36889
G0 F3000 X43.844 Y100.469
G1 F1500 X23.478 Y80.103 E162.82559
G0 F3000 X23.526 Y79.529
G1 F1500 X44.467 Y100.469 E164.32338
G0 F3000 X45.089 Y100.469
G1 F1500 X24.149 Y79.529 E165.82114
G0 F3000 X24.771 Y79.529
G1 F1500 X45.711 Y100.469 E167.3189
G0 F3000 X46.333 Y100.469
G1 F1500 X25.393 Y79.529 E168.81666
G0 F3000 X26.015 Y79.529
G1 F1500 X46.956 Y100.469 E170.31446
G0 F3000 X47.578 Y100.469
G1 F1500 X26.638 Y79.529 E171.81222
G0 F3000 X27.26 Y79.529
G1 F1500 X48.2 Y100.469 E173.30998
G0 F3000 X48.822 Y100.469
G1 F1500 X27.882 Y79.529 E174.80774
G0 F3000 X28.504 Y79.529
G1 F1500 X49.445 Y100.469 E176.30553
G0 F3000 X50.067 Y100.469
G1 F1500 X29.127 Y79.529 E177.80329
G0 F3000 X29.749 Y79.529
G1 F1500 X50.689 Y100.469 E179.30105
G0 F3000 X51.311 Y100.469
G1 F1500 X30.371 Y79.529 E180.79881
G0 F3000 X30.993 Y79.529
G1 F1500 X51.934 Y100.469 E182.29661
G0 F3000 X52.556 Y100.469
G1 F1500 X31.616 Y79.529 E183.79437
G0 F3000 X32.238 Y79.529
G1 F1500 X53.178 Y100.469 E185.29213
G0 F3000 X53.8 Y100.469
G1 F1500 X32.86 Y79.529 E186.78989
G0 F3000 X33.482 Y79.529
G1 F1500 X54.423 Y100.469 E188.28768
G0 F3000 X55.045 Y100.469
G1 F1500 X34.105 Y79.529 E189.78544
G0 F3000 X34.727 Y79.529
G1 F1500 X55.667 Y100.469 E191.2832
G0 F3000 X56.289 Y100.469
G1 F1500 X35.349 Y79.529 E192.78096
G0 F3000 X35.971 Y79.529
G1 F1500 X56.912 Y100.469 E194.27875
G0 F3000 X57.534 Y100.469
G1 F1500 X36.594 Y79.529 E195.77651
G0 F3000 X37.216 Y79.529
G1 F1500 X58.156 Y100.469 E197.27427
G0 F3000 X58.778 Y100.469
G1 F1500 X37.838 Y79.529 E198.77203
G0 F3000 X38.46 Y79.529
G1 F1500 X59.401 Y100.469 E200.26983
G0 F3000 X60.023 Y100.469
G1 F1500 X39.083 Y79.529 E201.76759
G0 F3000 X39.705 Y79.529
G1 F1500 X60.645 Y100.469 E203.26535
G0 F3000 X61.267 Y100.469
G1 F1500 X40.327 Y79.529 E204.76311
G0 F3000 X40.949 Y79.529
G1 F1500 X61.89 Y100.469 E206.2609
G0 F3000 X62.512 Y100.469
G1 F1500 X41.572 Y79.529 E207.75866
G0 F3000 X42.194 Y79.529
G1 F1500 X63.134 Y100.469 E209.25642
G0 F3000 X63.756 Y100.469
G1 F1500 X42.816 Y79.529 E210.75418
G0 F3000 X43.438 Y79.529
G1 F1500 X64.379 Y100.469 E212.25198
G0 F3000 X65.001 Y100.469
G1 F1500 X44.061 Y79.529 E213.74974
G0 F3000 X44.683 Y79.529
G1 F1500 X65.623 Y100.469 E215.2475
G0 F3000 X66.246 Y100.469
G1 F1500 X45.305 Y79.529 E216.74529
G0 F3000 X45.927 Y79.529
G1 F1500 X66.868 Y100.469 E218.24309
G0 F3000 X67.49 Y100.469
G1 F1500 X46.55 Y79.529 E219.74085
G0 F3000 X47.172 Y79.529
G1 F1500 X68.112 Y100.469 E221.2386
G0 F3000 X68.735 Y100.469
G1 F1500 X47.794 Y79.529 E222.7364
G0 F3000 X48.417 Y79.529
G1 F1500 X69.357 Y100.469 E224.23416
G0 F3000 X69.979 Y100.469
G1 F1500 X49.039 Y79.529 E225.73192
G0 F3000 X49.661 Y79.529
G1 F1500 X70.601 Y100.469 E227.22968
G0 F3000 X71.224 Y100.469
G1 F1500 X50.283 Y79.529 E228.72747
G0 F3000 X50.906 Y79.529
G1 F1500 X71.846 Y100.469 E230.22523
G0 F3000 X72.468 Y100.469
G1 F1500 X51.528 Y79.529 E231.72299
G0 F3000 X52.15 Y79.529
G1 F1500 X73.09 Y100.469 E233.22075
G0 F3000 X73.713 Y100.469
G1 F1500 X52.772 Y79.529 E234.71855
G0 F3000 X53.395 Y79.529
G1 F1500 X74.335 Y100.469 E236.21631
G0 F3000 X74.957 Y100.469
G1 F1500 X54.017 Y79.529 E237.71407
G0 F3000 X54.639 Y79.529
G1 F1500 X75.579 Y100.469 E239.21183
G0 F3000 X76.202 Y100.469
G1 F1500 X55.261 Y79.529 E240.70962
G0 F3000 X55.884 Y79.529
