;FLAVOR:Marlin
;TIME:6448
;Filament used: 12.0378m
;Layer height: 0.3
;MINX:69.2
;MINY:16.309
;MINZ:0.3
;MAXX:110.798
;MAXY:167.55
;MAXZ:39.9
;Generated with Cura_SteamEngine 4.12.1
M82 ;absolute extrusion mode
G21 ;metric values
G90 ;absolute positioning
M82 ;set extruder to absolute mode
M107 ;start with the fan off

M104 S200 T0 ; start heating T0 to what is set in Cura
M140 S60 ; start heating the bed to what is set in Cura
M190 S60 ; start heating the bed to what is set in Cura
M109 S200 T0 ; start heating T0 to what is set in Cura

G28 X0 Y0 ;move X/Y to min endstops
G28 Z0 ;move Z to min endstops
G1 Z15.0 F2400 ;move the platform down 15mm
G92 E0 ;zero the extruded length
G1 F200 E3 ;extrude 3mm of feed stock
G92 E0 ;zero the extruded length again
G1 F2400
G0 Y20 F2400
M117 Printing...
G5
G92 E0
G92 E0
G1 F2400 E-1.2
;LAYER_COUNT:133
;LAYER:0
M107
G0 F3000 X74.542 Y19.287 Z0.3
;TYPE:SKIRT
G1 F2400 E0
G1 F1500 X74.745 Y18.76 E0.02548
G1 X75.02 Y18.266 E0.05099
G1 X75.362 Y17.816 E0.07649
G1 X75.731 Y17.441 E0.10022
G1 X76.165 Y17.078 E0.12575
G1 X76.646 Y16.78 E0.15128
G1 X77.163 Y16.553 E0.17675
G1 X77.708 Y16.401 E0.20228
G1 X78.377 Y16.322 E0.23267
G1 X78.882 Y16.31 E0.25546
G1 X100.848 Y16.309 E1.2465
G1 X101.551 Y16.319 E1.27822
G1 X102.114 Y16.367 E1.30371
G1 X102.665 Y16.494 E1.32922
G1 X103.193 Y16.698 E1.35476
G1 X103.686 Y16.973 E1.38023
G1 X104.312 Y17.48 E1.41657
G1 X104.448 Y17.615 E1.42522
G1 X104.82 Y18.041 E1.45074
G1 X105.128 Y18.515 E1.47624
G1 X105.367 Y19.027 E1.50173
G1 X105.531 Y19.568 E1.52724
G1 X105.628 Y20.314 E1.56118
G1 X105.64 Y20.835 E1.58469
G1 X105.641 Y130.293 E6.52307
G1 X105.681 Y133.093 E6.64941
G1 X105.794 Y135.763 E6.76998
G1 X105.986 Y138.47 E6.89242
G1 X106.256 Y141.191 E7.01579
G1 X106.599 Y143.877 E7.13795
G1 X107.022 Y146.568 E7.26085
G1 X107.524 Y149.266 E7.38467
G1 X108.084 Y151.87 E7.50484
G1 X108.729 Y154.504 E7.62719
G1 X109.458 Y157.149 E7.75097
G1 X110.187 Y159.542 E7.86383
G1 X110.589 Y160.8 E7.92342
G1 X110.723 Y161.35 E7.94896
G1 X110.778 Y161.937 E7.97556
G1 X110.797 Y162.88 E8.01811
G1 X110.798 Y163.016 E8.02425
G1 X110.79 Y163.596 E8.05042
G1 X110.742 Y164.159 E8.07591
G1 X110.615 Y164.71 E8.10142
G1 X110.412 Y165.238 E8.12694
G1 X110.137 Y165.732 E8.15245
G1 X109.794 Y166.182 E8.17798
G1 X109.392 Y166.579 E8.20347
G1 X108.938 Y166.915 E8.22895
G1 X108.441 Y167.184 E8.25445
G1 X107.911 Y167.381 E8.27996
G1 X107.358 Y167.5 E8.30548
G1 X106.582 Y167.548 E8.34055
G1 X106.47 Y167.55 E8.34561
G1 X73.855 Y167.55 E9.81709
G1 X73.157 Y167.541 E9.84858
G1 X72.594 Y167.493 E9.87408
G1 X72.043 Y167.367 E9.89958
G1 X71.515 Y167.165 E9.92508
G1 X71.021 Y166.89 E9.95059
G1 X70.571 Y166.548 E9.97609
G1 X70.173 Y166.146 E10.00161
G1 X69.837 Y165.692 E10.0271
G1 X69.567 Y165.195 E10.05262
G1 X69.37 Y164.665 E10.07813
G1 X69.25 Y164.113 E10.10361
G1 X69.201 Y163.316 E10.13964
G1 X69.2 Y162.725 E10.1663
G1 X69.212 Y161.986 E10.19965
G1 X69.261 Y161.423 E10.22514
G1 X69.383 Y160.889 E10.24986
G1 X69.488 Y160.547 E10.266
G1 X70.147 Y158.497 E10.36315
G1 X70.914 Y155.862 E10.48696
G1 X71.597 Y153.236 E10.60938
G1 X72.205 Y150.595 E10.73165
G1 X72.744 Y147.921 E10.85472
G1 X73.198 Y145.26 E10.97651
G1 X73.583 Y142.561 E11.09951
G1 X73.886 Y139.901 E11.2203
G1 X74.118 Y137.169 E11.344
G1 X74.273 Y134.431 E11.46773
G1 X74.35 Y131.75 E11.58874
G1 X74.36 Y130.344 E11.65217
G1 X74.359 Y21.076 E16.58199
G1 X74.368 Y20.402 E16.6124
G1 X74.416 Y19.838 E16.63794
G1 X74.542 Y19.287 E16.66344
G0 F3000 X74.941 Y19.351
G1 F1500 X75.143 Y18.855 E16.6876
G1 X75.417 Y18.393 E16.71183
G1 X75.869 Y17.864 E16.74323
G1 X76.009 Y17.729 E16.752
G1 X76.422 Y17.386 E16.77622
G1 X76.881 Y17.109 E16.80041
G1 X77.376 Y16.903 E16.8246
G1 X77.896 Y16.772 E16.84879
G1 X78.636 Y16.714 E16.88228
G1 X78.928 Y16.71 E16.89546
G1 X100.842 Y16.709 E17.88414
G1 X101.545 Y16.719 E17.91586
G1 X102.079 Y16.767 E17.94005
G1 X102.601 Y16.893 E17.96428
G1 X103.097 Y17.096 E17.98846
G1 X103.558 Y17.37 E18.01266
G1 X104.03 Y17.764 E18.0404
G1 X104.166 Y17.899 E18.04904
G1 X104.518 Y18.304 E18.07325
G1 X104.805 Y18.757 E18.09744
G1 X105.022 Y19.247 E18.12162
G1 X105.163 Y19.765 E18.14584
G1 X105.228 Y20.328 E18.17141
G1 X105.24 Y20.835 E18.19429
G1 X105.241 Y130.299 E23.13295
G1 X105.28 Y133.08 E23.25843
G1 X105.396 Y135.808 E23.38162
G1 X105.59 Y138.537 E23.50505
G1 X105.855 Y141.214 E23.62642
G1 X106.205 Y143.953 E23.751
G1 X106.626 Y146.631 E23.87331
G1 X107.126 Y149.317 E23.99657
G1 X107.687 Y151.928 E24.11706
G1 X108.344 Y154.609 E24.2416
G1 X109.073 Y157.257 E24.36551
G1 X109.821 Y159.71 E24.48121
G1 X110.208 Y160.922 E24.53862
G1 X110.333 Y161.444 E24.56283
G1 X110.378 Y161.945 E24.58553
G1 X110.398 Y163.011 E24.63363
G1 X110.39 Y163.591 E24.6598
G1 X110.342 Y164.125 E24.68399
G1 X110.216 Y164.646 E24.70817
G1 X110.014 Y165.143 E24.73238
G1 X109.74 Y165.604 E24.75657
G1 X109.401 Y166.019 E24.78075
G1 X109.004 Y166.38 E24.80496
G1 X108.558 Y166.677 E24.82913
G1 X108.072 Y166.905 E24.85335
G1 X107.558 Y167.058 E24.87755
G1 X106.891 Y167.14 E24.90787
G1 X106.47 Y167.15 E24.92687
G1 X73.861 Y167.15 E26.39808
G1 X73.163 Y167.141 E26.42957
G1 X72.628 Y167.094 E26.4538
G1 X72.107 Y166.968 E26.47799
G1 X71.61 Y166.766 E26.50219
G1 X71.149 Y166.493 E26.52636
G1 X70.733 Y166.154 E26.55057
G1 X70.372 Y165.758 E26.57475
G1 X70.074 Y165.312 E26.59895
G1 X69.846 Y164.826 E26.62317
G1 X69.693 Y164.312 E26.64737
G1 X69.61 Y163.638 E26.678
G1 X69.6 Y163.208 E26.69741
G1 X69.6 Y162.666 E26.72186
G1 X69.611 Y161.992 E26.75227
G1 X69.66 Y161.458 E26.77647
G1 X69.851 Y160.725 E26.81064
G1 X70.529 Y158.616 E26.91059
G1 X71.299 Y155.969 E27.03496
G1 X71.988 Y153.322 E27.15837
G1 X72.594 Y150.692 E27.28013
G1 X73.135 Y148.002 E27.40393
G1 X73.595 Y145.312 E27.52705
G1 X73.978 Y142.625 E27.64951
G1 X74.287 Y139.909 E27.77284
G1 X74.518 Y137.192 E27.89586
G1 X74.671 Y134.499 E28.01755
G1 X74.751 Y131.698 E28.14398
G1 X74.76 Y130.347 E28.20493
G1 X74.759 Y21.081 E33.13465
G1 X74.768 Y20.407 E33.16507
G1 X74.815 Y19.873 E33.18925
G1 X74.941 Y19.351 E33.21348
G0 F3000 X75.34 Y19.419
G1 F1500 X75.541 Y18.955 E33.23629
G1 X75.813 Y18.529 E33.2591
G1 X76.147 Y18.151 E33.28185
G1 X76.287 Y18.016 E33.29063
G1 X76.677 Y17.695 E33.31342
G1 X77.113 Y17.44 E33.33621
G1 X77.585 Y17.256 E33.35906
G1 X78.079 Y17.149 E33.38187
G1 X78.649 Y17.114 E33.40763
G1 X78.928 Y17.11 E33.42022
G1 X100.837 Y17.109 E34.40868
G1 X101.54 Y17.119 E34.4404
G1 X102.043 Y17.166 E34.46319
G1 X102.533 Y17.292 E34.48602
G1 X102.996 Y17.494 E34.50881
G1 X103.423 Y17.765 E34.53163
G1 X103.884 Y18.183 E34.5597
G1 X104.214 Y18.566 E34.58251
G1 X104.479 Y18.997 E34.60534
G1 X104.673 Y19.464 E34.62816
G1 X104.791 Y19.955 E34.65094
G1 X104.836 Y20.571 E34.6788
G1 X104.84 Y20.835 E34.69072
G1 X104.841 Y130.305 E39.62964
G1 X104.881 Y133.102 E39.75585
G1 X104.996 Y135.819 E39.87854
G1 X105.191 Y138.565 E40.00274
G1 X105.459 Y141.271 E40.12542
G1 X105.807 Y143.994 E40.24928
G1 X106.232 Y146.695 E40.37264
G1 X106.735 Y149.403 E40.4969
G1 X107.307 Y152.06 E40.61952
G1 X107.953 Y154.697 E40.74201
G1 X108.688 Y157.365 E40.86687
G1 X109.436 Y159.82 E40.98266
G1 X109.827 Y161.044 E41.04063
G1 X109.943 Y161.536 E41.06344
G1 X109.978 Y161.954 E41.08236
G1 X109.998 Y163.005 E41.12979
G1 X109.99 Y163.585 E41.15596
G1 X109.943 Y164.089 E41.17879
G1 X109.817 Y164.578 E41.20158
G1 X109.616 Y165.042 E41.22439
G1 X109.344 Y165.468 E41.24719
G1 X109.009 Y165.847 E41.27002
G1 X108.618 Y166.167 E41.29281
G1 X108.182 Y166.423 E41.31562
G1 X107.71 Y166.606 E41.33846
G1 X107.216 Y166.712 E41.36126
G1 X106.56 Y166.749 E41.3909
G1 X73.866 Y166.75 E42.86595
G1 X73.168 Y166.741 E42.89744
G1 X72.664 Y166.694 E42.92028
G1 X72.174 Y166.569 E42.94309
G1 X71.71 Y166.368 E42.96591
G1 X71.284 Y166.097 E42.98869
G1 X70.905 Y165.762 E43.01151
G1 X70.584 Y165.371 E43.03433
G1 X70.329 Y164.935 E43.05712
G1 X70.145 Y164.464 E43.07993
G1 X70.038 Y163.97 E43.10274
G1 X70.001 Y163.294 E43.13328
G1 X70 Y162.673 E43.1613
G1 X70.011 Y161.999 E43.19171
G1 X70.06 Y161.496 E43.21451
G1 X70.234 Y160.841 E43.24509
G1 X70.911 Y158.735 E43.3449
G1 X71.685 Y156.077 E43.4698
G1 X72.378 Y153.415 E43.5939
G1 X72.984 Y150.782 E43.7158
G1 X73.534 Y148.05 E43.84153
G1 X73.987 Y145.394 E43.96309
G1 X74.377 Y142.66 E44.08769
G1 X74.685 Y139.955 E44.21052
G1 X74.915 Y137.245 E44.33322
G1 X75.071 Y134.499 E44.45731
G1 X75.15 Y131.733 E44.58216
G1 X75.16 Y130.35 E44.64456
G1 X75.159 Y21.086 E49.57419
G1 X75.168 Y20.412 E49.6046
G1 X75.215 Y19.909 E49.62739
G1 X75.34 Y19.419 E49.65021
G1 F2400 E48.45021
;MESH:generic_spool_holder_v5.stl
G0 F3000 X80.4 Y35.35
;TYPE:WALL-INNER
G1 F2400 E49.65021
G1 F1500 X80.4 Y135.55 E54.1709
G1 X99.6 Y135.55 E55.03714
G1 X99.6 Y35.35 E59.55784
G1 X80.4 Y35.35 E60.42408
G0 F3000 X80.8 Y35.75
;TYPE:WALL-OUTER
G1 F1500 X80.8 Y135.15 E64.90868
G1 X99.2 Y135.15 E65.73882
G1 X99.2 Y35.75 E70.22342
G1 X80.8 Y35.75 E71.05357
G0 F3000 X80.8 Y35.95
G0 X80.36 Y35.95
G1 F2400 E69.85357
G0 F3000 X78.959 Y20.91
;TYPE:WALL-INNER
G1 F2400 E71.05357
G1 F1500 X101.04 Y20.909 E72.04979
G1 X101.041 Y149.991 E77.87355
G1 X100.257 Y149.992 E77.90892
G1 X101.2 Y154.707 E78.12586
G1 X101.2 Y158.968 E78.3181
G1 X106.2 Y162.367 E78.59087
G1 X106.2 Y162.95 E78.61718
G1 X73.8 Y162.95 E80.07896
G1 X73.8 Y162.367 E80.10526
G1 X78.8 Y158.968 E80.37803
G1 X78.8 Y154.707 E80.57028
G1 X79.743 Y149.991 E80.78726
G1 X78.96 Y149.991 E80.82258
G1 X78.959 Y20.91 E86.64629
G0 F3000 X78.559 Y20.533
;TYPE:WALL-OUTER
G1 F1500 X78.583 Y20.51 E86.64779
G1 X101.417 Y20.509 E87.67799
G1 X101.44 Y20.533 E87.67949
G1 X101.441 Y150.367 E93.53717
G1 X101.417 Y150.39 E93.53867
G1 X100.745 Y150.391 E93.56899
G1 X101.6 Y154.669 E93.76582
G1 X101.6 Y158.756 E93.95021
G1 X106.6 Y162.155 E94.22298
G1 X106.6 Y163.35 E94.27689
G1 X73.4 Y163.35 E95.77477
G1 X73.4 Y162.155 E95.82868
G1 X78.4 Y158.756 E96.10146
G1 X78.4 Y154.669 E96.28585
G1 X79.255 Y150.391 E96.48267
G1 X78.583 Y150.391 E96.51299
G1 X78.56 Y150.367 E96.51449
G1 X78.559 Y20.533 E102.37217
G0 F3000 X78.583 Y20.51
G0 X78.75 Y20.51
G0 X79 Y20.951
G0 X79.349 Y21.3
;TYPE:SKIN
G1 F1500 X100.65 Y21.299 E103.35157
G1 X100.651 Y149.601 E109.25074
G1 X99.781 Y149.602 E109.29074
G1 X100.81 Y154.743 E109.53181
G1 X100.81 Y159.175 E109.73559
G1 X105.791 Y162.56 E110.01249
G1 X74.209 Y162.56 E111.46459
G1 X79.19 Y159.175 E111.74149
G1 X79.19 Y154.743 E111.94527
G1 X80.219 Y149.601 E112.18638
G1 X79.35 Y149.601 E112.22633
G1 X79.349 Y21.3 E118.12546
G1 F2400 E116.92546
G0 F3000 X80.01 Y34.96
G1 F2400 E118.12546
G1 F1500 X80.01 Y135.94 E122.7684
G1 X99.99 Y135.94 E123.68706
G1 X99.99 Y34.96 E128.33
G1 X80.01 Y34.96 E129.24866
G1 F2400 E128.04866
G0 F3000 X100.469 Y21.839
G1 F2400 E129.24866
G1 F1500 X100.109 Y21.479 E129.27206
G0 F3000 X99.543 Y21.479
G1 F1500 X100.469 Y22.405 E129.33228
G0 F3000 X100.469 Y22.971
G1 F1500 X98.977 Y21.479 E129.42929
G0 F3000 X98.412 Y21.479
G1 F1500 X100.469 Y23.536 E129.56305
G0 F3000 X100.469 Y24.102
G1 F1500 X97.846 Y21.479 E129.7336
G0 F3000 X97.28 Y21.479
G1 F1500 X100.469 Y24.668 E129.94097
G0 F3000 X100.469 Y25.233
G1 F1500 X96.715 Y21.479 E130.18506
G0 F3000 X96.149 Y21.479
G1 F1500 X100.469 Y25.799 E130.46597
G0 F3000 X100.469 Y26.365
G1 F1500 X95.583 Y21.479 E130.78367
G0 F3000 X95.018 Y21.479
G1 F1500 X100.469 Y26.93 E131.13812
G0 F3000 X100.469 Y27.496
G1 F1500 X94.452 Y21.479 E131.52937
G0 F3000 X93.886 Y21.479
G1 F1500 X100.469 Y28.062 E131.95742
G0 F3000 X100.469 Y28.627
G1 F1500 X93.321 Y21.479 E132.42221
G0 F3000 X92.756 Y21.479
G1 F1500 X100.469 Y29.193 E132.92377
G0 F3000 X100.469 Y29.759
G1 F1500 X92.19 Y21.479 E133.46214
G0 F3000 X91.624 Y21.479
G1 F1500 X100.469 Y30.324 E134.03727
G0 F3000 X100.469 Y30.89
G1 F1500 X91.059 Y21.479 E134.64918
G0 F3000 X90.493 Y21.479
G1 F1500 X100.469 Y31.456 E135.29789
G0 F3000 X100.469 Y32.022
G1 F1500 X89.927 Y21.479 E135.9834
G0 F3000 X89.362 Y21.479
G1 F1500 X100.469 Y32.587 E136.70566
G0 F3000 X100.469 Y33.153
G1 F1500 X88.796 Y21.479 E137.46471
G0 F3000 X88.23 Y21.479
G1 F1500 X100.469 Y33.719 E138.26057
G0 F3000 X100.469 Y34.284
G1 F1500 X87.664 Y21.479 E139.0932
G0 F3000 X87.099 Y21.479
G1 F1500 X100.469 Y34.85 E139.9626
G0 F3000 X100.169 Y35.115
G1 F1500 X100.469 Y35.416 E139.98214
G0 F3000 X100.169 Y35.681
G1 F1500 X100.469 Y35.981 E140.00165
G0 F3000 X100.169 Y36.247
G1 F1500 X100.469 Y36.547 E140.02116
G0 F3000 X100.169 Y36.812
G1 F1500 X100.469 Y37.113 E140.0407
G0 F3000 X100.169 Y37.378
G1 F1500 X100.469 Y37.678 E140.06021
G0 F3000 X100.169 Y37.944
G1 F1500 X100.469 Y38.244 E140.07971
G0 F3000 X100.169 Y38.509
G1 F1500 X100.469 Y38.81 E140.09925
G0 F3000 X100.169 Y39.075
G1 F1500 X100.469 Y39.375 E140.11876
G0 F3000 X100.169 Y39.641
G1 F1500 X100.469 Y39.941 E140.13827
G0 F3000 X100.169 Y40.206
G1 F1500 X100.469 Y40.507 E140.15781
G0 F3000 X100.169 Y40.772
G1 F1500 X100.469 Y41.073 E140.17735
G0 F3000 X100.169 Y41.338
G1 F1500 X100.469 Y41.638 E140.19685
G0 F3000 X100.169 Y41.903
G1 F1500 X100.469 Y42.204 E140.21639
G0 F3000 X100.169 Y42.469
G1 F1500 X100.469 Y42.77 E140.23593
G0 F3000 X100.169 Y43.035
G1 F1500 X100.469 Y43.335 E140.25544
G0 F3000 X100.169 Y43.6
G1 F1500 X100.469 Y43.901 E140.27498
G0 F3000 X100.169 Y44.166
G1 F1500 X100.469 Y44.467 E140.29452
G0 F3000 X100.169 Y44.732
G1 F1500 X100.469 Y45.032 E140.31403
G0 F3000 X100.169 Y45.297
G1 F1500 X100.469 Y45.598 E140.33357
G0 F3000 X100.169 Y45.863
G1 F1500 X100.469 Y46.164 E140.35311
G0 F3000 X100.169 Y46.429
G1 F1500 X100.469 Y46.729 E140.37261
G0 F3000 X100.169 Y46.995
G1 F1500 X100.469 Y47.295 E140.39212
G0 F3000 X100.169 Y47.56
G1 F1500 X100.469 Y47.861 E140.41166
G0 F3000 X100.169 Y48.126
G1 F1500 X100.469 Y48.426 E140.43117
G0 F3000 X100.169 Y48.692
G1 F1500 X100.469 Y48.992 E140.45067
G0 F3000 X100.169 Y49.257
G1 F1500 X100.469 Y49.558 E140.47021
G0 F3000 X100.169 Y49.823
G1 F1500 X100.469 Y50.123 E140.48972
G0 F3000 X100.169 Y50.389
G1 F1500 X100.469 Y50.689 E140.50923
G0 F3000 X100.169 Y50.954
G1 F1500 X100.469 Y51.255 E140.52877
G0 F3000 X100.169 Y51.52
G1 F1500 X100.469 Y51.821 E140.54831
G0 F3000 X100.169 Y52.086
G1 F1500 X100.469 Y52.386 E140.56781
G0 F3000 X100.169 Y52.651
G1 F1500 X100.469 Y52.952 E140.58735
G0 F3000 X100.169 Y53.217
G1 F1500 X100.469 Y53.518 E140.60689
G0 F3000 X100.169 Y53.783
G1 F1500 X100.469 Y54.083 E140.6264
G0 F3000 X100.169 Y54.348
G1 F1500 X100.469 Y54.649 E140.64594
G0 F3000 X100.169 Y54.914
G1 F1500 X100.469 Y55.215 E140.66548
G0 F3000 X100.169 Y55.48
G1 F1500 X100.469 Y55.78 E140.68499
G0 F3000 X100.169 Y56.045
G1 F1500 X100.469 Y56.346 E140.70453
G0 F3000 X100.169 Y56.611
G1 F1500 X100.469 Y56.912 E140.72407
G0 F3000 X100.169 Y57.177
G1 F1500 X100.469 Y57.477 E140.74357
G0 F3000 X100.169 Y57.743
G1 F1500 X100.469 Y58.043 E140.76308
G0 F3000 X100.169 Y58.308
G1 F1500 X100.469 Y58.609 E140.78262
G0 F3000 X100.169 Y58.874
G1 F1500 X100.469 Y59.174 E140.80213
G0 F3000 X100.169 Y59.44
G1 F1500 X100.469 Y59.74 E140.82164
G0 F3000 X100.169 Y60.005
G1 F1500 X100.469 Y60.306 E140.84118
G0 F3000 X100.169 Y60.571
G1 F1500 X100.469 Y60.871 E140.86068
G0 F3000 X100.169 Y61.137
G1 F1500 X100.469 Y61.437 E140.88019
G0 F3000 X100.169 Y61.702
G1 F1500 X100.469 Y62.003 E140.89973
G0 F3000 X100.169 Y62.268
G1 F1500 X100.469 Y62.569 E140.91927
G0 F3000 X100.169 Y62.834
G1 F1500 X100.469 Y63.134 E140.93878
G0 F3000 X100.169 Y63.399
G1 F1500 X100.469 Y63.7 E140.95832
G0 F3000 X100.169 Y63.965
G1 F1500 X100.47 Y64.266 E140.97789
G0 F3000 X100.169 Y64.531
G1 F1500 X100.47 Y64.832 E140.99746
G0 F3000 X100.169 Y65.096
G1 F1500 X100.47 Y65.398 E141.01706
G0 F3000 X100.169 Y65.662
G1 F1500 X100.47 Y65.963 E141.03664
G0 F3000 X100.169 Y66.228
G1 F1500 X100.47 Y66.529 E141.05621
G0 F3000 X100.169 Y66.794
G1 F1500 X100.47 Y67.095 E141.07578
G0 F3000 X100.169 Y67.359
G1 F1500 X100.47 Y67.66 E141.09535
G0 F3000 X100.169 Y67.925
G1 F1500 X100.47 Y68.226 E141.11493
G0 F3000 X100.169 Y68.491
G1 F1500 X100.47 Y68.792 E141.1345
G0 F3000 X100.169 Y69.056
G1 F1500 X100.47 Y69.357 E141.15407
G0 F3000 X100.169 Y69.622
