;FLAVOR:Marlin
;TIME:16544
;Filament used: 25.26m
;Layer height: 0.3
;MINX:53.82
;MINY:7.82
;MINZ:0.3
;MAXX:126.18
;MAXY:172.18
;MAXZ:90
;Generated with Cura_SteamEngine 4.12.1
M82 ;absolute extrusion mode
G21 ;metric values
G90 ;absolute positioning
M82 ;set extruder to absolute mode
M107 ;start with the fan off

M104 S200 T0 ; start heating T0 to what is set in Cura
M140 S60 ; start heating the bed to what is set in Cura
M190 S60 ; start heating the bed to what is set in Cura
M109 S200 T0 ; start heating T0 to what is set in Cura

G28 X0 Y0 ;move X/Y to min endstops
G28 Z0 ;move Z to min endstops
G1 Z15.0 F2400 ;move the platform down 15mm
G92 E0 ;zero the extruded length
G1 F200 E3 ;extrude 3mm of feed stock
G92 E0 ;zero the extruded length again
G1 F2400
G0 Y20 F2400
M117 Printing...
G5
G92 E0
G92 E0
G1 F2400 E-1.2
;LAYER_COUNT:300
;LAYER:0
M107
G0 F3000 X67.907 Y18.782 Z0.3
;TYPE:SKIRT
G1 F2400 E0
G1 F1500 X68.26 Y17.739 E0.05692
G1 X68.689 Y16.724 E0.11389
G1 X69.189 Y15.742 E0.17086
G1 X69.76 Y14.8 E0.2278
G1 X70.398 Y13.901 E0.28479
G1 X71.099 Y13.051 E0.34175
G1 X71.717 Y12.395 E0.38834
G1 X71.846 Y12.266 E0.39777
G1 X72.653 Y11.516 E0.45473
G1 X73.512 Y10.826 E0.51168
G1 X74.419 Y10.2 E0.56866
G1 X75.369 Y9.642 E0.62561
G1 X76.357 Y9.154 E0.68258
G1 X77.378 Y8.739 E0.73956
G1 X78.426 Y8.399 E0.79651
G1 X79.496 Y8.137 E0.85346
G1 X80.582 Y7.952 E0.91041
G1 X81.679 Y7.847 E0.96738
G1 X82.58 Y7.82 E1.01398
G1 X97.42 Y7.82 E1.78115
G1 X98.521 Y7.86 E1.83811
G1 X99.616 Y7.98 E1.89506
G1 X100.7 Y8.179 E1.95203
G1 X101.767 Y8.456 E2.00902
G1 X102.81 Y8.809 E2.06594
G1 X103.825 Y9.238 E2.12291
G1 X104.807 Y9.738 E2.17988
G1 X105.749 Y10.309 E2.23682
G1 X106.648 Y10.947 E2.29381
G1 X107.498 Y11.648 E2.35077
G1 X108.154 Y12.266 E2.39736
G1 X108.283 Y12.395 E2.40679
G1 X109.033 Y13.202 E2.46374
G1 X109.723 Y14.061 E2.5207
G1 X110.349 Y14.968 E2.57768
G1 X110.907 Y15.918 E2.63463
G1 X111.395 Y16.906 E2.6916
G1 X111.81 Y17.927 E2.74857
G1 X112.15 Y18.975 E2.80553
G1 X112.412 Y20.045 E2.86248
G1 X112.597 Y21.131 E2.91943
G1 X112.702 Y22.228 E2.9764
G1 X112.729 Y23.129 E3.023
G1 X112.729 Y121.943 E8.13131
G1 X113.067 Y121.98 E8.14889
G1 X114.151 Y122.179 E8.20587
G1 X115.218 Y122.456 E8.26285
G1 X116.261 Y122.809 E8.31978
G1 X117.276 Y123.238 E8.37674
G1 X118.258 Y123.738 E8.43371
G1 X119.2 Y124.309 E8.49066
G1 X120.099 Y124.947 E8.54765
G1 X120.949 Y125.648 E8.6046
G1 X121.605 Y126.266 E8.65119
G1 X121.734 Y126.395 E8.66063
G1 X122.484 Y127.202 E8.71758
G1 X123.174 Y128.061 E8.77454
G1 X123.8 Y128.968 E8.83151
G1 X124.358 Y129.918 E8.88847
G1 X124.846 Y130.906 E8.94543
G1 X125.261 Y131.927 E9.00241
G1 X125.601 Y132.975 E9.05937
G1 X125.863 Y134.045 E9.11632
G1 X126.048 Y135.131 E9.17327
G1 X126.153 Y136.228 E9.23024
G1 X126.18 Y137.129 E9.27684
G1 X126.18 Y156.871 E10.29742
G1 X126.14 Y157.972 E10.35438
G1 X126.02 Y159.067 E10.41132
G1 X125.821 Y160.151 E10.4683
G1 X125.544 Y161.218 E10.52529
G1 X125.191 Y162.261 E10.58221
G1 X124.762 Y163.276 E10.63918
G1 X124.262 Y164.258 E10.69614
G1 X123.691 Y165.2 E10.75309
G1 X123.053 Y166.099 E10.81008
G1 X122.352 Y166.949 E10.86704
G1 X121.734 Y167.605 E10.91363
G1 X121.605 Y167.734 E10.92306
G1 X120.798 Y168.484 E10.98001
G1 X119.939 Y169.174 E11.03697
G1 X119.032 Y169.8 E11.09394
G1 X118.082 Y170.358 E11.1509
G1 X117.094 Y170.846 E11.20787
G1 X116.073 Y171.261 E11.26484
G1 X115.025 Y171.601 E11.3218
G1 X113.955 Y171.863 E11.37875
G1 X112.869 Y172.048 E11.4357
G1 X111.772 Y172.153 E11.49267
G1 X110.871 Y172.18 E11.53927
G1 X69.129 Y172.18 E13.69717
G1 X68.028 Y172.14 E13.75413
G1 X66.933 Y172.02 E13.81107
G1 X65.849 Y171.821 E13.86805
G1 X64.782 Y171.544 E13.92504
G1 X63.739 Y171.191 E13.98196
G1 X62.724 Y170.762 E14.03893
G1 X61.742 Y170.262 E14.0959
G1 X60.8 Y169.691 E14.15284
G1 X59.901 Y169.053 E14.20983
G1 X59.051 Y168.352 E14.26679
G1 X58.395 Y167.734 E14.31338
G1 X58.266 Y167.605 E14.32281
G1 X57.516 Y166.798 E14.37976
G1 X56.826 Y165.939 E14.43672
G1 X56.2 Y165.032 E14.4937
G1 X55.642 Y164.082 E14.55065
G1 X55.154 Y163.094 E14.60762
G1 X54.739 Y162.073 E14.66459
G1 X54.399 Y161.025 E14.72155
G1 X54.137 Y159.955 E14.7785
G1 X53.952 Y158.869 E14.83545
G1 X53.847 Y157.772 E14.89242
G1 X53.82 Y156.871 E14.93902
G1 X53.82 Y137.129 E15.95961
G1 X53.86 Y136.028 E16.01656
G1 X53.98 Y134.933 E16.07351
G1 X54.179 Y133.849 E16.13048
G1 X54.456 Y132.782 E16.18747
G1 X54.809 Y131.739 E16.2444
G1 X55.238 Y130.724 E16.30136
G1 X55.738 Y129.742 E16.35833
G1 X56.309 Y128.8 E16.41528
G1 X56.947 Y127.901 E16.47226
G1 X57.648 Y127.051 E16.52922
G1 X58.266 Y126.395 E16.57581
G1 X58.395 Y126.266 E16.58524
G1 X59.202 Y125.516 E16.6422
G1 X60.061 Y124.826 E16.69916
G1 X60.968 Y124.2 E16.75613
G1 X61.918 Y123.642 E16.81309
G1 X62.906 Y123.154 E16.87005
G1 X63.927 Y122.739 E16.92703
G1 X64.975 Y122.399 E16.98399
G1 X66.045 Y122.137 E17.04093
G1 X67.131 Y121.952 E17.09789
G1 X67.27 Y121.939 E17.1051
G1 X67.271 Y23.129 E22.21321
G1 X67.311 Y22.028 E22.27016
G1 X67.431 Y20.932 E22.32716
G1 X67.63 Y19.849 E22.38408
G1 X67.907 Y18.782 E22.44107
G0 F3000 X68.346 Y18.848
G1 F1500 X68.7 Y17.821 E22.49723
G1 X69.128 Y16.823 E22.55337
G1 X69.628 Y15.86 E22.60946
G1 X70.198 Y14.935 E22.66563
G1 X70.834 Y14.056 E22.72172
G1 X71.534 Y13.225 E22.77789
G1 X72.028 Y12.706 E22.81493
G1 X72.157 Y12.577 E22.82436
G1 X72.953 Y11.838 E22.88051
G1 X73.8 Y11.16 E22.9366
G1 X74.696 Y10.546 E22.99275
G1 X75.634 Y9.999 E23.04888
G1 X76.61 Y9.523 E23.10502
G1 X77.618 Y9.12 E23.16114
G1 X78.653 Y8.793 E23.21725
G1 X79.709 Y8.542 E23.27336
G1 X80.781 Y8.37 E23.32949
G1 X81.863 Y8.277 E23.38563
G1 X82.58 Y8.26 E23.42271
G1 X97.42 Y8.26 E24.18988
G1 X98.505 Y8.3 E24.24601
G1 X99.584 Y8.42 E24.30213
G1 X100.651 Y8.619 E24.35825
G1 X101.701 Y8.895 E24.41437
G1 X102.728 Y9.249 E24.47053
G1 X103.726 Y9.677 E24.52667
G1 X104.689 Y10.177 E24.58276
G1 X105.613 Y10.747 E24.63888
G1 X106.493 Y11.383 E24.69501
G1 X107.324 Y12.083 E24.75118
G1 X107.843 Y12.577 E24.78823
G1 X107.972 Y12.706 E24.79766
G1 X108.711 Y13.502 E24.85381
G1 X109.389 Y14.349 E24.90989
G1 X110.003 Y15.245 E24.96605
G1 X110.55 Y16.183 E25.02218
G1 X111.026 Y17.159 E25.07832
G1 X111.429 Y18.167 E25.13444
G1 X111.756 Y19.202 E25.19055
G1 X112.007 Y20.258 E25.24666
G1 X112.179 Y21.33 E25.30279
G1 X112.272 Y22.412 E25.35893
G1 X112.289 Y23.129 E25.39601
G1 X112.289 Y122.337 E30.52469
G1 X113.035 Y122.42 E30.56349
G1 X114.102 Y122.619 E30.6196
G1 X115.152 Y122.895 E30.67573
G1 X116.179 Y123.249 E30.73188
G1 X117.177 Y123.677 E30.78802
G1 X118.14 Y124.177 E30.84411
G1 X119.064 Y124.747 E30.90024
G1 X119.944 Y125.383 E30.95637
G1 X120.775 Y126.083 E31.01254
G1 X121.294 Y126.577 E31.04958
G1 X121.423 Y126.706 E31.05901
G1 X122.162 Y127.502 E31.11516
G1 X122.84 Y128.349 E31.17125
G1 X123.454 Y129.245 E31.2274
G1 X124.001 Y130.183 E31.28353
G1 X124.477 Y131.159 E31.33967
G1 X124.88 Y132.167 E31.39579
G1 X125.207 Y133.202 E31.4519
G1 X125.458 Y134.258 E31.50802
G1 X125.63 Y135.33 E31.56414
G1 X125.723 Y136.412 E31.62028
G1 X125.74 Y137.129 E31.65736
G1 X125.74 Y156.871 E32.67795
G1 X125.7 Y157.956 E32.73408
G1 X125.58 Y159.035 E32.7902
G1 X125.381 Y160.102 E32.84631
G1 X125.105 Y161.152 E32.90244
G1 X124.751 Y162.179 E32.95859
G1 X124.323 Y163.177 E33.01473
G1 X123.823 Y164.14 E33.07082
G1 X123.253 Y165.064 E33.12695
G1 X122.617 Y165.944 E33.18308
G1 X121.917 Y166.775 E33.23925
G1 X121.423 Y167.294 E33.27629
G1 X121.294 Y167.423 E33.28572
G1 X120.498 Y168.162 E33.34187
G1 X119.651 Y168.84 E33.39796
G1 X118.755 Y169.454 E33.45411
G1 X117.817 Y170.001 E33.51025
G1 X116.841 Y170.477 E33.56638
G1 X115.833 Y170.88 E33.6225
G1 X114.798 Y171.207 E33.67861
G1 X113.742 Y171.458 E33.73473
G1 X112.67 Y171.63 E33.79085
G1 X111.588 Y171.723 E33.847
G1 X110.871 Y171.74 E33.88407
G1 X69.129 Y171.74 E36.04198
G1 X68.044 Y171.7 E36.0981
G1 X66.965 Y171.58 E36.15423
G1 X65.898 Y171.381 E36.21034
G1 X64.848 Y171.105 E36.26646
G1 X63.821 Y170.751 E36.32262
G1 X62.823 Y170.323 E36.37876
G1 X61.86 Y169.823 E36.43485
G1 X60.936 Y169.253 E36.49098
G1 X60.056 Y168.617 E36.54711
G1 X59.225 Y167.917 E36.60328
G1 X58.706 Y167.423 E36.64032
G1 X58.577 Y167.294 E36.64975
G1 X57.838 Y166.498 E36.7059
G1 X57.16 Y165.651 E36.76199
G1 X56.546 Y164.755 E36.81814
G1 X55.999 Y163.817 E36.87427
G1 X55.523 Y162.841 E36.93041
G1 X55.12 Y161.833 E36.98653
G1 X54.793 Y160.798 E37.04264
G1 X54.542 Y159.742 E37.09876
G1 X54.37 Y158.67 E37.15488
G1 X54.277 Y157.588 E37.21102
G1 X54.26 Y156.871 E37.2481
G1 X54.26 Y137.129 E38.26869
G1 X54.3 Y136.044 E38.32482
G1 X54.42 Y134.965 E38.38094
G1 X54.619 Y133.898 E38.43705
G1 X54.895 Y132.848 E38.49318
G1 X55.249 Y131.821 E38.54933
G1 X55.677 Y130.823 E38.60547
G1 X56.177 Y129.86 E38.66156
G1 X56.747 Y128.936 E38.71769
G1 X57.383 Y128.056 E38.77382
G1 X58.083 Y127.225 E38.82999
G1 X58.577 Y126.706 E38.86703
G1 X58.706 Y126.577 E38.87646
G1 X59.502 Y125.838 E38.93261
G1 X60.349 Y125.16 E38.9887
G1 X61.245 Y124.546 E39.04485
G1 X62.183 Y123.999 E39.10099
G1 X63.159 Y123.523 E39.15712
G1 X64.167 Y123.12 E39.21324
G1 X65.202 Y122.793 E39.26935
G1 X66.258 Y122.542 E39.32547
G1 X67.33 Y122.37 E39.38159
G1 X67.71 Y122.337 E39.40131
G1 X67.711 Y23.129 E44.52999
G1 X67.751 Y22.044 E44.58612
G1 X67.871 Y20.965 E44.64224
G1 X68.07 Y19.897 E44.69841
G1 X68.346 Y18.848 E44.75448
G0 F3000 X68.786 Y18.914
G1 F1500 X69.14 Y17.904 E44.80981
G1 X69.567 Y16.924 E44.86507
G1 X70.067 Y15.979 E44.92034
G1 X70.636 Y15.073 E44.97565
G1 X71.271 Y14.213 E45.03091
G1 X72.339 Y13.017 E45.1138
G1 X72.468 Y12.888 E45.12324
G1 X73.252 Y12.161 E45.17851
G1 X74.088 Y11.494 E45.2338
G1 X74.972 Y10.892 E45.28909
G1 X75.898 Y10.357 E45.34437
G1 X76.862 Y9.893 E45.39968
G1 X77.857 Y9.502 E45.45495
G1 X78.879 Y9.187 E45.51023
G1 X79.921 Y8.949 E45.56549
G1 X80.979 Y8.79 E45.6208
G1 X82.58 Y8.7 E45.70369
G1 X97.42 Y8.7 E46.47087
G1 X98.489 Y8.74 E46.52617
G1 X99.551 Y8.86 E46.58142
G1 X100.602 Y9.059 E46.63672
G1 X101.635 Y9.335 E46.69199
G1 X102.644 Y9.689 E46.74727
G1 X103.625 Y10.116 E46.80258
G1 X104.57 Y10.616 E46.85785
G1 X105.476 Y11.185 E46.91316
G1 X106.336 Y11.82 E46.96842
G1 X107.532 Y12.888 E47.05131
G1 X107.661 Y13.017 E47.06075
G1 X108.388 Y13.801 E47.11602
G1 X109.055 Y14.637 E47.17131
G1 X109.657 Y15.521 E47.2266
G1 X110.192 Y16.447 E47.28188
G1 X110.656 Y17.411 E47.33719
G1 X111.047 Y18.406 E47.39246
G1 X111.362 Y19.428 E47.44774
G1 X111.6 Y20.47 E47.503
G1 X111.759 Y21.528 E47.55831
G1 X111.849 Y23.129 E47.6412
G1 X111.849 Y122.737 E52.79056
G1 X111.94 Y122.74 E52.79527
G1 X113.002 Y122.86 E52.85052
G1 X114.053 Y123.059 E52.90582
G1 X115.086 Y123.335 E52.96109
G1 X116.095 Y123.689 E53.01637
G1 X117.076 Y124.116 E53.07168
G1 X118.021 Y124.616 E53.12695
G1 X118.927 Y125.185 E53.18226
G1 X119.787 Y125.82 E53.23752
G1 X120.983 Y126.888 E53.32042
G1 X121.112 Y127.017 E53.32985
G1 X121.839 Y127.801 E53.38512
G1 X122.506 Y128.637 E53.44041
G1 X123.108 Y129.521 E53.4957
G1 X123.643 Y130.447 E53.55098
G1 X124.107 Y131.411 E53.60629
G1 X124.498 Y132.406 E53.66156
G1 X124.813 Y133.428 E53.71684
G1 X125.051 Y134.47 E53.7721
G1 X125.21 Y135.528 E53.82741
G1 X125.3 Y137.129 E53.9103
G1 X125.3 Y156.871 E54.93089
G1 X125.26 Y157.94 E54.98619
G1 X125.14 Y159.002 E55.04144
G1 X124.941 Y160.053 E55.09674
G1 X124.665 Y161.086 E55.15202
G1 X124.311 Y162.095 E55.2073
G1 X123.884 Y163.076 E55.26261
G1 X123.384 Y164.021 E55.31788
G1 X122.815 Y164.927 E55.37318
G1 X122.18 Y165.787 E55.42845
G1 X121.112 Y166.983 E55.51134
G1 X120.983 Y167.112 E55.52077
G1 X120.199 Y167.839 E55.57605
G1 X119.363 Y168.506 E55.63133
G1 X118.479 Y169.108 E55.68662
G1 X117.553 Y169.643 E55.74191
G1 X116.589 Y170.107 E55.79722
G1 X115.594 Y170.498 E55.85248
G1 X114.572 Y170.813 E55.90777
G1 X113.53 Y171.051 E55.96302
G1 X112.472 Y171.21 E56.01833
G1 X110.871 Y171.3 E56.10123
G1 X69.129 Y171.3 E58.25913
G1 X68.06 Y171.26 E58.31444
G1 X66.998 Y171.14 E58.36969
G1 X65.947 Y170.941 E58.42498
G1 X64.914 Y170.665 E58.48026
G1 X63.905 Y170.311 E58.53554
G1 X62.924 Y169.884 E58.59085
G1 X61.979 Y169.384 E58.64612
G1 X61.073 Y168.815 E58.70143
G1 X60.213 Y168.18 E58.75669
G1 X59.017 Y167.112 E58.83958
G1 X58.888 Y166.983 E58.84901
G1 X58.161 Y166.199 E58.90429
G1 X57.494 Y165.363 E58.95957
G1 X56.892 Y164.479 E59.01486
G1 X56.357 Y163.553 E59.07015
G1 X55.893 Y162.589 E59.12546
G1 X55.502 Y161.594 E59.18073
G1 X55.187 Y160.572 E59.23601
G1 X54.949 Y159.53 E59.29127
G1 X54.79 Y158.472 E59.34657
G1 X54.7 Y156.871 E59.42947
G1 X54.7 Y137.129 E60.45006
G1 X54.74 Y136.06 E60.50536
G1 X54.86 Y134.998 E60.56061
G1 X55.059 Y133.947 E60.61591
G1 X55.335 Y132.914 E60.67118
G1 X55.689 Y131.905 E60.72646
G1 X56.116 Y130.924 E60.78177
G1 X56.616 Y129.979 E60.83704
G1 X57.185 Y129.073 E60.89235
G1 X57.82 Y128.213 E60.94761
G1 X58.888 Y127.017 E61.03051
G1 X59.017 Y126.888 E61.03994
G1 X59.801 Y126.161 E61.09521
G1 X60.637 Y125.494 E61.1505
G1 X61.521 Y124.892 E61.20579
G1 X62.447 Y124.357 E61.26108
G1 X63.411 Y123.893 E61.31638
G1 X64.406 Y123.502 E61.37165
G1 X65.428 Y123.187 E61.42694
G1 X66.47 Y122.949 E61.48219
G1 X67.528 Y122.79 E61.5375
G1 X68.15 Y122.755 E61.56971
G1 X68.151 Y23.129 E66.71999
G1 X68.191 Y22.06 E66.7753
G1 X68.311 Y20.998 E66.83055
G1 X68.51 Y19.947 E66.88584
G1 X68.786 Y18.914 E66.94112
G0 F3000 X69.226 Y18.981
G1 F1500 X69.579 Y17.989 E66.99555
G1 X70.006 Y17.027 E67.04996
G1 X70.506 Y16.1 E67.10441
G1 X71.074 Y15.214 E67.15882
G1 X71.707 Y14.373 E67.21323
G1 X72.651 Y13.329 E67.286
G1 X72.78 Y13.2 E67.29543
G1 X73.552 Y12.484 E67.34986
G1 X74.376 Y11.829 E67.40428
G1 X75.248 Y11.238 E67.45873
G1 X76.161 Y10.716 E67.5131
G1 X77.112 Y10.264 E67.56754
G1 X78.095 Y9.886 E67.62198
G1 X79.103 Y9.583 E67.67639
G1 X80.132 Y9.358 E67.73085
G1 X81.174 Y9.211 E67.78525
G1 X82.58 Y9.14 E67.85803
G1 X97.42 Y9.14 E68.6252
G1 X98.472 Y9.18 E68.67962
G1 X99.518 Y9.3 E68.73405
G1 X100.552 Y9.498 E68.78847
G1 X101.568 Y9.775 E68.84292
G1 X102.56 Y10.128 E68.89735
G1 X103.522 Y10.555 E68.95176
G1 X104.449 Y11.054 E69.00618
G1 X105.335 Y11.622 E69.06059
G1 X106.176 Y12.256 E69.11504
G1 X107.22 Y13.2 E69.1878
G1 X107.349 Y13.329 E69.19723
G1 X108.065 Y14.101 E69.25166
G1 X108.72 Y14.925 E69.30608
G1 X109.311 Y15.797 E69.36054
G1 X109.833 Y16.71 E69.4149
G1 X110.285 Y17.661 E69.46934
G1 X110.663 Y18.644 E69.52378
G1 X110.966 Y19.652 E69.5782
G1 X111.191 Y20.681 E69.63265
G1 X111.338 Y21.723 E69.68705
G1 X111.409 Y23.129 E69.75983
G1 X111.409 Y123.16 E74.93105
G1 X111.923 Y123.18 E74.95764
G1 X112.969 Y123.3 E75.01207
G1 X114.003 Y123.498 E75.0665
G1 X115.019 Y123.775 E75.12094
G1 X116.011 Y124.128 E75.17537
G1 X116.973 Y124.555 E75.22978
G1 X117.9 Y125.054 E75.28421
G1 X118.786 Y125.622 E75.33861
G1 X119.627 Y126.256 E75.39306
G1 X120.671 Y127.2 E75.46582
G1 X120.8 Y127.329 E75.47525
G1 X121.516 Y128.101 E75.52969
G1 X122.171 Y128.925 E75.5841
G1 X122.762 Y129.797 E75.63856
G1 X123.284 Y130.71 E75.69293
G1 X123.736 Y131.661 E75.74736
G1 X124.114 Y132.644 E75.80181
G1 X124.417 Y133.652 E75.85622
G1 X124.642 Y134.681 E75.91067
G1 X124.789 Y135.723 E75.96507
G1 X124.86 Y137.129 E76.03785
G1 X124.86 Y156.871 E77.05844
G1 X124.82 Y157.923 E77.11286
G1 X124.7 Y158.969 E77.16729
G1 X124.502 Y160.003 E77.22171
G1 X124.225 Y161.019 E77.27616
G1 X123.872 Y162.011 E77.33059
G1 X123.445 Y162.973 E77.385
G1 X122.946 Y163.9 E77.43942
G1 X122.378 Y164.786 E77.49383
G1 X121.744 Y165.627 E77.54828
G1 X120.8 Y166.671 E77.62104
G1 X120.671 Y166.8 E77.63047
G1 X119.899 Y167.516 E77.6849
G1 X119.075 Y168.171 E77.73932
G1 X118.203 Y168.762 E77.79378
G1 X117.29 Y169.284 E77.84814
G1 X116.339 Y169.736 E77.90258
G1 X115.356 Y170.114 E77.95702
G1 X114.348 Y170.417 E78.01144
G1 X113.319 Y170.642 E78.06589
G1 X112.277 Y170.789 E78.12029
G1 X110.871 Y170.86 E78.19307
G1 X69.129 Y170.86 E80.35097
G1 X68.077 Y170.82 E80.40539
G1 X67.031 Y170.7 E80.45982
G1 X65.997 Y170.502 E80.51425
G1 X64.981 Y170.225 E80.56869
G1 X63.989 Y169.872 E80.62312
G1 X63.027 Y169.445 E80.67753
G1 X62.1 Y168.946 E80.73196
G1 X61.214 Y168.378 E80.78636
G1 X60.373 Y167.744 E80.84081
