;FLAVOR:Marlin
;TIME:12934
;Filament used: 21.7151m
;Layer height: 0.3
;MINX:62.18
;MINY:13.68
;MINZ:0.3
;MAXX:117.82
;MAXY:166.32
;MAXZ:90
;Generated with Cura_SteamEngine 4.12.1
M82 ;absolute extrusion mode
G21 ;metric values
G90 ;absolute positioning
M82 ;set extruder to absolute mode
M107 ;start with the fan off

M104 S200 T0 ; start heating T0 to what is set in Cura
M140 S60 ; start heating the bed to what is set in Cura
M190 S60 ; start heating the bed to what is set in Cura
M109 S200 T0 ; start heating T0 to what is set in Cura

G28 X0 Y0 ;move X/Y to min endstops
G28 Z0 ;move Z to min endstops
G1 Z15.0 F2400 ;move the platform down 15mm
G92 E0 ;zero the extruded length
G1 F200 E3 ;extrude 3mm of feed stock
G92 E0 ;zero the extruded length again
G1 F2400
G0 Y20 F2400
M117 Printing...
G5
G92 E0
G92 E0
G1 F2400 E-1.2
;LAYER_COUNT:300
;LAYER:0
M107
G0 F3000 X70.361 Y19.151 Z0.3
;TYPE:SKIRT
G1 F2400 E0
G1 F1500 X70.559 Y18.44 E0.03815
G1 X70.832 Y17.754 E0.07632
G1 X71.178 Y17.101 E0.11453
G1 X71.592 Y16.49 E0.15268
G1 X72.2 Y15.795 E0.20042
G1 X72.317 Y15.678 E0.20897
G1 X72.866 Y15.184 E0.24715
G1 X73.466 Y14.754 E0.28531
G1 X74.109 Y14.39 E0.32351
G1 X74.787 Y14.098 E0.36167
G1 X75.493 Y13.882 E0.39984
G1 X76.218 Y13.742 E0.43801
G1 X77.139 Y13.68 E0.48573
G1 X78.418 Y13.68 E0.55185
G1 X79.155 Y13.72 E0.59001
G1 X79.884 Y13.839 E0.62819
G1 X80.595 Y14.037 E0.66635
G1 X81.281 Y14.31 E0.70452
G1 X81.934 Y14.656 E0.74272
G1 X82.001 Y14.701 E0.74689
G1 X82.55 Y14.39 E0.77951
G1 X83.228 Y14.098 E0.81767
G1 X83.934 Y13.882 E0.85584
G1 X84.659 Y13.742 E0.89401
G1 X85.58 Y13.68 E0.94173
G1 X94.421 Y13.68 E1.39878
G1 X95.158 Y13.72 E1.43694
G1 X95.887 Y13.839 E1.47512
G1 X96.598 Y14.037 E1.51328
G1 X97.284 Y14.31 E1.55144
G1 X97.937 Y14.656 E1.58965
G1 X97.999 Y14.698 E1.59352
G1 X98.618 Y14.357 E1.63005
G1 X99.299 Y14.073 E1.6682
G1 X100.007 Y13.864 E1.70636
G1 X100.734 Y13.733 E1.74455
G1 X101.581 Y13.68 E1.78842
G1 X102.861 Y13.68 E1.85459
G1 X103.598 Y13.72 E1.89275
G1 X104.327 Y13.839 E1.93093
G1 X105.038 Y14.037 E1.96909
G1 X105.724 Y14.31 E2.00726
G1 X106.377 Y14.656 E2.04546
G1 X106.988 Y15.07 E2.08361
G1 X107.683 Y15.678 E2.13135
G1 X107.8 Y15.795 E2.13991
G1 X108.294 Y16.344 E2.17808
G1 X108.724 Y16.944 E2.21625
G1 X109.088 Y17.587 E2.25444
G1 X109.38 Y18.265 E2.29261
G1 X109.596 Y18.971 E2.33077
G1 X109.736 Y19.696 E2.36895
G1 X109.798 Y20.617 E2.41667
G1 X109.798 Y132.46 E8.19853
G1 X109.786 Y132.68 E8.20992
G1 X110.871 Y132.68 E8.26601
G1 X111.608 Y132.72 E8.30416
G1 X112.337 Y132.839 E8.34235
G1 X113.048 Y133.037 E8.3805
G1 X113.734 Y133.31 E8.41867
G1 X114.387 Y133.656 E8.45688
G1 X114.998 Y134.07 E8.49503
G1 X115.693 Y134.678 E8.54277
G1 X115.822 Y134.807 E8.5522
G1 X116.316 Y135.356 E8.59038
G1 X116.746 Y135.956 E8.62854
G1 X117.11 Y136.599 E8.66674
G1 X117.402 Y137.277 E8.7049
G1 X117.618 Y137.983 E8.74307
G1 X117.758 Y138.708 E8.78124
G1 X117.82 Y139.629 E8.82896
G1 X117.82 Y159.371 E9.84954
G1 X117.78 Y160.108 E9.8877
G1 X117.661 Y160.837 E9.92589
G1 X117.463 Y161.548 E9.96404
G1 X117.19 Y162.234 E10.00221
G1 X116.844 Y162.887 E10.04041
G1 X116.43 Y163.498 E10.07857
G1 X115.822 Y164.193 E10.1263
G1 X115.693 Y164.322 E10.13574
G1 X115.144 Y164.816 E10.17392
G1 X114.544 Y165.246 E10.21208
G1 X113.901 Y165.61 E10.25027
G1 X113.223 Y165.902 E10.28844
G1 X112.517 Y166.118 E10.3266
G1 X111.792 Y166.258 E10.36478
G1 X110.871 Y166.32 E10.4125
G1 X69.129 Y166.32 E12.5704
G1 X68.392 Y166.28 E12.60856
G1 X67.663 Y166.161 E12.64674
G1 X66.952 Y165.963 E12.6849
G1 X66.266 Y165.69 E12.72306
G1 X65.613 Y165.344 E12.76127
G1 X65.002 Y164.93 E12.79942
G1 X64.307 Y164.322 E12.84716
G1 X64.178 Y164.193 E12.85659
G1 X63.684 Y163.644 E12.89477
G1 X63.254 Y163.044 E12.93293
G1 X62.89 Y162.401 E12.97113
G1 X62.598 Y161.723 E13.00929
G1 X62.382 Y161.017 E13.04746
G1 X62.242 Y160.292 E13.08563
G1 X62.18 Y159.371 E13.13335
G1 X62.18 Y139.629 E14.15394
G1 X62.22 Y138.892 E14.19209
G1 X62.339 Y138.163 E14.23028
G1 X62.537 Y137.452 E14.26843
G1 X62.81 Y136.766 E14.3066
G1 X63.156 Y136.113 E14.34481
G1 X63.57 Y135.502 E14.38296
G1 X64.178 Y134.807 E14.4307
G1 X64.307 Y134.678 E14.44013
G1 X64.856 Y134.184 E14.47831
G1 X65.456 Y133.754 E14.51647
G1 X66.099 Y133.39 E14.55467
G1 X66.777 Y133.098 E14.59283
G1 X67.483 Y132.882 E14.631
G1 X68.208 Y132.742 E14.66917
G1 X69.129 Y132.68 E14.71689
G1 X70.207 Y132.68 E14.77262
G1 X70.201 Y132.46 E14.78399
G1 X70.202 Y20.617 E20.56585
G1 X70.242 Y19.88 E20.60401
G1 X70.361 Y19.151 E20.6422
G0 F3000 X70.801 Y19.2
G1 F1500 X70.999 Y18.513 E20.67916
G1 X71.272 Y17.854 E20.71603
G1 X71.616 Y17.228 E20.75296
G1 X72.029 Y16.645 E20.78989
G1 X72.511 Y16.106 E20.82727
G1 X72.628 Y15.989 E20.83583
G1 X73.16 Y15.513 E20.87273
G1 X73.742 Y15.099 E20.90966
G1 X74.367 Y14.754 E20.94656
G1 X75.027 Y14.48 E20.9835
G1 X75.713 Y14.281 E21.02043
G1 X76.417 Y14.161 E21.05735
G1 X77.139 Y14.12 E21.09473
G1 X78.418 Y14.12 E21.16085
G1 X79.131 Y14.16 E21.19777
G1 X79.835 Y14.279 E21.23468
G1 X80.521 Y14.477 E21.27159
G1 X81.181 Y14.75 E21.30852
G1 X81.807 Y15.094 E21.34544
G1 X81.999 Y15.23 E21.3576
G1 X82.183 Y15.099 E21.36928
G1 X82.808 Y14.754 E21.40619
G1 X83.468 Y14.48 E21.44313
G1 X84.154 Y14.281 E21.48006
G1 X84.858 Y14.161 E21.51697
G1 X85.58 Y14.12 E21.55436
G1 X94.421 Y14.12 E22.01141
G1 X95.134 Y14.16 E22.04832
G1 X95.838 Y14.279 E22.08523
G1 X96.524 Y14.477 E22.12214
G1 X97.184 Y14.75 E22.15907
G1 X97.81 Y15.094 E22.19599
G1 X98.001 Y15.23 E22.20812
G1 X98.405 Y14.967 E22.23304
G1 X99.043 Y14.646 E22.26996
G1 X99.713 Y14.399 E22.30687
G1 X100.407 Y14.229 E22.34381
G1 X101.115 Y14.137 E22.38072
G1 X101.581 Y14.12 E22.40483
G1 X102.861 Y14.12 E22.471
G1 X103.574 Y14.16 E22.50791
G1 X104.278 Y14.279 E22.54483
G1 X104.964 Y14.477 E22.58174
G1 X105.624 Y14.75 E22.61866
G1 X106.25 Y15.094 E22.65559
G1 X106.833 Y15.507 E22.69252
G1 X107.372 Y15.989 E22.7299
G1 X107.489 Y16.106 E22.73846
G1 X107.965 Y16.638 E22.77536
G1 X108.379 Y17.22 E22.81228
G1 X108.724 Y17.845 E22.84919
G1 X108.998 Y18.505 E22.88613
G1 X109.197 Y19.191 E22.92306
G1 X109.317 Y19.895 E22.95998
G1 X109.358 Y20.617 E22.99736
G1 X109.358 Y132.46 E28.77922
G1 X109.321 Y133.12 E28.81339
G1 X110.871 Y133.12 E28.89352
G1 X111.584 Y133.16 E28.93044
G1 X112.288 Y133.279 E28.96735
G1 X112.974 Y133.477 E29.00426
G1 X113.634 Y133.75 E29.04119
G1 X114.26 Y134.094 E29.07811
G1 X114.843 Y134.507 E29.11505
G1 X115.382 Y134.989 E29.15243
G1 X115.511 Y135.118 E29.16186
G1 X115.987 Y135.65 E29.19876
G1 X116.401 Y136.232 E29.23569
G1 X116.746 Y136.857 E29.27259
G1 X117.02 Y137.517 E29.30953
G1 X117.219 Y138.203 E29.34646
G1 X117.339 Y138.907 E29.38338
G1 X117.38 Y139.629 E29.42076
G1 X117.38 Y159.371 E30.44135
G1 X117.34 Y160.084 E30.47827
G1 X117.221 Y160.788 E30.51518
G1 X117.023 Y161.474 E30.55209
G1 X116.75 Y162.134 E30.58901
G1 X116.406 Y162.76 E30.62594
G1 X115.993 Y163.343 E30.66287
G1 X115.511 Y163.882 E30.70025
G1 X115.382 Y164.011 E30.70969
G1 X114.85 Y164.487 E30.74659
G1 X114.268 Y164.901 E30.78351
G1 X113.643 Y165.246 E30.82042
G1 X112.983 Y165.52 E30.85736
G1 X112.297 Y165.719 E30.89429
G1 X111.593 Y165.839 E30.93121
G1 X110.871 Y165.88 E30.96859
G1 X69.129 Y165.88 E33.12649
G1 X68.416 Y165.84 E33.16341
G1 X67.712 Y165.721 E33.20032
G1 X67.026 Y165.523 E33.23723
G1 X66.366 Y165.25 E33.27416
G1 X65.74 Y164.906 E33.31108
G1 X65.157 Y164.493 E33.34802
G1 X64.618 Y164.011 E33.3854
G1 X64.489 Y163.882 E33.39483
G1 X64.013 Y163.35 E33.43173
G1 X63.599 Y162.768 E33.46866
G1 X63.254 Y162.143 E33.50556
G1 X62.98 Y161.483 E33.54251
G1 X62.781 Y160.797 E33.57943
G1 X62.661 Y160.093 E33.61635
G1 X62.62 Y159.371 E33.65374
G1 X62.62 Y139.629 E34.67432
G1 X62.66 Y138.916 E34.71124
G1 X62.779 Y138.212 E34.74815
G1 X62.977 Y137.526 E34.78506
G1 X63.25 Y136.866 E34.82198
G1 X63.594 Y136.24 E34.85891
G1 X64.007 Y135.657 E34.89585
G1 X64.489 Y135.118 E34.93323
G1 X64.618 Y134.989 E34.94266
G1 X65.15 Y134.513 E34.97956
G1 X65.732 Y134.099 E35.01648
G1 X66.357 Y133.754 E35.05339
G1 X67.017 Y133.48 E35.09033
G1 X67.703 Y133.281 E35.12726
G1 X68.407 Y133.161 E35.16418
G1 X69.129 Y133.12 E35.20156
G1 X70.679 Y133.12 E35.28169
G1 X70.641 Y132.46 E35.31587
G1 X70.642 Y20.617 E41.09773
G1 X70.682 Y19.904 E41.13465
G1 X70.801 Y19.2 E41.17156
G0 F3000 X71.241 Y19.25
G1 F1500 X71.438 Y18.59 E41.20716
G1 X71.711 Y17.957 E41.2428
G1 X72.055 Y17.36 E41.27842
G1 X72.465 Y16.807 E41.31401
G1 X72.822 Y16.417 E41.34134
G1 X72.939 Y16.3 E41.3499
G1 X73.453 Y15.842 E41.38549
G1 X74.018 Y15.446 E41.42115
G1 X74.624 Y15.119 E41.45675
G1 X75.264 Y14.864 E41.49237
G1 X75.929 Y14.684 E41.52798
G1 X76.611 Y14.584 E41.56362
G1 X77.139 Y14.56 E41.59094
G1 X78.418 Y14.56 E41.65706
G1 X79.106 Y14.6 E41.69269
G1 X79.785 Y14.719 E41.72832
G1 X80.445 Y14.916 E41.76393
G1 X81.078 Y15.189 E41.79957
G1 X81.675 Y15.533 E41.83519
G1 X81.996 Y15.771 E41.85584
G1 X82.459 Y15.446 E41.88509
G1 X83.065 Y15.119 E41.92069
G1 X83.705 Y14.864 E41.9563
G1 X84.37 Y14.684 E41.99192
G1 X85.052 Y14.584 E42.02755
G1 X85.58 Y14.56 E42.05487
G1 X94.421 Y14.56 E42.51192
G1 X95.109 Y14.6 E42.54755
G1 X95.788 Y14.719 E42.58318
G1 X96.448 Y14.916 E42.61879
G1 X97.081 Y15.189 E42.65443
G1 X97.678 Y15.533 E42.69005
G1 X98.001 Y15.772 E42.71082
G1 X98.245 Y15.585 E42.72671
G1 X98.836 Y15.232 E42.7623
G1 X99.465 Y14.95 E42.79794
G1 X100.122 Y14.742 E42.83356
G1 X100.799 Y14.612 E42.8692
G1 X101.581 Y14.56 E42.90971
G1 X102.861 Y14.56 E42.97589
G1 X103.549 Y14.6 E43.01151
G1 X104.228 Y14.719 E43.04715
G1 X104.888 Y14.916 E43.08276
G1 X105.521 Y15.189 E43.11839
G1 X106.118 Y15.533 E43.15401
G1 X106.671 Y15.943 E43.1896
G1 X107.061 Y16.3 E43.21693
G1 X107.178 Y16.417 E43.22549
G1 X107.636 Y16.931 E43.26108
G1 X108.032 Y17.496 E43.29675
G1 X108.359 Y18.102 E43.33234
G1 X108.614 Y18.742 E43.36796
G1 X108.794 Y19.407 E43.40357
G1 X108.894 Y20.089 E43.43921
G1 X108.918 Y20.617 E43.46653
G1 X108.918 Y132.46 E49.24839
G1 X108.878 Y133.148 E49.28402
G1 X108.806 Y133.56 E49.30564
G1 X110.871 Y133.56 E49.4124
G1 X111.559 Y133.6 E49.44802
G1 X112.238 Y133.719 E49.48366
G1 X112.898 Y133.916 E49.51927
G1 X113.531 Y134.189 E49.5549
G1 X114.128 Y134.533 E49.59052
G1 X114.681 Y134.943 E49.62611
G1 X115.071 Y135.3 E49.65344
G1 X115.2 Y135.429 E49.66288
G1 X115.658 Y135.943 E49.69847
G1 X116.054 Y136.508 E49.73413
G1 X116.381 Y137.114 E49.76973
G1 X116.636 Y137.754 E49.80535
G1 X116.816 Y138.419 E49.84096
G1 X116.916 Y139.101 E49.8766
G1 X116.94 Y139.629 E49.90392
G1 X116.94 Y159.371 E50.92451
G1 X116.9 Y160.059 E50.96013
G1 X116.781 Y160.738 E50.99577
G1 X116.584 Y161.398 E51.03138
G1 X116.311 Y162.031 E51.06701
G1 X115.967 Y162.628 E51.10263
G1 X115.557 Y163.181 E51.13822
G1 X115.2 Y163.571 E51.16556
G1 X115.071 Y163.7 E51.17499
G1 X114.557 Y164.158 E51.21058
G1 X113.992 Y164.554 E51.24624
G1 X113.386 Y164.881 E51.28184
G1 X112.746 Y165.136 E51.31746
G1 X112.081 Y165.316 E51.35307
G1 X111.399 Y165.416 E51.38871
G1 X110.871 Y165.44 E51.41603
G1 X69.129 Y165.44 E53.57393
G1 X68.441 Y165.4 E53.60956
G1 X67.762 Y165.281 E53.6452
G1 X67.102 Y165.084 E53.68081
G1 X66.469 Y164.811 E53.71644
G1 X65.872 Y164.467 E53.75206
G1 X65.319 Y164.057 E53.78765
G1 X64.929 Y163.7 E53.81498
G1 X64.8 Y163.571 E53.82441
G1 X64.342 Y163.057 E53.86
G1 X63.946 Y162.492 E53.89567
G1 X63.619 Y161.886 E53.93127
G1 X63.364 Y161.246 E53.96689
G1 X63.184 Y160.581 E54.0025
G1 X63.084 Y159.899 E54.03813
G1 X63.06 Y159.371 E54.06546
G1 X63.06 Y139.629 E55.08605
G1 X63.1 Y138.941 E55.12167
G1 X63.219 Y138.262 E55.15731
G1 X63.416 Y137.602 E55.19292
G1 X63.689 Y136.969 E55.22855
G1 X64.033 Y136.372 E55.26417
G1 X64.443 Y135.819 E55.29976
G1 X64.8 Y135.429 E55.32709
G1 X64.929 Y135.3 E55.33653
G1 X65.443 Y134.842 E55.37212
G1 X66.008 Y134.446 E55.40778
G1 X66.614 Y134.119 E55.44338
G1 X67.254 Y133.864 E55.479
G1 X67.919 Y133.684 E55.51461
G1 X68.601 Y133.584 E55.55025
G1 X69.129 Y133.56 E55.57757
G1 X71.187 Y133.56 E55.68396
G1 X71.175 Y133.512 E55.68652
G1 X71.092 Y132.828 E55.72214
G1 X71.081 Y132.46 E55.74117
G1 X71.082 Y20.617 E61.52303
G1 X71.122 Y19.929 E61.55866
G1 X71.241 Y19.25 E61.5943
G0 F3000 X71.681 Y19.303
G1 F1500 X71.878 Y18.67 E61.62857
G1 X72.15 Y18.065 E61.66286
G1 X72.492 Y17.497 E61.69713
G1 X72.901 Y16.975 E61.73142
G1 X73.25 Y16.611 E61.75749
G1 X73.746 Y16.171 E61.79176
G1 X74.292 Y15.794 E61.82606
G1 X74.879 Y15.486 E61.86033
G1 X75.498 Y15.25 E61.89458
G1 X76.142 Y15.091 E61.92887
G1 X76.8 Y15.01 E61.96314
G1 X77.139 Y15 E61.98068
G1 X78.418 Y15 E62.0468
G1 X79.08 Y15.04 E62.08108
G1 X79.732 Y15.159 E62.11534
G1 X80.365 Y15.356 E62.14962
G1 X80.97 Y15.628 E62.18391
G1 X81.538 Y15.97 E62.21818
G1 X82.003 Y16.334 E62.24871
G1 X82.187 Y16.171 E62.26142
G1 X82.733 Y15.794 E62.29572
G1 X83.32 Y15.486 E62.32999
G1 X83.939 Y15.25 E62.36424
G1 X84.583 Y15.091 E62.39853
G1 X85.241 Y15.01 E62.4328
G1 X85.58 Y15 E62.45033
G1 X94.421 Y15 E62.90738
G1 X95.083 Y15.04 E62.94167
G1 X95.735 Y15.159 E62.97593
G1 X96.368 Y15.356 E63.0102
G1 X96.973 Y15.628 E63.04449
G1 X97.541 Y15.97 E63.07877
G1 X98.004 Y16.333 E63.10918
G1 X98.14 Y16.21 E63.11866
G1 X98.681 Y15.827 E63.15293
G1 X99.264 Y15.512 E63.18718
G1 X99.881 Y15.269 E63.22147
G1 X100.523 Y15.103 E63.25575
G1 X101.18 Y15.015 E63.29001
G1 X101.581 Y15 E63.31076
G1 X102.861 Y15 E63.37693
G1 X103.523 Y15.04 E63.41122
G1 X104.175 Y15.159 E63.44548
G1 X104.808 Y15.356 E63.47975
G1 X105.413 Y15.628 E63.51404
G1 X105.981 Y15.97 E63.54832
G1 X106.503 Y16.379 E63.5826
G1 X106.867 Y16.728 E63.60867
G1 X107.307 Y17.224 E63.64295
G1 X107.684 Y17.77 E63.67725
G1 X107.992 Y18.357 E63.71152
G1 X108.228 Y18.976 E63.74576
G1 X108.387 Y19.62 E63.78005
G1 X108.468 Y20.278 E63.81433
G1 X108.478 Y20.617 E63.83186
G1 X108.478 Y132.46 E69.61372
G1 X108.438 Y133.122 E69.64801
G1 X108.319 Y133.774 E69.68227
G1 X108.249 Y134 E69.6945
G1 X110.871 Y134 E69.83005
G1 X111.533 Y134.04 E69.86433
G1 X112.185 Y134.159 E69.8986
G1 X112.818 Y134.356 E69.93287
G1 X113.423 Y134.628 E69.96716
G1 X113.991 Y134.97 E70.00143
G1 X114.513 Y135.379 E70.03572
G1 X114.889 Y135.74 E70.06266
G1 X115.329 Y136.236 E70.09694
G1 X115.706 Y136.782 E70.13124
G1 X116.014 Y137.369 E70.16551
G1 X116.25 Y137.988 E70.19976
G1 X116.409 Y138.632 E70.23405
G1 X116.49 Y139.29 E70.26832
G1 X116.5 Y139.629 E70.28585
G1 X116.5 Y159.371 E71.30644
G1 X116.46 Y160.033 E71.34073
G1 X116.341 Y160.685 E71.37499
G1 X116.144 Y161.318 E71.40926
G1 X115.872 Y161.923 E71.44355
G1 X115.53 Y162.491 E71.47783
G1 X115.121 Y163.013 E71.51211
G1 X114.76 Y163.389 E71.53906
G1 X114.264 Y163.829 E71.57333
G1 X113.718 Y164.206 E71.60763
G1 X113.131 Y164.514 E71.6419
G1 X112.512 Y164.75 E71.67615
G1 X111.868 Y164.909 E71.71044
G1 X111.21 Y164.99 E71.74472
G1 X110.871 Y165 E71.76225
G1 X69.129 Y165 E73.92015
G1 X68.467 Y164.96 E73.95444
G1 X67.815 Y164.841 E73.9887
G1 X67.182 Y164.644 E74.02297
G1 X66.577 Y164.372 E74.05726
G1 X66.009 Y164.03 E74.09154
G1 X65.487 Y163.621 E74.12582
G1 X65.111 Y163.26 E74.15277
G1 X64.671 Y162.764 E74.18704
G1 X64.294 Y162.218 E74.22134
G1 X63.986 Y161.631 E74.25561
G1 X63.75 Y161.012 E74.28986
G1 X63.591 Y160.368 E74.32415
G1 X63.51 Y159.71 E74.35843
G1 X63.5 Y159.371 E74.37596
G1 X63.5 Y139.629 E75.39655
G1 X63.54 Y138.967 E75.43083
G1 X63.659 Y138.315 E75.46509
G1 X63.856 Y137.682 E75.49937
G1 X64.128 Y137.077 E75.53366
G1 X64.47 Y136.509 E75.56793
G1 X64.879 Y135.987 E75.60221
G1 X65.24 Y135.611 E75.62916
G1 X65.736 Y135.171 E75.66344
G1 X66.282 Y134.794 E75.69774
G1 X66.869 Y134.486 E75.73201
G1 X67.488 Y134.25 E75.76625
G1 X68.132 Y134.091 E75.80055
G1 X68.79 Y134.01 E75.83482
G1 X69.129 Y134 E75.85235
G1 X71.75 Y134 E75.98785
G1 X71.684 Y133.788 E75.99933
G1 X71.563 Y133.137 E76.03356
G1 X71.521 Y132.46 E76.06862
G1 X71.522 Y20.617 E81.85048
G1 X71.562 Y19.955 E81.88477
G1 X71.681 Y19.303 E81.91903
G0 F3000 X72.121 Y19.358
G1 F1500 X72.318 Y18.753 E81.95192
G1 X72.589 Y18.178 E81.98479
G1 X72.93 Y17.641 E82.01767
G1 X73.444 Y17.039 E82.05859
G1 X73.561 Y16.922 E82.06715
G1 X74.038 Y16.502 E82.1
G1 X74.564 Y16.144 E82.1329
