;FLAVOR:Marlin
;TIME:2738
;Filament used: 4.38386m
;Layer height: 0.3
;MINX:25.908
;MINY:54.893
;MINZ:0.3
;MAXX:156.095
;MAXY:110.096
;MAXZ:17.1
;Generated with Cura_SteamEngine 4.12.1
M82 ;absolute extrusion mode
G21 ;metric values
G90 ;absolute positioning
M82 ;set extruder to absolute mode
M107 ;start with the fan off

M104 S200 T0 ; start heating T0 to what is set in Cura
M140 S60 ; start heating the bed to what is set in Cura
M190 S60 ; start heating the bed to what is set in Cura
M109 S200 T0 ; start heating T0 to what is set in Cura

G28 X0 Y0 ;move X/Y to min endstops
G28 Z0 ;move Z to min endstops
G1 Z15.0 F2400 ;move the platform down 15mm
G92 E0 ;zero the extruded length
G1 F200 E3 ;extrude 3mm of feed stock
G92 E0 ;zero the extruded length again
G1 F2400
G0 Y20 F2400
M117 Printing...
G5
G92 E0
G92 E0
G1 F2400 E-1.2
;LAYER_COUNT:57
;LAYER:0
M107
G0 F3000 X29.408 Y94.35 Z0.3
;TYPE:SKIRT
G1 F2400 E0
G1 F1500 X30.041 Y94.246 E0.03184
G1 X30.438 Y94.212 E0.05161
G1 X32.468 Y94.067 E0.15261
G1 X35.175 Y93.796 E0.28763
G1 X37.876 Y93.45 E0.42277
G1 X40.554 Y93.028 E0.55731
G1 X43.201 Y92.534 E0.69095
G1 X45.836 Y91.964 E0.82474
G1 X48.71 Y91.255 E0.97165
G1 X50.2 Y90.863 E1.04812
G1 X52.848 Y90.127 E1.18451
G1 X55.423 Y89.331 E1.31827
G1 X58.018 Y88.448 E1.45431
G1 X60.541 Y87.509 E1.58791
G1 X63.063 Y86.489 E1.72292
G1 X65.535 Y85.405 E1.85688
G1 X68.014 Y84.235 E1.99293
G1 X70.415 Y83.017 E2.12654
G1 X72.789 Y81.728 E2.2606
G1 X75.158 Y80.352 E2.39657
G1 X77.44 Y78.941 E2.52972
G1 X79.719 Y77.441 E2.66512
G1 X81.919 Y75.9 E2.79842
G1 X84.129 Y74.258 E2.93506
G1 X86.246 Y72.589 E3.06885
G1 X88.335 Y70.845 E3.2039
G1 X90.369 Y69.047 E3.33863
G1 X91.058 Y68.407 E3.3853
G1 X91.56 Y67.955 E3.41883
G1 X92.129 Y67.483 E3.45552
G1 X92.322 Y67.336 E3.46756
G1 X92.864 Y66.948 E3.50064
G1 X93.34 Y66.63 E3.52905
G1 X93.948 Y66.28 E3.56386
G1 X94.541 Y65.978 E3.59689
G1 X95.032 Y65.753 E3.62369
G1 X95.141 Y65.705 E3.62961
G1 X95.779 Y65.437 E3.66395
G1 X95.941 Y65.375 E3.67256
G1 X96.56 Y65.145 E3.70533
G1 X96.688 Y65.1 E3.71206
G1 X98.18 Y64.601 E3.79014
G1 X98.341 Y64.55 E3.79852
G1 X98.884 Y64.393 E3.82657
G1 X99.549 Y64.234 E3.86051
G1 X101.313 Y63.856 E3.95004
G1 X102.94 Y63.47 E4.03302
G1 X103.52 Y63.327 E4.06267
G1 X104.763 Y63.056 E4.12581
G1 X105.208 Y62.966 E4.14834
G1 X107.859 Y62.348 E4.28343
G1 X109.21 Y62.052 E4.35207
G1 X109.808 Y61.929 E4.38237
G1 X112.196 Y61.371 E4.50407
G1 X112.521 Y61.292 E4.52067
G1 X113.603 Y61.058 E4.57561
G1 X114.049 Y60.968 E4.59819
G1 X117.019 Y60.279 E4.7495
G1 X118.118 Y60.04 E4.80532
G1 X118.464 Y59.971 E4.82283
G1 X121.435 Y59.279 E4.97422
G1 X122.579 Y59.029 E5.03234
G1 X123.155 Y58.911 E5.06152
G1 X125.688 Y58.322 E5.19058
G1 X125.907 Y58.269 E5.20176
G1 X127.148 Y58 E5.26478
G1 X127.521 Y57.924 E5.28367
G1 X130.355 Y57.264 E5.42808
G1 X131.364 Y57.044 E5.47933
G1 X132.122 Y56.89 E5.51772
G1 X133.458 Y56.57 E5.5859
G1 X133.646 Y56.539 E5.59536
G1 X134.866 Y56.257 E5.6575
G1 X135.094 Y56.211 E5.66904
G1 X136.159 Y56.028 E5.72267
G1 X138.872 Y55.523 E5.85963
G1 X140.901 Y55.083 E5.96266
G1 X141.484 Y54.966 E5.99217
G1 X142.052 Y54.893 E6.02059
G1 X142.718 Y54.9 E6.05365
G1 X143.398 Y54.966 E6.08755
G1 X144.218 Y55.137 E6.12912
G1 X144.745 Y55.296 E6.15644
G1 X145.4 Y55.563 E6.19155
G1 X145.53 Y55.627 E6.19874
G1 X146.086 Y55.957 E6.23083
G1 X146.482 Y56.237 E6.25489
G1 X146.925 Y56.6 E6.28332
G1 X147.356 Y57.069 E6.31493
G1 X147.777 Y57.642 E6.35022
G1 X148.073 Y58.132 E6.37863
G1 X148.339 Y58.781 E6.41344
G1 X148.548 Y59.575 E6.45418
G1 X148.611 Y59.9 E6.47061
G1 X148.693 Y60.442 E6.49782
G1 X149.133 Y63.112 E6.63211
G1 X149.647 Y65.767 E6.76632
G1 X150.246 Y68.451 E6.9028
G1 X150.904 Y71.042 E7.03547
G1 X151.95 Y74.664 E7.22257
G1 X152.102 Y75.156 E7.24813
G1 X152.231 Y75.709 E7.27631
G1 X152.371 Y76.574 E7.3198
G1 X152.518 Y77.59 E7.37074
G1 X152.977 Y80.225 E7.50348
G1 X153.526 Y82.922 E7.64008
G1 X154.128 Y85.512 E7.77204
G1 X154.825 Y88.16 E7.90793
G1 X155.614 Y90.841 E8.04663
G1 X155.835 Y91.564 E8.08415
G1 X155.93 Y91.909 E8.10191
G1 X156.054 Y92.624 E8.13792
G1 X156.095 Y93.314 E8.17222
G1 X156.081 Y93.886 E8.20062
G1 X155.989 Y94.443 E8.22864
G1 X155.837 Y95.08 E8.26114
G1 X155.81 Y95.183 E8.26642
G1 X155.627 Y95.725 E8.29481
G1 X155.342 Y96.282 E8.32587
G1 X154.857 Y97.034 E8.37027
G1 X154.664 Y97.287 E8.38607
G1 X154.286 Y97.716 E8.41444
G1 X154.011 Y97.964 E8.43282
G1 X153.602 Y98.301 E8.45912
G1 X152.935 Y98.784 E8.49999
G1 X152.333 Y99.121 E8.53423
G1 X151.836 Y99.353 E8.56145
G1 X151.176 Y99.576 E8.59602
G1 X150.677 Y99.699 E8.62153
G1 X148.002 Y100.392 E8.75867
G1 X146.222 Y100.899 E8.85052
G1 X145.943 Y100.97 E8.86481
G1 X143.629 Y101.469 E8.98229
G1 X141.881 Y101.898 E9.07161
G1 X141.045 Y102.091 E9.11419
G1 X138.61 Y102.62 E9.23786
G1 X137.839 Y102.81 E9.27727
G1 X136.774 Y103.056 E9.33151
G1 X134.01 Y103.657 E9.47189
G1 X132.305 Y104.068 E9.55893
G1 X131.268 Y104.296 E9.61162
G1 X130.935 Y104.363 E9.62848
G1 X129.298 Y104.743 E9.71188
G1 X129.198 Y104.759 E9.71691
G1 X127.834 Y105.08 E9.78645
G1 X127.541 Y105.141 E9.8013
G1 X123.723 Y106.006 E9.99559
G1 X123.448 Y106.073 E10.00963
G1 X122.742 Y106.226 E10.04549
G1 X122.499 Y106.273 E10.05777
G1 X119.812 Y106.879 E10.19447
G1 X119.607 Y106.93 E10.20495
G1 X118.771 Y107.123 E10.24753
G1 X116.417 Y107.632 E10.36706
G1 X114.518 Y108.088 E10.46398
G1 X114.121 Y108.176 E10.48416
G1 X113.131 Y108.372 E10.53425
G1 X110.193 Y109.053 E10.68392
G1 X109.688 Y109.158 E10.70952
G1 X109.247 Y109.231 E10.73171
G1 X108.201 Y109.376 E10.78411
G1 X107.688 Y109.437 E10.80975
G1 X107.139 Y109.498 E10.83717
G1 X106.013 Y109.599 E10.89327
G1 X105.282 Y109.637 E10.9296
G1 X105.086 Y109.64 E10.93933
G1 X104.382 Y109.631 E10.97427
G1 X103.637 Y109.59 E11.0113
G1 X102.927 Y109.505 E11.04678
G1 X102.532 Y109.438 E11.06667
G1 X101.778 Y109.272 E11.10498
G1 X101.245 Y109.132 E11.13233
G1 X101.061 Y109.077 E11.14186
G1 X98.686 Y108.309 E11.26574
G1 X96.084 Y107.548 E11.40028
G1 X93.455 Y106.858 E11.53518
G1 X90.812 Y106.245 E11.66982
G1 X88.14 Y105.702 E11.80514
G1 X85.467 Y105.242 E11.93975
G1 X82.794 Y104.856 E12.07378
G1 X80.115 Y104.547 E12.20762
G1 X77.385 Y104.31 E12.34361
G1 X74.687 Y104.152 E12.47774
G1 X71.986 Y104.071 E12.61185
G1 X69.282 Y104.066 E12.74604
G1 X66.548 Y104.138 E12.88177
G1 X63.85 Y104.286 E13.01587
G1 X61.15 Y104.511 E13.15033
G1 X58.437 Y104.814 E13.28581
G1 X55.781 Y105.188 E13.41892
G1 X53.067 Y105.647 E13.55553
G1 X50.423 Y106.173 E13.68932
G1 X49.089 Y106.467 E13.75711
G1 X48.277 Y106.653 E13.79845
G1 X46.129 Y107.111 E13.90745
G1 X44.397 Y107.528 E13.99586
G1 X43.629 Y107.698 E14.0349
G1 X42.604 Y107.906 E14.08681
G1 X40.23 Y108.465 E14.20785
G1 X39.082 Y108.721 E14.26622
G1 X38.202 Y108.899 E14.31078
G1 X35.462 Y109.544 E14.45047
G1 X35.284 Y109.582 E14.45951
G1 X34.432 Y109.743 E14.50254
G1 X34.294 Y109.766 E14.50948
G1 X32.93 Y109.975 E14.57797
G1 X32.227 Y110.064 E14.61313
G1 X31.655 Y110.096 E14.64156
G1 X31.085 Y110.048 E14.66995
G1 X30.527 Y109.921 E14.69835
G1 X29.992 Y109.718 E14.72675
G1 X29.49 Y109.442 E14.75518
G1 X29.121 Y109.177 E14.77773
G1 X28.691 Y108.8 E14.80611
G1 X28.317 Y108.367 E14.8345
G1 X28.007 Y107.885 E14.86295
G1 X27.767 Y107.366 E14.89132
G1 X27.659 Y107.04 E14.90837
G1 X27.312 Y105.83 E14.97084
G1 X26.381 Y102.75 E15.13052
G1 X26.321 Y102.528 E15.14194
G1 X26.118 Y101.682 E15.18511
G1 X25.987 Y101.064 E15.21647
G1 X25.908 Y100.497 E15.24488
G1 X25.908 Y99.925 E15.27326
G1 X25.972 Y99.439 E15.29759
G1 X26.09 Y98.83 E15.32838
G1 X26.381 Y97.472 E15.3973
G1 X26.54 Y96.922 E15.42572
G1 X26.773 Y96.4 E15.45409
G1 X27.078 Y95.915 E15.48252
G1 X27.446 Y95.477 E15.51091
G1 X27.873 Y95.095 E15.53934
G1 X28.348 Y94.776 E15.56774
G1 X28.863 Y94.526 E15.59615
G1 X29.408 Y94.35 E15.62457
G0 F3000 X29.747 Y94.728
G1 F1500 X30.417 Y94.655 E15.65802
G1 X32.51 Y94.506 E15.76216
G1 X35.238 Y94.232 E15.89823
G1 X37.933 Y93.886 E16.03307
G1 X40.591 Y93.468 E16.1666
G1 X43.308 Y92.961 E16.30377
G1 X45.961 Y92.387 E16.43848
G1 X48.793 Y91.688 E16.58325
G1 X50.308 Y91.29 E16.66099
G1 X52.956 Y90.553 E16.7974
G1 X55.577 Y89.743 E16.93354
G1 X58.154 Y88.867 E17.06862
G1 X60.709 Y87.915 E17.20394
G1 X63.222 Y86.899 E17.33846
G1 X65.731 Y85.8 E17.4744
G1 X68.19 Y84.639 E17.60936
G1 X70.613 Y83.41 E17.74419
G1 X73.009 Y82.109 E17.8795
G1 X75.384 Y80.729 E18.01582
G1 X77.702 Y79.296 E18.15107
G1 X79.937 Y77.824 E18.28388
G1 X82.199 Y76.241 E18.4209
G1 X84.389 Y74.613 E18.55633
G1 X86.53 Y72.926 E18.6916
G1 X88.616 Y71.183 E18.82651
G1 X90.654 Y69.382 E18.96149
G1 X91.352 Y68.734 E19.00875
G1 X91.854 Y68.282 E19.04228
G1 X92.406 Y67.825 E19.07784
G1 X92.579 Y67.694 E19.08861
G1 X93.218 Y67.238 E19.12757
G1 X93.781 Y66.878 E19.16074
G1 X94.226 Y66.63 E19.18602
G1 X94.735 Y66.373 E19.21432
G1 X95.215 Y66.153 E19.24052
G1 X95.312 Y66.11 E19.24579
G1 X95.941 Y65.847 E19.27962
G1 X96.094 Y65.787 E19.28778
G1 X96.713 Y65.557 E19.32055
G1 X96.827 Y65.517 E19.32655
G1 X98.319 Y65.018 E19.40462
G1 X98.463 Y64.973 E19.41211
G1 X99.006 Y64.816 E19.44016
G1 X99.648 Y64.662 E19.47293
G1 X101.379 Y64.293 E19.56076
G1 X103.045 Y63.897 E19.64575
G1 X103.625 Y63.754 E19.6754
G1 X104.85 Y63.487 E19.73762
G1 X105.329 Y63.39 E19.76187
G1 X107.953 Y62.778 E19.89559
G1 X109.299 Y62.483 E19.96398
G1 X109.918 Y62.355 E19.99535
G1 X112.285 Y61.803 E20.11597
G1 X112.614 Y61.722 E20.13279
G1 X113.69 Y61.489 E20.18742
G1 X114.169 Y61.392 E20.21168
G1 X117.113 Y60.709 E20.36166
G1 X118.205 Y60.471 E20.41713
G1 X118.552 Y60.401 E20.4347
G1 X121.529 Y59.709 E20.58638
G1 X122.667 Y59.46 E20.64419
G1 X123.236 Y59.344 E20.67301
G1 X126 Y58.699 E20.81387
G1 X127.236 Y58.431 E20.87664
G1 X127.603 Y58.356 E20.89523
G1 X130.449 Y57.694 E21.04024
G1 X131.452 Y57.476 E21.09118
G1 X132.192 Y57.325 E21.12866
G1 X133.56 Y56.998 E21.19847
G1 X133.742 Y56.968 E21.20762
G1 X134.965 Y56.686 E21.26991
G1 X135.169 Y56.645 E21.28024
G1 X136.242 Y56.461 E21.33426
G1 X138.94 Y55.958 E21.47047
G1 X140.988 Y55.515 E21.57446
G1 X141.571 Y55.398 E21.60397
G1 X142.107 Y55.331 E21.63078
G1 X142.379 Y55.327 E21.64428
G1 X143.011 Y55.363 E21.67569
G1 X143.674 Y55.464 E21.70898
G1 X144.59 Y55.708 E21.75602
G1 X145.206 Y55.957 E21.78899
G1 X145.336 Y56.021 E21.79619
G1 X145.832 Y56.317 E21.82485
G1 X146.228 Y56.597 E21.84892
G1 X146.645 Y56.941 E21.87575
G1 X147.019 Y57.352 E21.90333
G1 X147.417 Y57.895 E21.93674
G1 X147.695 Y58.359 E21.96358
G1 X147.919 Y58.913 E21.99324
G1 X148.12 Y59.675 E22.03235
G1 X148.176 Y59.966 E22.04706
G1 X148.252 Y60.471 E22.0724
G1 X148.701 Y63.196 E22.20946
G1 X149.22 Y65.874 E22.34484
G1 X149.809 Y68.515 E22.47913
G1 X150.485 Y71.18 E22.61558
G1 X151.518 Y74.754 E22.80021
G1 X151.682 Y75.286 E22.82784
G1 X151.797 Y75.779 E22.85296
G1 X151.935 Y76.637 E22.89609
G1 X152.078 Y77.622 E22.94549
G1 X152.547 Y80.315 E23.08115
G1 X153.095 Y83.01 E23.21763
G1 X153.701 Y85.617 E23.35046
G1 X154.404 Y88.289 E23.48758
G1 X155.171 Y90.9 E23.62264
G1 X155.218 Y91.047 E23.6303
G1 X155.414 Y91.692 E23.66375
G1 X155.505 Y92.023 E23.68079
G1 X155.616 Y92.661 E23.71293
G1 X155.655 Y93.334 E23.74638
G1 X155.64 Y93.874 E23.77319
G1 X155.561 Y94.342 E23.79675
G1 X155.433 Y94.883 E23.82434
G1 X155.384 Y95.071 E23.83398
G1 X155.209 Y95.583 E23.86083
G1 X154.967 Y96.052 E23.88702
G1 X154.507 Y96.767 E23.92922
G1 X154.314 Y97.02 E23.94501
G1 X153.955 Y97.424 E23.97183
G1 X153.731 Y97.625 E23.98677
G1 X153.237 Y98.03 E24.01847
G1 X152.709 Y98.406 E24.05064
G1 X152.124 Y98.734 E24.08392
G1 X151.66 Y98.95 E24.10933
G1 X151.071 Y99.149 E24.14018
G1 X150.55 Y99.277 E24.1668
G1 X147.859 Y99.975 E24.30477
G1 X146.309 Y100.416 E24.38475
G1 X145.85 Y100.54 E24.40835
G1 X143.504 Y101.046 E24.52745
G1 X141.781 Y101.469 E24.6155
G1 X140.951 Y101.662 E24.65779
G1 X138.484 Y102.198 E24.78308
G1 X137.739 Y102.382 E24.82117
G1 X136.68 Y102.626 E24.8751
G1 X133.909 Y103.228 E25.01583
G1 X132.211 Y103.639 E25.10253
G1 X131.181 Y103.864 E25.15485
G1 X130.856 Y103.93 E25.17131
G1 X129.199 Y104.314 E25.25572
G1 X129.11 Y104.328 E25.2602
G1 X127.745 Y104.649 E25.32979
G1 X127.412 Y104.718 E25.34666
G1 X123.662 Y105.568 E25.53749
G1 X123.354 Y105.643 E25.55322
G1 X122.658 Y105.794 E25.58857
G1 X122.385 Y105.847 E25.60237
G1 X119.77 Y106.437 E25.73541
G1 X119.508 Y106.502 E25.74881
G1 X118.678 Y106.693 E25.79108
G1 X116.308 Y107.205 E25.91141
G1 X114.422 Y107.659 E26.00768
G1 X114.036 Y107.744 E26.0273
G1 X113.069 Y107.936 E26.07622
G1 X110.098 Y108.623 E26.22756
G1 X109.607 Y108.726 E26.25246
G1 X109.186 Y108.795 E26.27363
G1 X108.148 Y108.939 E26.32564
G1 X107.638 Y109 E26.35113
G1 X107.099 Y109.06 E26.37804
G1 X105.985 Y109.16 E26.43355
G1 X105.267 Y109.198 E26.46924
G1 X105.091 Y109.2 E26.47797
G1 X104.387 Y109.191 E26.51291
G1 X103.689 Y109.153 E26.5476
G1 X102.979 Y109.068 E26.58309
G1 X102.627 Y109.008 E26.60081
G1 X101.873 Y108.842 E26.63913
G1 X101.361 Y108.708 E26.66539
G1 X101.196 Y108.658 E26.67395
G1 X98.828 Y107.892 E26.79747
G1 X96.189 Y107.121 E26.93391
G1 X93.551 Y106.429 E27.06926
G1 X90.927 Y105.82 E27.20295
G1 X88.203 Y105.266 E27.3409
G1 X85.533 Y104.806 E27.47536
G1 X82.87 Y104.422 E27.60889
G1 X80.135 Y104.107 E27.74552
G1 X77.447 Y103.873 E27.87942
G1 X74.692 Y103.712 E28.01638
G1 X72 Y103.631 E28.15004
G1 X69.272 Y103.626 E28.28543
G1 X66.513 Y103.698 E28.4224
G1 X63.823 Y103.846 E28.5561
G1 X61.101 Y104.073 E28.69166
G1 X58.399 Y104.375 E28.82659
G1 X55.719 Y104.752 E28.96091
G1 X53.008 Y105.21 E29.09735
G1 X50.287 Y105.752 E29.23505
G1 X48.99 Y106.038 E29.30096
G1 X48.185 Y106.223 E29.34195
G1 X46.013 Y106.686 E29.45217
G1 X44.301 Y107.098 E29.53956
G1 X43.541 Y107.267 E29.5782
G1 X42.483 Y107.481 E29.63177
G1 X40.134 Y108.035 E29.75154
G1 X38.994 Y108.29 E29.80952
G1 X38.112 Y108.469 E29.85418
G1 X35.361 Y109.116 E29.99443
G1 X35.203 Y109.149 E30.00244
G1 X34.227 Y109.332 E30.05173
G1 X32.971 Y109.525 E30.11479
G1 X32.172 Y109.627 E30.15476
G1 X31.632 Y109.655 E30.1816
G1 X31.093 Y109.603 E30.20847
G1 X30.569 Y109.473 E30.23527
G1 X30.069 Y109.266 E30.26212
G1 X29.499 Y108.911 E30.29545
G1 X29.387 Y108.826 E30.30243
G1 X28.982 Y108.469 E30.32922
G1 X28.634 Y108.055 E30.35606
G1 X28.35 Y107.595 E30.38289
G1 X28.082 Y106.919 E30.41898
G1 X27.719 Y105.652 E30.48439
G1 X26.803 Y102.623 E30.64144
G1 X26.749 Y102.424 E30.65167
G1 X26.549 Y101.591 E30.69419
G1 X26.418 Y100.973 E30.72554
G1 X26.345 Y100.437 E30.75238
G1 X26.352 Y99.896 E30.77924
G1 X26.404 Y99.523 E30.79793
G1 X26.52 Y98.922 E30.8283
G1 X26.811 Y97.564 E30.89723
G1 X26.963 Y97.045 E30.92407
G1 X27.19 Y96.554 E30.95091
G1 X27.487 Y96.102 E30.97775
G1 X27.847 Y95.699 E31.00457
G1 X28.262 Y95.353 E31.03139
G1 X28.724 Y95.072 E31.05822
G1 X29.223 Y94.862 E31.08509
G1 X29.747 Y94.728 E31.11193
G0 F3000 X29.574 Y95.216
G1 F1500 X30.116 Y95.123 E31.13923
G1 X30.5 Y95.09 E31.15835
G1 X32.551 Y94.944 E31.2604
G1 X35.265 Y94.672 E31.39576
G1 X37.985 Y94.323 E31.53186
G1 X40.708 Y93.894 E31.66867
G1 X43.375 Y93.396 E31.80331
G1 X46.06 Y92.816 E31.93964
G1 X48.93 Y92.107 E32.08635
G1 X50.399 Y91.722 E32.16172
G1 X53.097 Y90.971 E32.30071
G1 X55.71 Y90.163 E32.43644
G1 X58.268 Y89.293 E32.57054
G1 X60.889 Y88.317 E32.70934
G1 X63.395 Y87.304 E32.84348
G1 X65.899 Y86.206 E32.97917
G1 X68.38 Y85.035 E33.11533
G1 X70.839 Y83.788 E33.25216
G1 X73.229 Y82.49 E33.38714
G1 X75.599 Y81.113 E33.52317
G1 X77.907 Y79.686 E33.65783
G1 X80.212 Y78.169 E33.79478
G1 X82.468 Y76.589 E33.93147
G1 X84.648 Y74.969 E34.06626
G1 X86.809 Y73.266 E34.20281
G1 X88.895 Y71.524 E34.33768
G1 X90.971 Y69.689 E34.47519
G1 X91.646 Y69.061 E34.52095
G1 X92.148 Y68.609 E34.55447
G1 X92.683 Y68.167 E34.58891
G1 X92.835 Y68.052 E34.59837
G1 X93.463 Y67.604 E34.63665
G1 X93.996 Y67.262 E34.66808
G1 X94.433 Y67.018 E34.69292
G1 X94.929 Y66.768 E34.72049
G1 X95.397 Y66.553 E34.74605
G1 X96.031 Y66.285 E34.78021
G1 X96.247 Y66.2 E34.79173
G1 X96.967 Y65.934 E34.82982
G1 X98.459 Y65.435 E34.9079
G1 X98.586 Y65.396 E34.91449
G1 X99.129 Y65.239 E34.94254
G1 X99.747 Y65.091 E34.97408
G1 X101.476 Y64.722 E35.06182
