;FLAVOR:Marlin
;TIME:2505
;Filament used: 3.9611m
;Layer height: 0.3
;MINX:21.21
;MINY:69.809
;MINZ:0.3
;MAXX:160.084
;MAXY:110.191
;MAXZ:20.4
;Generated with Cura_SteamEngine 4.12.1
M82 ;absolute extrusion mode
G21 ;metric values
G90 ;absolute positioning
M82 ;set extruder to absolute mode
M107 ;start with the fan off

M104 S200 T0 ; start heating T0 to what is set in Cura
M140 S60 ; start heating the bed to what is set in Cura
M190 S60 ; start heating the bed to what is set in Cura
M109 S200 T0 ; start heating T0 to what is set in Cura

G28 X0 Y0 ;move X/Y to min endstops
G28 Z0 ;move Z to min endstops
G1 Z15.0 F2400 ;move the platform down 15mm
G92 E0 ;zero the extruded length
G1 F200 E3 ;extrude 3mm of feed stock
G92 E0 ;zero the extruded length again
G1 F2400
G0 Y20 F2400
M117 Printing...
G5
G92 E0
G92 E0
G1 F2400 E-1.2
;LAYER_COUNT:68
;LAYER:0
M107
G0 F3000 X25.298 Y70.347 Z0.3
;TYPE:SKIRT
G1 F2400 E0
G1 F1500 X25.85 Y70.195 E0.02841
G1 X26.453 Y70.118 E0.05858
G1 X28.987 Y69.955 E0.1846
G1 X30.069 Y69.863 E0.23849
G1 X30.463 Y69.844 E0.25807
G1 X31.814 Y69.832 E0.32512
G1 X32.981 Y69.831 E0.38304
G1 X33.949 Y69.81 E0.43109
G1 X35.079 Y69.809 E0.48717
G1 X36.001 Y69.82 E0.53293
G1 X37.032 Y69.81 E0.5841
G1 X38.515 Y69.824 E0.6577
G1 X39.964 Y69.819 E0.72961
G1 X40.947 Y69.832 E0.7784
G1 X42.35 Y69.84 E0.84803
G1 X44.234 Y69.837 E0.94153
G1 X45.845 Y69.857 E1.02149
G1 X46.518 Y69.851 E1.05489
G1 X48.021 Y69.866 E1.12948
G1 X49.146 Y69.871 E1.18532
G1 X50.421 Y69.869 E1.24859
G1 X52.451 Y69.894 E1.34935
G1 X52.952 Y69.89 E1.37421
G1 X54.754 Y69.905 E1.46364
G1 X55.269 Y69.899 E1.48921
G1 X55.445 Y69.909 E1.49795
G1 X57.842 Y69.919 E1.61691
G1 X59.923 Y69.947 E1.7202
G1 X60.311 Y69.946 E1.73946
G1 X60.812 Y69.958 E1.76433
G1 X62.539 Y69.963 E1.85004
G1 X62.66 Y69.972 E1.85606
G1 X65.237 Y70 E1.98396
G1 X67.509 Y70.043 E2.09673
G1 X68.01 Y70.042 E2.1216
G1 X68.249 Y70.048 E2.13346
G1 X68.906 Y70.085 E2.16612
G1 X69.769 Y70.153 E2.20908
G1 X71.648 Y70.322 E2.30271
G1 X73.196 Y70.446 E2.37978
G1 X74.038 Y70.522 E2.42174
G1 X74.763 Y70.591 E2.45788
G1 X75.293 Y70.651 E2.48435
G1 X76.285 Y70.785 E2.53403
G1 X76.441 Y70.809 E2.54186
G1 X77.392 Y70.975 E2.58977
G1 X77.991 Y71.1 E2.62014
G1 X78.602 Y71.253 E2.6514
G1 X79.268 Y71.462 E2.68604
G1 X80.07 Y71.753 E2.72838
G1 X80.587 Y71.983 E2.75647
G1 X82.839 Y73.099 E2.8812
G1 X85.265 Y74.218 E3.01379
G1 X87.789 Y75.295 E3.14998
G1 X90.305 Y76.287 E3.2842
G1 X92.839 Y77.204 E3.41794
G1 X95.431 Y78.06 E3.55341
G1 X98.006 Y78.829 E3.68678
G1 X100.648 Y79.538 E3.82253
G1 X103.309 Y80.174 E3.95831
G1 X105.923 Y80.718 E4.09082
G1 X108.597 Y81.197 E4.22564
G1 X111.309 Y81.605 E4.36175
G1 X113.99 Y81.93 E4.49578
G1 X116.656 Y82.178 E4.62866
G1 X119.414 Y82.355 E4.76581
G1 X122.078 Y82.451 E4.89811
G1 X123.617 Y82.473 E4.97449
G1 X125.283 Y82.484 E5.05718
G1 X126.155 Y82.477 E5.10045
G1 X127.885 Y82.486 E5.18631
G1 X128.777 Y82.486 E5.23058
G1 X131.203 Y82.477 E5.35098
G1 X131.959 Y82.484 E5.3885
G1 X132.678 Y82.476 E5.42419
G1 X134.332 Y82.486 E5.50627
G1 X135.679 Y82.485 E5.57312
G1 X136.721 Y82.477 E5.62484
G1 X137.631 Y82.477 E5.67
G1 X138.685 Y82.488 E5.72231
G1 X142.757 Y82.475 E5.9244
G1 X143.564 Y82.483 E5.96445
G1 X144.464 Y82.472 E6.00912
G1 X145.507 Y82.48 E6.06088
G1 X147.306 Y82.472 E6.15016
G1 X147.622 Y82.476 E6.16585
G1 X149.097 Y82.467 E6.23905
G1 X151.725 Y82.477 E6.36948
G1 X152.472 Y82.477 E6.40655
G1 X153.286 Y82.474 E6.44695
G1 X153.853 Y82.503 E6.47512
G1 X155.379 Y82.668 E6.5513
G1 X155.647 Y82.703 E6.56471
G1 X156.343 Y82.801 E6.59959
G1 X156.902 Y82.92 E6.62796
G1 X157.44 Y83.116 E6.65637
G1 X157.945 Y83.385 E6.68477
G1 X158.408 Y83.722 E6.71319
G1 X158.868 Y84.169 E6.74502
G1 X159.23 Y84.613 E6.77345
G1 X159.526 Y85.102 E6.80182
G1 X159.752 Y85.628 E6.83023
G1 X159.902 Y86.181 E6.85867
G1 X159.986 Y86.85 E6.89213
G1 X159.997 Y86.989 E6.89905
G1 X160.055 Y87.945 E6.94658
G1 X160.077 Y88.538 E6.97603
G1 X160.083 Y89.106 E7.00422
G1 X160.084 Y90.867 E7.09162
G1 X160.075 Y91.538 E7.12492
G1 X160.044 Y92.292 E7.16237
G1 X160.038 Y92.403 E7.16789
G1 X159.983 Y93.191 E7.20709
G1 X159.903 Y93.758 E7.23551
G1 X159.746 Y94.308 E7.2639
G1 X159.509 Y94.854 E7.29344
G1 X159.233 Y95.356 E7.32187
G1 X158.89 Y95.814 E7.35026
G1 X158.487 Y96.22 E7.37865
G1 X158.03 Y96.565 E7.40707
G1 X157.531 Y96.844 E7.43544
G1 X156.997 Y97.051 E7.46387
G1 X156.376 Y97.191 E7.49546
G1 X155.596 Y97.304 E7.53457
G1 X155.443 Y97.323 E7.54223
G1 X153.803 Y97.498 E7.62408
G1 X153.259 Y97.525 E7.65111
G1 X152.965 Y97.521 E7.6657
G1 X151.239 Y97.513 E7.75136
G1 X148.969 Y97.523 E7.86402
G1 X148.125 Y97.517 E7.90591
G1 X146.714 Y97.53 E7.97593
G1 X145.902 Y97.531 E8.01623
G1 X143.939 Y97.512 E8.11366
G1 X141.869 Y97.519 E8.21639
G1 X141.387 Y97.513 E8.24031
G1 X138.758 Y97.515 E8.37078
G1 X138.296 Y97.521 E8.39372
G1 X136.131 Y97.525 E8.50116
G1 X135.903 Y97.528 E8.51248
G1 X135.254 Y97.521 E8.54469
G1 X133.335 Y97.527 E8.63992
G1 X132.805 Y97.521 E8.66623
G1 X130.688 Y97.519 E8.77129
G1 X129.93 Y97.526 E8.80891
G1 X127.246 Y97.517 E8.94212
G1 X126.87 Y97.521 E8.96078
G1 X125.273 Y97.514 E9.04003
G1 X123.447 Y97.529 E9.13066
G1 X120.723 Y97.59 E9.26588
G1 X117.985 Y97.728 E9.40194
G1 X115.329 Y97.937 E9.53416
G1 X112.575 Y98.233 E9.67162
G1 X109.923 Y98.594 E9.80445
G1 X107.25 Y99.036 E9.93891
G1 X104.579 Y99.555 E10.07394
G1 X101.938 Y100.146 E10.20825
G1 X99.321 Y100.808 E10.34222
G1 X96.669 Y101.562 E10.47905
G1 X94.093 Y102.372 E10.61307
G1 X91.557 Y103.252 E10.74629
G1 X89.037 Y104.205 E10.87999
G1 X86.485 Y105.252 E11.01689
G1 X84.033 Y106.343 E11.15008
G1 X80.47 Y108.074 E11.34667
G1 X79.827 Y108.343 E11.38126
G1 X79.437 Y108.479 E11.40176
G1 X78.784 Y108.687 E11.43577
G1 X78.452 Y108.782 E11.45291
G1 X77.866 Y108.929 E11.48289
G1 X77.276 Y109.054 E11.51282
G1 X76.088 Y109.247 E11.57255
G1 X75.945 Y109.268 E11.57973
G1 X75.175 Y109.364 E11.61824
G1 X74.608 Y109.424 E11.64653
G1 X73.727 Y109.507 E11.69045
G1 X72.513 Y109.612 E11.75092
G1 X71.012 Y109.729 E11.82564
G1 X69.541 Y109.86 E11.89893
G1 X68.801 Y109.92 E11.93578
G1 X68.258 Y109.952 E11.96277
G1 X68.027 Y109.959 E11.97424
G1 X67.231 Y109.961 E12.01375
G1 X64.526 Y110.007 E12.14801
G1 X64.256 Y110.016 E12.16142
G1 X63.522 Y110.029 E12.19785
G1 X60.691 Y110.046 E12.33835
G1 X60.186 Y110.056 E12.36342
G1 X59.816 Y110.054 E12.38178
G1 X56.818 Y110.087 E12.53058
G1 X55.7 Y110.086 E12.58606
G1 X53.46 Y110.109 E12.69724
G1 X52.987 Y110.107 E12.72071
G1 X50.942 Y110.118 E12.8222
G1 X49.854 Y110.135 E12.8762
G1 X47.242 Y110.14 E13.00583
G1 X46.698 Y110.149 E13.03283
G1 X43.794 Y110.157 E13.17696
G1 X40.556 Y110.176 E13.33766
G1 X39.885 Y110.171 E13.37096
G1 X37.242 Y110.186 E13.50213
G1 X36.779 Y110.182 E13.52511
G1 X34.663 Y110.185 E13.63012
G1 X34.152 Y110.191 E13.65548
G1 X32.837 Y110.171 E13.72075
G1 X31.842 Y110.172 E13.77013
G1 X30.4 Y110.155 E13.8417
G1 X30.174 Y110.146 E13.85292
G1 X29.255 Y110.084 E13.89864
G1 X28.215 Y110.001 E13.95041
G1 X27.848 Y109.981 E13.96865
G1 X26.409 Y109.885 E14.04023
G1 X25.634 Y109.758 E14.0792
G1 X25.494 Y109.721 E14.08639
G1 X24.882 Y109.506 E14.11858
G1 X24.48 Y109.328 E14.1404
G1 X23.93 Y109.033 E14.17138
G1 X23.395 Y108.67 E14.20346
G1 X23.165 Y108.492 E14.2179
G1 X22.738 Y108.111 E14.2463
G1 X22.389 Y107.709 E14.27272
G1 X22.066 Y107.267 E14.29988
G1 X21.709 Y106.651 E14.33522
G1 X21.686 Y106.602 E14.3379
G1 X21.433 Y105.906 E14.37466
G1 X21.347 Y105.58 E14.39139
G1 X21.24 Y105.018 E14.41978
G1 X21.211 Y104.49 E14.44603
G1 X21.22 Y104.113 E14.46474
G1 X21.378 Y101.349 E14.60214
G1 X21.455 Y98.648 E14.73624
G1 X21.455 Y95.909 E14.87217
G1 X21.38 Y93.226 E15.00538
G1 X21.249 Y90.822 E15.12486
G1 X21.213 Y90.294 E15.15112
G1 X21.211 Y89.788 E15.17624
G1 X21.379 Y86.822 E15.32367
G1 X21.454 Y84.121 E15.45777
G1 X21.454 Y81.383 E15.59365
G1 X21.378 Y78.715 E15.72611
G1 X21.268 Y76.897 E15.8165
G1 X21.219 Y75.947 E15.86371
G1 X21.21 Y75.528 E15.88451
G1 X21.239 Y74.956 E15.91293
G1 X21.336 Y74.444 E15.9388
G1 X21.406 Y74.169 E15.95288
G1 X21.585 Y73.625 E15.9813
G1 X21.772 Y73.227 E16.00312
G1 X22.084 Y72.709 E16.03313
G1 X22.347 Y72.343 E16.0555
G1 X22.719 Y71.909 E16.08387
G1 X23.122 Y71.55 E16.11066
G1 X23.522 Y71.239 E16.1358
G1 X23.998 Y70.92 E16.16424
G1 X24.655 Y70.596 E16.20059
G1 X25.298 Y70.347 E16.23481
G0 F3000 X25.444 Y70.762
G1 F1500 X25.966 Y70.621 E16.26165
G1 X26.489 Y70.556 E16.2878
G1 X29.004 Y70.394 E16.41288
G1 X30.096 Y70.302 E16.46726
G1 X30.467 Y70.284 E16.4857
G1 X31.814 Y70.272 E16.55255
G1 X32.992 Y70.271 E16.61101
G1 X33.95 Y70.25 E16.65857
G1 X35.073 Y70.249 E16.7143
G1 X36 Y70.261 E16.76031
G1 X37.028 Y70.25 E16.81133
G1 X38.512 Y70.264 E16.88498
G1 X39.958 Y70.259 E16.95674
G1 X40.941 Y70.272 E17.00553
G1 X42.348 Y70.28 E17.07536
G1 X44.228 Y70.277 E17.16866
G1 X45.843 Y70.297 E17.24882
G1 X46.514 Y70.291 E17.28212
G1 X48.017 Y70.306 E17.35672
G1 X49.145 Y70.311 E17.4127
G1 X50.416 Y70.309 E17.47578
G1 X52.451 Y70.335 E17.57678
G1 X52.949 Y70.33 E17.60149
G1 X54.755 Y70.345 E17.69113
G1 X55.274 Y70.339 E17.71688
G1 X55.44 Y70.349 E17.72514
G1 X57.837 Y70.359 E17.8441
G1 X59.921 Y70.387 E17.94753
G1 X60.301 Y70.386 E17.96639
G1 X60.801 Y70.398 E17.99121
G1 X62.537 Y70.403 E18.07737
G1 X62.655 Y70.412 E18.08324
G1 X65.229 Y70.44 E18.21099
G1 X67.502 Y70.483 E18.32382
G1 X68.011 Y70.482 E18.34908
G1 X68.224 Y70.488 E18.35965
G1 X68.966 Y70.531 E18.39654
G1 X69.73 Y70.592 E18.43458
G1 X71.597 Y70.76 E18.52761
G1 X73.156 Y70.885 E18.60523
G1 X73.996 Y70.96 E18.64708
G1 X74.714 Y71.028 E18.68287
G1 X75.234 Y71.087 E18.70884
G1 X76.226 Y71.221 E18.75852
G1 X76.365 Y71.243 E18.76551
G1 X77.435 Y71.431 E18.81942
G1 X78.229 Y71.609 E18.85981
G1 X79.134 Y71.88 E18.90669
G1 X79.915 Y72.165 E18.94795
G1 X80.391 Y72.378 E18.97383
G1 X82.612 Y73.479 E19.09686
G1 X85.106 Y74.629 E19.23315
G1 X87.606 Y75.696 E19.36805
G1 X90.132 Y76.692 E19.50281
G1 X92.722 Y77.629 E19.6395
G1 X95.275 Y78.472 E19.77293
G1 X97.905 Y79.258 E19.90915
G1 X100.538 Y79.965 E20.04445
G1 X103.217 Y80.604 E20.18114
G1 X105.829 Y81.148 E20.31355
G1 X108.567 Y81.639 E20.4516
G1 X111.223 Y82.038 E20.58489
G1 X113.933 Y82.367 E20.72037
G1 X116.621 Y82.617 E20.85435
G1 X119.371 Y82.793 E20.99111
G1 X122.102 Y82.892 E21.12673
G1 X123.611 Y82.913 E21.20163
G1 X125.284 Y82.924 E21.28466
G1 X126.153 Y82.917 E21.32778
G1 X127.883 Y82.926 E21.41364
G1 X128.779 Y82.926 E21.45811
G1 X131.199 Y82.917 E21.57821
G1 X131.961 Y82.925 E21.61603
G1 X132.675 Y82.916 E21.65147
G1 X134.329 Y82.926 E21.73355
G1 X135.682 Y82.925 E21.8007
G1 X136.724 Y82.917 E21.85242
G1 X137.627 Y82.917 E21.89723
G1 X138.682 Y82.928 E21.94959
G1 X142.753 Y82.915 E22.15163
G1 X143.566 Y82.923 E22.19198
G1 X144.461 Y82.912 E22.2364
G1 X145.506 Y82.92 E22.28826
G1 X147.301 Y82.912 E22.37735
G1 X147.62 Y82.916 E22.39318
G1 X149.095 Y82.907 E22.46638
G1 X151.723 Y82.917 E22.59681
G1 X152.474 Y82.917 E22.63408
G1 X153.288 Y82.914 E22.67448
G1 X153.806 Y82.941 E22.70022
G1 X155.323 Y83.105 E22.77594
G1 X155.585 Y83.139 E22.78906
G1 X156.281 Y83.237 E22.82394
G1 X156.81 Y83.351 E22.85079
G1 X157.315 Y83.543 E22.87761
G1 X157.788 Y83.807 E22.90449
G1 X158.216 Y84.137 E22.93131
G1 X158.547 Y84.471 E22.95465
G1 X158.887 Y84.891 E22.98147
G1 X159.162 Y85.357 E23.00832
G1 X159.365 Y85.858 E23.03515
G1 X159.523 Y86.629 E23.0742
G1 X159.558 Y87.016 E23.09349
G1 X159.615 Y87.962 E23.14052
G1 X159.637 Y88.543 E23.16938
G1 X159.643 Y89.106 E23.19732
G1 X159.644 Y90.861 E23.28442
G1 X159.632 Y91.638 E23.32298
G1 X159.605 Y92.273 E23.35453
G1 X159.544 Y93.161 E23.3987
G1 X159.467 Y93.696 E23.42552
G1 X159.215 Y94.443 E23.46465
G1 X159.11 Y94.67 E23.47706
G1 X158.847 Y95.142 E23.50388
G1 X158.518 Y95.571 E23.53071
G1 X158.129 Y95.947 E23.55756
G1 X157.689 Y96.261 E23.58438
G1 X157.207 Y96.507 E23.61124
G1 X156.695 Y96.679 E23.63805
G1 X156.313 Y96.755 E23.65738
G1 X155.533 Y96.868 E23.69649
G1 X155.396 Y96.885 E23.70334
G1 X153.643 Y97.071 E23.79083
G1 X152.971 Y97.081 E23.82418
G1 X151.239 Y97.073 E23.91014
G1 X148.972 Y97.083 E24.02265
G1 X148.124 Y97.077 E24.06473
G1 X146.714 Y97.09 E24.13471
G1 X145.906 Y97.091 E24.17481
G1 X143.942 Y97.072 E24.27229
G1 X141.875 Y97.079 E24.37487
G1 X141.393 Y97.073 E24.39879
G1 X138.752 Y97.075 E24.52986
G1 X138.296 Y97.081 E24.55249
G1 X136.121 Y97.085 E24.66044
G1 X135.907 Y97.088 E24.67106
G1 X135.257 Y97.081 E24.70332
G1 X133.34 Y97.087 E24.79846
G1 X132.81 Y97.081 E24.82476
G1 X130.685 Y97.079 E24.93022
G1 X129.931 Y97.086 E24.96764
G1 X127.242 Y97.077 E25.10109
G1 X126.872 Y97.081 E25.11946
G1 X125.271 Y97.074 E25.19891
G1 X123.435 Y97.089 E25.29003
G1 X120.691 Y97.15 E25.42625
G1 X117.997 Y97.286 E25.56012
G1 X115.249 Y97.503 E25.69692
G1 X112.536 Y97.794 E25.83233
G1 X109.864 Y98.158 E25.96617
G1 X107.173 Y98.603 E26.10153
G1 X104.499 Y99.122 E26.23671
G1 X101.807 Y99.725 E26.37362
G1 X99.232 Y100.376 E26.50544
G1 X96.557 Y101.137 E26.64346
G1 X93.956 Y101.954 E26.77876
G1 X91.376 Y102.85 E26.9143
G1 X88.885 Y103.792 E27.04647
G1 X86.308 Y104.849 E27.18471
G1 X83.846 Y105.944 E27.31843
G1 X80.276 Y107.679 E27.51542
G1 X79.681 Y107.928 E27.54743
G1 X79.304 Y108.059 E27.56724
G1 X78.562 Y108.295 E27.60588
G1 X78.345 Y108.355 E27.61705
G1 X77.657 Y108.526 E27.65224
G1 X77.206 Y108.62 E27.6751
G1 X76.018 Y108.813 E27.73483
G1 X75.89 Y108.831 E27.74124
G1 X75.129 Y108.927 E27.77931
G1 X74.567 Y108.986 E27.80736
G1 X73.689 Y109.068 E27.85112
G1 X72.479 Y109.173 E27.9114
G1 X70.968 Y109.291 E27.98661
G1 X69.532 Y109.419 E28.05816
G1 X68.859 Y109.475 E28.09168
G1 X68.232 Y109.513 E28.12285
G1 X68.026 Y109.519 E28.13308
G1 X67.229 Y109.521 E28.17263
G1 X64.502 Y109.567 E28.30799
G1 X64.248 Y109.576 E28.3206
G1 X63.52 Y109.589 E28.35674
G1 X60.678 Y109.606 E28.49778
G1 X56.819 Y109.647 E28.68931
G1 X55.697 Y109.646 E28.74499
G1 X53.462 Y109.669 E28.85592
G1 X52.987 Y109.667 E28.87949
G1 X50.978 Y109.678 E28.9792
G1 X49.795 Y109.696 E29.03791
G1 X47.296 Y109.7 E29.16194
G1 X46.697 Y109.709 E29.19167
G1 X43.788 Y109.717 E29.33604
G1 X40.554 Y109.736 E29.49654
G1 X39.886 Y109.731 E29.52969
G1 X37.246 Y109.746 E29.66071
G1 X36.782 Y109.742 E29.68374
G1 X34.658 Y109.745 E29.78915
G1 X34.046 Y109.751 E29.81952
G1 X32.784 Y109.731 E29.88216
G1 X31.847 Y109.732 E29.92866
G1 X30.405 Y109.715 E30.00023
G1 X30.203 Y109.707 E30.01027
G1 X29.29 Y109.645 E30.05568
G1 X28.236 Y109.561 E30.10816
G1 X27.877 Y109.542 E30.126
G1 X26.438 Y109.446 E30.19757
G1 X25.747 Y109.333 E30.23232
G1 X25.607 Y109.296 E30.23951
G1 X25.06 Y109.104 E30.26828
G1 X24.658 Y108.926 E30.2901
G1 X24.167 Y108.662 E30.31776
G1 X23.664 Y108.322 E30.34789
G1 X23.434 Y108.144 E30.36233
G1 X23.032 Y107.783 E30.38914
G1 X22.575 Y107.226 E30.4249
G1 X22.426 Y107.014 E30.43776
G1 X22.107 Y106.464 E30.46931
G1 X22.084 Y106.415 E30.472
G1 X21.858 Y105.794 E30.50479
G1 X21.772 Y105.468 E30.52153
G1 X21.673 Y104.936 E30.54838
G1 X21.653 Y104.307 E30.57961
G1 X21.659 Y104.138 E30.58801
G1 X21.818 Y101.352 E30.7265
G1 X21.895 Y98.66 E30.86015
G1 X21.895 Y95.933 E30.99549
G1 X21.818 Y93.189 E31.13172
G1 X21.688 Y90.798 E31.25056
G1 X21.652 Y90.265 E31.27707
G1 X21.65 Y89.813 E31.2995
G1 X21.817 Y86.858 E31.44639
G1 X21.894 Y84.098 E31.58342
G1 X21.894 Y81.371 E31.71875
G1 X21.817 Y78.676 E31.85256
G1 X21.708 Y76.875 E31.9421
G1 X21.659 Y75.925 E31.98931
G1 X21.65 Y75.52 E32.00941
G1 X21.68 Y74.98 E32.03625
G1 X21.832 Y74.277 E32.07195
G1 X22.112 Y73.531 E32.11149
G1 X22.165 Y73.426 E32.11733
G1 X22.443 Y72.962 E32.14418
G1 X22.7 Y72.606 E32.16597
G1 X23.054 Y72.196 E32.19285
G1 X23.392 Y71.898 E32.21521
G1 X23.792 Y71.587 E32.24036
G1 X24.479 Y71.165 E32.28037
G1 X25.188 Y70.852 E32.31883
G1 X25.444 Y70.762 E32.3323
G0 F3000 X25.59 Y71.177
G1 F1500 X26.08 Y71.047 E32.35746
G1 X26.585 Y70.991 E32.38268
G1 X29.026 Y70.835 E32.50407
G1 X30.123 Y70.741 E32.55871
G1 X30.471 Y70.724 E32.576
G1 X31.814 Y70.712 E32.64265
G1 X33.002 Y70.711 E32.70161
G1 X33.95 Y70.69 E32.74867
G1 X35.068 Y70.689 E32.80415
G1 X36 Y70.701 E32.85041
G1 X37.024 Y70.69 E32.90123
