;FLAVOR:Marlin
;TIME:3264
;Filament used: 5.2873m
;Layer height: 0.3
;MINX:44.661
;MINY:48
;MINZ:0.3
;MAXX:134.2
;MAXY:132
;MAXZ:12
;Generated with Cura_SteamEngine 4.12.1
M82 ;absolute extrusion mode
G21 ;metric values
G90 ;absolute positioning
M82 ;set extruder to absolute mode
M107 ;start with the fan off

M104 S200 T0 ; start heating T0 to what is set in Cura
M140 S60 ; start heating the bed to what is set in Cura
M190 S60 ; start heating the bed to what is set in Cura
M109 S200 T0 ; start heating T0 to what is set in Cura

G28 X0 Y0 ;move X/Y to min endstops
G28 Z0 ;move Z to min endstops
G1 Z15.0 F2400 ;move the platform down 15mm
G92 E0 ;zero the extruded length
G1 F200 E3 ;extrude 3mm of feed stock
G92 E0 ;zero the extruded length again
G1 F2400
G0 Y20 F2400
M117 Printing...
G5
G92 E0
G92 E0
G1 F2400 E-1.2
;LAYER_COUNT:40
;LAYER:0
M107
G0 F3000 X51.828 Y50.167 Z0.3
;TYPE:SKIRT
G1 F2400 E0
G1 F1500 X51.945 Y50.05 E0.00747
G1 X52.502 Y49.55 E0.04123
G1 X53.108 Y49.113 E0.07494
G1 X53.758 Y48.742 E0.10871
G1 X54.444 Y48.443 E0.14247
G1 X55.158 Y48.219 E0.17623
G1 X55.891 Y48.072 E0.20996
G1 X56.895 Y48 E0.25538
G1 X90.661 Y48 E1.77879
G1 X91.408 Y48.04 E1.81254
G1 X91.998 Y48.135 E1.8395
G1 X92.313 Y48.072 E1.85399
G1 X93.317 Y48 E1.89941
G1 X127.083 Y48 E3.42282
G1 X127.83 Y48.04 E3.45657
G1 X128.568 Y48.159 E3.49029
G1 X129.29 Y48.357 E3.52407
G1 X129.986 Y48.63 E3.5578
G1 X130.649 Y48.977 E3.59156
G1 X131.272 Y49.392 E3.62533
G1 X132.033 Y50.05 E3.67072
G1 X132.15 Y50.167 E3.67819
G1 X132.65 Y50.724 E3.71196
G1 X133.087 Y51.33 E3.74567
G1 X133.458 Y51.98 E3.77943
G1 X133.757 Y52.666 E3.81319
G1 X133.981 Y53.38 E3.84696
G1 X134.128 Y54.113 E3.88069
G1 X134.2 Y55.117 E3.9261
G1 X134.2 Y124.883 E7.07371
G1 X134.16 Y125.63 E7.10746
G1 X134.041 Y126.368 E7.14119
G1 X133.843 Y127.09 E7.17496
G1 X133.57 Y127.786 E7.2087
G1 X133.223 Y128.449 E7.24246
G1 X132.808 Y129.072 E7.27623
G1 X132.15 Y129.833 E7.32162
G1 X132.033 Y129.95 E7.32908
G1 X131.476 Y130.45 E7.36285
G1 X130.87 Y130.887 E7.39656
G1 X130.22 Y131.258 E7.43033
G1 X129.534 Y131.557 E7.46409
G1 X128.82 Y131.781 E7.49785
G1 X128.087 Y131.928 E7.53158
G1 X127.083 Y132 E7.57699
G1 X93.317 Y132 E9.1004
G1 X92.57 Y131.96 E9.13415
G1 X91.98 Y131.865 E9.16112
G1 X91.665 Y131.928 E9.17561
G1 X90.661 Y132 E9.22102
G1 X56.895 Y132 E10.74443
G1 X56.148 Y131.96 E10.77818
G1 X55.41 Y131.841 E10.81191
G1 X54.688 Y131.643 E10.84569
G1 X53.992 Y131.37 E10.87942
G1 X53.329 Y131.023 E10.91318
G1 X52.706 Y130.608 E10.94695
G1 X51.945 Y129.95 E10.99234
G1 X51.828 Y129.833 E10.99981
G1 X51.328 Y129.276 E11.03358
G1 X50.891 Y128.67 E11.06728
G1 X50.52 Y128.02 E11.10105
G1 X50.221 Y127.334 E11.13481
G1 X49.997 Y126.62 E11.16857
G1 X49.85 Y125.887 E11.2023
G1 X49.778 Y124.883 E11.24772
G1 X49.778 Y100.67 E12.34013
G1 X49.15 Y100.404 E12.3709
G1 X48.829 Y100.245 E12.38706
G1 X48.177 Y99.877 E12.42084
G1 X47.569 Y99.442 E12.45457
G1 X47.01 Y98.945 E12.48831
G1 X46.507 Y98.391 E12.52207
G1 X45.983 Y97.654 E12.56287
G1 X45.923 Y97.557 E12.56802
G1 X45.564 Y96.901 E12.60176
G1 X45.277 Y96.21 E12.63551
G1 X45.065 Y95.493 E12.66925
G1 X44.932 Y94.757 E12.70299
G1 X44.876 Y93.875 E12.74286
G1 X44.876 Y92.894 E12.78712
G1 X44.916 Y92.147 E12.82087
G1 X45.035 Y91.409 E12.8546
G1 X45.233 Y90.687 E12.88838
G1 X45.276 Y90.582 E12.8935
G1 X45.276 Y89.508 E12.94195
G1 X45.085 Y88.887 E12.97126
G1 X44.943 Y88.152 E13.00504
G1 X44.876 Y87.188 E13.04864
G1 X44.876 Y86.208 E13.09285
G1 X44.916 Y85.461 E13.1266
G1 X45.035 Y84.723 E13.16033
G1 X45.175 Y84.211 E13.18427
G1 X45.062 Y83.938 E13.1976
G1 X44.85 Y83.221 E13.23134
G1 X44.717 Y82.485 E13.26508
G1 X44.661 Y81.603 E13.30495
G1 X44.661 Y80.622 E13.34921
G1 X44.701 Y79.875 E13.38296
G1 X44.82 Y79.137 E13.41669
G1 X45.018 Y78.415 E13.45047
G1 X45.061 Y78.31 E13.45559
G1 X45.061 Y77.236 E13.50404
G1 X44.87 Y76.615 E13.53336
G1 X44.728 Y75.88 E13.56713
G1 X44.661 Y74.916 E13.61073
G1 X44.661 Y73.936 E13.65494
G1 X44.701 Y73.189 E13.68869
G1 X44.82 Y72.451 E13.72242
G1 X45.018 Y71.729 E13.75619
G1 X45.291 Y71.033 E13.78992
G1 X45.725 Y70.226 E13.83127
G1 X45.785 Y70.13 E13.83637
G1 X46.215 Y69.518 E13.87012
G1 X46.707 Y68.955 E13.90385
G1 X47.257 Y68.448 E13.9376
G1 X47.858 Y68.002 E13.97137
G1 X48.575 Y67.587 E14.00874
G1 X48.895 Y67.426 E14.0249
G1 X49.58 Y67.126 E14.05864
G1 X49.778 Y67.066 E14.06798
G1 X49.778 Y55.117 E14.60708
G1 X49.818 Y54.37 E14.64083
G1 X49.937 Y53.632 E14.67455
G1 X50.135 Y52.91 E14.70833
G1 X50.408 Y52.214 E14.74206
G1 X50.755 Y51.551 E14.77582
G1 X51.17 Y50.928 E14.8096
G1 X51.828 Y50.167 E14.85498
G0 F3000 X52.111 Y50.45
G1 F1500 X52.228 Y50.333 E14.86245
G1 X52.769 Y49.849 E14.8952
G1 X53.36 Y49.426 E14.92799
G1 X53.994 Y49.072 E14.96075
G1 X54.663 Y48.789 E14.99352
G1 X55.359 Y48.581 E15.0263
G1 X56.074 Y48.451 E15.05908
G1 X56.895 Y48.4 E15.0962
G1 X90.661 Y48.4 E16.61961
G1 X91.386 Y48.44 E16.65237
G1 X91.998 Y48.542 E16.68036
G1 X92.496 Y48.451 E16.7032
G1 X93.317 Y48.4 E16.74031
G1 X127.083 Y48.4 E18.26372
G1 X127.808 Y48.44 E18.29648
G1 X128.525 Y48.559 E18.32927
G1 X129.224 Y48.757 E18.36205
G1 X129.897 Y49.03 E18.39482
G1 X130.536 Y49.375 E18.42758
G1 X131.133 Y49.789 E18.46036
G1 X131.75 Y50.333 E18.49747
G1 X131.867 Y50.45 E18.50493
G1 X132.351 Y50.991 E18.53768
G1 X132.774 Y51.582 E18.57047
G1 X133.128 Y52.216 E18.60323
G1 X133.411 Y52.885 E18.63601
G1 X133.619 Y53.581 E18.66878
G1 X133.749 Y54.296 E18.70157
G1 X133.8 Y55.117 E18.73868
G1 X133.8 Y124.883 E21.88629
G1 X133.76 Y125.608 E21.91905
G1 X133.641 Y126.325 E21.95184
G1 X133.443 Y127.024 E21.98462
G1 X133.17 Y127.697 E22.01739
G1 X132.825 Y128.336 E22.05015
G1 X132.411 Y128.933 E22.08293
G1 X131.867 Y129.55 E22.12004
G1 X131.75 Y129.667 E22.1275
G1 X131.209 Y130.151 E22.16025
G1 X130.618 Y130.574 E22.19304
G1 X129.984 Y130.928 E22.22581
G1 X129.315 Y131.211 E22.25858
G1 X128.619 Y131.419 E22.29135
G1 X127.904 Y131.549 E22.32414
G1 X127.083 Y131.6 E22.36125
G1 X93.317 Y131.6 E23.88466
G1 X92.592 Y131.56 E23.91742
G1 X91.98 Y131.458 E23.94541
G1 X91.482 Y131.549 E23.96825
G1 X90.661 Y131.6 E24.00537
G1 X56.895 Y131.6 E25.52878
G1 X56.17 Y131.56 E25.56154
G1 X55.453 Y131.441 E25.59433
G1 X54.754 Y131.243 E25.6271
G1 X54.081 Y130.97 E25.65987
G1 X53.442 Y130.625 E25.69263
G1 X52.845 Y130.211 E25.72541
G1 X52.228 Y129.667 E25.76252
G1 X52.111 Y129.55 E25.76999
G1 X51.627 Y129.009 E25.80274
G1 X51.204 Y128.418 E25.83553
G1 X50.85 Y127.784 E25.86829
G1 X50.567 Y127.115 E25.90106
G1 X50.359 Y126.419 E25.93384
G1 X50.229 Y125.704 E25.96662
G1 X50.178 Y124.883 E26.00374
G1 X50.178 Y100.388 E27.10887
G1 X50.032 Y100.345 E27.11574
G1 X49.328 Y100.045 E27.15026
G1 X49.007 Y99.886 E27.16642
G1 X48.374 Y99.529 E27.19921
G1 X47.785 Y99.103 E27.23201
G1 X47.247 Y98.616 E27.26475
G1 X46.765 Y98.073 E27.2975
G1 X46.323 Y97.444 E27.33219
G1 X46.263 Y97.347 E27.33733
G1 X45.915 Y96.709 E27.37012
G1 X45.64 Y96.037 E27.40288
G1 X45.44 Y95.339 E27.43564
G1 X45.318 Y94.623 E27.46841
G1 X45.276 Y93.875 E27.50221
G1 X45.276 Y92.894 E27.54647
G1 X45.316 Y92.169 E27.57923
G1 X45.435 Y91.452 E27.61202
G1 X45.633 Y90.753 E27.6448
G1 X45.676 Y90.65 E27.64983
G1 X45.676 Y89.451 E27.70393
G1 X45.463 Y88.749 E27.73703
G1 X45.33 Y88.034 E27.76984
G1 X45.276 Y87.188 E27.80808
G1 X45.276 Y86.208 E27.8523
G1 X45.316 Y85.483 E27.88506
G1 X45.435 Y84.766 E27.91785
G1 X45.598 Y84.189 E27.9449
G1 X45.425 Y83.765 E27.96556
G1 X45.225 Y83.067 E27.99832
G1 X45.103 Y82.351 E28.03109
G1 X45.061 Y81.603 E28.06489
G1 X45.061 Y80.622 E28.10915
G1 X45.101 Y79.897 E28.14191
G1 X45.22 Y79.18 E28.1747
G1 X45.418 Y78.481 E28.20748
G1 X45.461 Y78.378 E28.21251
G1 X45.461 Y77.179 E28.26661
G1 X45.248 Y76.477 E28.2997
G1 X45.115 Y75.762 E28.33252
G1 X45.061 Y74.916 E28.37076
G1 X45.061 Y73.936 E28.41498
G1 X45.101 Y73.211 E28.44774
G1 X45.22 Y72.494 E28.48053
G1 X45.418 Y71.795 E28.51331
G1 X45.691 Y71.122 E28.54607
G1 X46.064 Y70.438 E28.58122
G1 X46.124 Y70.342 E28.58633
G1 X46.542 Y69.748 E28.6191
G1 X47.023 Y69.204 E28.65186
G1 X47.561 Y68.716 E28.68463
G1 X48.15 Y68.29 E28.71743
G1 X48.755 Y67.944 E28.74887
G1 X49.075 Y67.783 E28.76503
G1 X49.741 Y67.493 E28.79781
G1 X50.178 Y67.362 E28.81839
G1 X50.178 Y55.117 E29.37084
G1 X50.218 Y54.392 E29.4036
G1 X50.337 Y53.675 E29.43639
G1 X50.535 Y52.976 E29.46917
G1 X50.808 Y52.303 E29.50194
G1 X51.153 Y51.664 E29.5347
G1 X51.567 Y51.067 E29.56748
G1 X52.111 Y50.45 E29.60459
G0 F3000 X52.394 Y50.733
G1 F1500 X52.511 Y50.616 E29.61205
G1 X53.036 Y50.147 E29.64382
G1 X53.611 Y49.741 E29.67557
G1 X54.229 Y49.403 E29.70735
G1 X54.88 Y49.136 E29.7391
G1 X55.558 Y48.946 E29.77087
G1 X56.253 Y48.833 E29.80263
G1 X56.895 Y48.8 E29.83164
G1 X90.661 Y48.8 E31.35505
G1 X91.364 Y48.84 E31.38682
G1 X91.981 Y48.946 E31.41506
G1 X92.675 Y48.833 E31.44678
G1 X93.317 Y48.8 E31.47579
G1 X127.083 Y48.8 E32.9992
G1 X127.786 Y48.84 E33.03097
G1 X128.48 Y48.959 E33.06273
G1 X129.155 Y49.157 E33.09447
G1 X129.804 Y49.429 E33.12622
G1 X130.418 Y49.774 E33.15799
G1 X130.989 Y50.185 E33.18974
G1 X131.467 Y50.616 E33.21877
G1 X131.584 Y50.733 E33.22624
G1 X132.053 Y51.258 E33.258
G1 X132.459 Y51.833 E33.28976
G1 X132.797 Y52.451 E33.32154
G1 X133.064 Y53.102 E33.35328
G1 X133.254 Y53.78 E33.38505
G1 X133.367 Y54.475 E33.41682
G1 X133.4 Y55.117 E33.44582
G1 X133.4 Y124.883 E36.59343
G1 X133.36 Y125.586 E36.6252
G1 X133.241 Y126.28 E36.65697
G1 X133.043 Y126.955 E36.68871
G1 X132.771 Y127.604 E36.72045
G1 X132.426 Y128.218 E36.75223
G1 X132.015 Y128.789 E36.78397
G1 X131.584 Y129.267 E36.81301
G1 X131.467 Y129.384 E36.82047
G1 X130.942 Y129.853 E36.85224
G1 X130.367 Y130.259 E36.88399
G1 X129.749 Y130.597 E36.91577
G1 X129.098 Y130.864 E36.94752
G1 X128.42 Y131.054 E36.97929
G1 X127.725 Y131.167 E37.01105
G1 X127.083 Y131.2 E37.04006
G1 X93.317 Y131.2 E38.56347
G1 X92.614 Y131.16 E38.59524
G1 X91.997 Y131.054 E38.62348
G1 X91.303 Y131.167 E38.6552
G1 X90.661 Y131.2 E38.68421
G1 X56.895 Y131.2 E40.20762
G1 X56.192 Y131.16 E40.23939
G1 X55.498 Y131.041 E40.27115
G1 X54.823 Y130.843 E40.30289
G1 X54.174 Y130.571 E40.33464
G1 X53.56 Y130.226 E40.36641
G1 X52.989 Y129.815 E40.39816
G1 X52.511 Y129.384 E40.42719
G1 X52.394 Y129.267 E40.43466
G1 X51.925 Y128.742 E40.46642
G1 X51.519 Y128.167 E40.49818
G1 X51.181 Y127.549 E40.52996
G1 X50.914 Y126.898 E40.5617
G1 X50.724 Y126.22 E40.59347
G1 X50.611 Y125.525 E40.62524
G1 X50.578 Y124.883 E40.65424
G1 X50.578 Y100.09 E41.77282
G1 X50.146 Y99.961 E41.79316
G1 X49.505 Y99.687 E41.82461
G1 X49.184 Y99.528 E41.84077
G1 X48.572 Y99.18 E41.87254
G1 X48.003 Y98.765 E41.90431
G1 X47.485 Y98.288 E41.93608
G1 X47.025 Y97.756 E41.96781
G1 X46.663 Y97.234 E41.99647
G1 X46.603 Y97.137 E42.00162
G1 X46.267 Y96.518 E42.03339
G1 X46.004 Y95.865 E42.06515
G1 X45.816 Y95.186 E42.09694
G1 X45.707 Y94.491 E42.12868
G1 X45.676 Y93.875 E42.15651
G1 X45.676 Y92.894 E42.20077
G1 X45.716 Y92.191 E42.23253
G1 X45.835 Y91.497 E42.2643
G1 X46.033 Y90.822 E42.29604
G1 X46.076 Y90.72 E42.30103
G1 X46.076 Y89.367 E42.36208
G1 X46.042 Y89.287 E42.366
G1 X45.842 Y88.612 E42.39776
G1 X45.719 Y87.919 E42.42952
G1 X45.676 Y87.188 E42.46255
G1 X45.676 Y86.208 E42.50677
G1 X45.716 Y85.505 E42.53854
G1 X45.835 Y84.811 E42.5703
G1 X46.022 Y84.172 E42.60034
G1 X45.789 Y83.593 E42.6285
G1 X45.601 Y82.914 E42.66029
G1 X45.492 Y82.219 E42.69203
G1 X45.461 Y81.603 E42.71985
G1 X45.461 Y80.622 E42.76411
G1 X45.501 Y79.919 E42.79588
G1 X45.62 Y79.225 E42.82765
G1 X45.818 Y78.55 E42.85939
G1 X45.861 Y78.448 E42.86438
G1 X45.861 Y77.095 E42.92542
G1 X45.827 Y77.015 E42.92935
G1 X45.627 Y76.34 E42.96111
G1 X45.504 Y75.647 E42.99286
G1 X45.461 Y74.916 E43.0259
G1 X45.461 Y73.936 E43.07011
G1 X45.501 Y73.233 E43.10188
G1 X45.62 Y72.539 E43.13365
G1 X45.818 Y71.864 E43.16539
G1 X46.09 Y71.215 E43.19714
G1 X46.403 Y70.65 E43.22628
G1 X46.463 Y70.554 E43.23138
G1 X46.87 Y69.979 E43.26317
G1 X47.339 Y69.454 E43.29493
G1 X47.864 Y68.986 E43.32666
G1 X48.439 Y68.58 E43.35842
G1 X48.934 Y68.301 E43.38405
G1 X49.254 Y68.14 E43.40021
G1 X49.9 Y67.86 E43.43198
G1 X50.578 Y67.658 E43.4639
G1 X50.578 Y55.117 E44.02971
G1 X50.618 Y54.414 E44.06147
G1 X50.737 Y53.72 E44.09324
G1 X50.935 Y53.045 E44.12498
G1 X51.207 Y52.396 E44.15673
G1 X51.552 Y51.782 E44.1885
G1 X51.963 Y51.211 E44.22024
G1 X52.394 Y50.733 E44.24928
G0 F3000 X52.794 Y50.899
G1 F1500 X53.303 Y50.446 E44.28002
G1 X53.861 Y50.057 E44.31071
G1 X54.461 Y49.735 E44.34143
G1 X55.095 Y49.486 E44.37217
G1 X55.754 Y49.313 E44.40291
G1 X56.428 Y49.219 E44.43361
G1 X56.895 Y49.2 E44.4547
G1 X90.661 Y49.2 E45.97811
G1 X91.341 Y49.24 E46.00884
G1 X92.005 Y49.358 E46.03927
G1 X92.176 Y49.313 E46.04724
G1 X92.85 Y49.219 E46.07795
G1 X93.317 Y49.2 E46.09903
G1 X127.083 Y49.2 E47.62244
G1 X127.763 Y49.24 E47.65318
G1 X128.433 Y49.359 E47.68388
G1 X129.085 Y49.556 E47.71461
G1 X129.709 Y49.828 E47.74532
G1 X130.297 Y50.172 E47.77605
G1 X130.841 Y50.582 E47.80679
G1 X131.301 Y51.016 E47.83532
G1 X131.754 Y51.525 E47.86606
G1 X132.143 Y52.083 E47.89675
G1 X132.465 Y52.683 E47.92747
G1 X132.714 Y53.317 E47.9582
G1 X132.887 Y53.976 E47.98894
G1 X132.981 Y54.65 E48.01965
G1 X133 Y55.117 E48.04073
G1 X133 Y124.883 E51.18834
G1 X132.96 Y125.563 E51.21908
G1 X132.841 Y126.233 E51.24978
G1 X132.644 Y126.885 E51.28051
G1 X132.372 Y127.509 E51.31122
G1 X132.028 Y128.097 E51.34195
G1 X131.618 Y128.641 E51.37269
G1 X131.184 Y129.101 E51.40122
G1 X130.675 Y129.554 E51.43196
G1 X130.117 Y129.943 E51.46265
G1 X129.517 Y130.265 E51.49337
G1 X128.883 Y130.514 E51.5241
G1 X128.224 Y130.687 E51.55484
G1 X127.55 Y130.781 E51.58555
G1 X127.083 Y130.8 E51.60663
G1 X93.317 Y130.8 E53.13004
G1 X92.637 Y130.76 E53.16078
G1 X91.973 Y130.642 E53.1912
G1 X91.802 Y130.687 E53.19918
G1 X91.128 Y130.781 E53.22988
G1 X90.661 Y130.8 E53.25097
G1 X56.895 Y130.8 E54.77438
G1 X56.215 Y130.76 E54.80511
G1 X55.545 Y130.641 E54.83582
G1 X54.893 Y130.444 E54.86654
G1 X54.269 Y130.172 E54.89726
G1 X53.681 Y129.828 E54.92799
G1 X53.137 Y129.418 E54.95872
G1 X52.677 Y128.984 E54.98726
G1 X52.224 Y128.475 E55.018
G1 X51.835 Y127.917 E55.04869
G1 X51.513 Y127.317 E55.07941
G1 X51.264 Y126.683 E55.11014
G1 X51.091 Y126.024 E55.14088
G1 X50.997 Y125.35 E55.17158
G1 X50.978 Y124.883 E55.19267
G1 X50.978 Y99.787 E56.32492
G1 X50.914 Y99.773 E56.32787
G1 X50.262 Y99.577 E56.35859
G1 X49.683 Y99.328 E56.38703
G1 X49.362 Y99.169 E56.40319
G1 X48.77 Y98.832 E56.43392
G1 X48.223 Y98.427 E56.46463
G1 X47.726 Y97.961 E56.49537
G1 X47.287 Y97.441 E56.52607
G1 X47.003 Y97.023 E56.54887
G1 X46.943 Y96.926 E56.55402
G1 X46.62 Y96.327 E56.58472
G1 X46.369 Y95.694 E56.61544
G1 X46.193 Y95.036 E56.64617
G1 X46.097 Y94.362 E56.67689
G1 X46.076 Y93.875 E56.69888
G1 X46.076 Y92.894 E56.74314
G1 X46.116 Y92.214 E56.77387
G1 X46.235 Y91.544 E56.80457
G1 X46.432 Y90.892 E56.8353
G1 X46.476 Y90.79 E56.84031
G1 X46.476 Y89.284 E56.90826
G1 X46.411 Y89.13 E56.9158
G1 X46.221 Y88.476 E56.94653
G1 X46.109 Y87.805 E56.97722
G1 X46.076 Y87.188 E57.0051
G1 X46.076 Y86.208 E57.04931
G1 X46.116 Y85.528 E57.08004
G1 X46.235 Y84.858 E57.11075
G1 X46.432 Y84.206 E57.14147
G1 X46.456 Y84.15 E57.14422
G1 X46.405 Y84.055 E57.14909
G1 X46.154 Y83.422 E57.17981
G1 X45.978 Y82.764 E57.21054
G1 X45.882 Y82.09 E57.24126
G1 X45.861 Y81.603 E57.26325
G1 X45.861 Y80.622 E57.30751
G1 X45.901 Y79.942 E57.33824
G1 X46.02 Y79.272 E57.36894
G1 X46.217 Y78.62 E57.39967
G1 X46.261 Y78.518 E57.40468
G1 X46.261 Y77.012 E57.47263
G1 X46.196 Y76.858 E57.48017
G1 X46.006 Y76.204 E57.5109
G1 X45.894 Y75.533 E57.54159
G1 X45.861 Y74.916 E57.56947
G1 X45.861 Y73.936 E57.61368
G1 X45.901 Y73.256 E57.64441
G1 X46.02 Y72.586 E57.67511
G1 X46.217 Y71.934 E57.70584
G1 X46.489 Y71.31 E57.73655
G1 X46.743 Y70.862 E57.75979
G1 X46.803 Y70.766 E57.7649
G1 X47.197 Y70.211 E57.7956
G1 X47.653 Y69.706 E57.8263
G1 X48.166 Y69.257 E57.85706
G1 X48.727 Y68.872 E57.88776
G1 X49.434 Y68.498 E57.92384
G1 X50.059 Y68.228 E57.95456
G1 X50.727 Y68.03 E57.98599
G1 X50.978 Y67.984 E57.99751
G1 X50.978 Y55.117 E58.57802
G1 X51.018 Y54.437 E58.60876
