;FLAVOR:Marlin
;TIME:3043
;Filament used: 5.06615m
;Layer height: 0.3
;MINX:49.279
;MINY:48.7
;MINZ:0.3
;MAXX:141.347
;MAXY:131.3
;MAXZ:12
;Generated with Cura_SteamEngine 4.12.1
M82 ;absolute extrusion mode
G21 ;metric values
G90 ;absolute positioning
M82 ;set extruder to absolute mode
M107 ;start with the fan off

M104 S200 T0 ; start heating T0 to what is set in Cura
M140 S60 ; start heating the bed to what is set in Cura
M190 S60 ; start heating the bed to what is set in Cura
M109 S200 T0 ; start heating T0 to what is set in Cura

G28 X0 Y0 ;move X/Y to min endstops
G28 Z0 ;move Z to min endstops
G1 Z15.0 F2400 ;move the platform down 15mm
G92 E0 ;zero the extruded length
G1 F200 E3 ;extrude 3mm of feed stock
G92 E0 ;zero the extruded length again
G1 F2400
G0 Y20 F2400
M117 Printing...
G5
G92 E0
G92 E0
G1 F2400 E-1.2
;LAYER_COUNT:40
;LAYER:0
M107
G0 F3000 X52.009 Y50.065 Z0.3
;TYPE:SKIRT
G1 F2400 E0
G1 F1500 X52.412 Y49.668 E0.02552
G1 X52.866 Y49.332 E0.05101
G1 X53.364 Y49.063 E0.07654
G1 X53.894 Y48.868 E0.10202
G1 X54.447 Y48.749 E0.12754
G1 X55.218 Y48.702 E0.16239
G1 X55.33 Y48.7 E0.16744
G1 X124.35 Y48.7 E3.2814
G1 X125.047 Y48.71 E3.31285
G1 X125.611 Y48.758 E3.33839
G1 X126.162 Y48.885 E3.3639
G1 X126.689 Y49.089 E3.38939
G1 X127.183 Y49.364 E3.4149
G1 X127.632 Y49.707 E3.44039
G1 X128.029 Y50.11 E3.46592
G1 X128.366 Y50.564 E3.49143
G1 X128.634 Y51.061 E3.5169
G1 X128.83 Y51.592 E3.54244
G1 X128.91 Y51.916 E3.5575
G1 X129.138 Y53.039 E3.60919
G1 X129.732 Y55.785 E3.73595
G1 X130.363 Y58.354 E3.8553
G1 X131.088 Y60.975 E3.97799
G1 X131.902 Y63.624 E4.10302
G1 X132.753 Y66.143 E4.22298
G1 X133.713 Y68.736 E4.34773
G1 X134.712 Y71.215 E4.46831
G1 X135.815 Y73.747 E4.59292
G1 X136.956 Y76.175 E4.71395
G1 X138.18 Y78.597 E4.83639
G1 X139.491 Y81.023 E4.9608
G1 X140.289 Y82.421 E5.03343
G1 X140.795 Y83.293 E5.07891
G1 X141.043 Y83.801 E5.10442
G1 X141.218 Y84.339 E5.12994
G1 X141.314 Y84.896 E5.15544
G1 X141.334 Y85.235 E5.17076
G1 X141.345 Y85.967 E5.20379
G1 X141.327 Y87.129 E5.25622
G1 X141.284 Y88.64 E5.32442
G1 X141.284 Y91.363 E5.44727
G1 X141.343 Y93.703 E5.55288
G1 X141.347 Y94.141 E5.57264
G1 X141.338 Y94.755 E5.60035
G1 X141.289 Y95.318 E5.62584
G1 X141.162 Y95.869 E5.65136
G1 X140.959 Y96.396 E5.67683
G1 X140.803 Y96.694 E5.69201
G1 X140.095 Y97.922 E5.75596
G1 X138.786 Y100.266 E5.87709
G1 X137.51 Y102.712 E6.00156
G1 X136.324 Y105.152 E6.12396
G1 X135.212 Y107.613 E6.2458
G1 X134.164 Y110.118 E6.36831
G1 X133.175 Y112.681 E6.49225
G1 X132.278 Y115.226 E6.614
G1 X131.456 Y117.784 E6.73522
G1 X130.687 Y120.427 E6.85941
G1 X130.011 Y123.028 E6.98065
G1 X129.399 Y125.679 E7.1034
G1 X128.975 Y127.792 E7.20064
G1 X128.904 Y128.125 E7.216
G1 X128.747 Y128.668 E7.2415
G1 X128.516 Y129.184 E7.26701
G1 X128.214 Y129.662 E7.29252
G1 X127.847 Y130.092 E7.31802
G1 X127.424 Y130.467 E7.34353
G1 X126.952 Y130.778 E7.36903
G1 X126.441 Y131.019 E7.39452
G1 X125.9 Y131.186 E7.42006
G1 X125.104 Y131.289 E7.45627
G1 X124.67 Y131.3 E7.47586
G1 X55.65 Y131.3 E10.58982
G1 X54.952 Y131.29 E10.62131
G1 X54.388 Y131.242 E10.64685
G1 X53.838 Y131.115 E10.67232
G1 X53.31 Y130.911 E10.69785
G1 X52.816 Y130.636 E10.72336
G1 X52.367 Y130.293 E10.74885
G1 X51.97 Y129.891 E10.77434
G1 X51.633 Y129.436 E10.79989
G1 X51.365 Y128.939 E10.82537
G1 X51.169 Y128.409 E10.85086
G1 X51.049 Y127.856 E10.87639
G1 X51.016 Y127.518 E10.89171
G1 X50.954 Y126.438 E10.94052
G1 X50.942 Y126.152 E10.95343
G1 X50.757 Y123.481 E11.07423
G1 X50.49 Y120.753 E11.1979
G1 X50.153 Y118.088 E11.31909
G1 X49.735 Y115.387 E11.4424
G1 X49.52 Y114.237 E11.49518
G1 X49.345 Y113.215 E11.54196
G1 X49.29 Y112.653 E11.56744
G1 X49.279 Y112.222 E11.58689
G1 X49.279 Y108.529 E11.75351
G1 X49.29 Y107.822 E11.78541
G1 X49.356 Y107.159 E11.81547
G1 X49.426 Y106.779 E11.8329
G1 X49.888 Y104.078 E11.95653
G1 X50.269 Y101.397 E12.0787
G1 X50.57 Y98.739 E12.19939
G1 X50.802 Y96.007 E12.32309
G1 X50.956 Y93.269 E12.44682
G1 X51.031 Y90.596 E12.56746
G1 X51.031 Y87.849 E12.6914
G1 X51 Y86.376 E12.75787
G1 X51 Y53.314 E14.24952
G1 X51.01 Y52.649 E14.27953
G1 X51.059 Y52.086 E14.30502
G1 X51.186 Y51.535 E14.33053
G1 X51.39 Y51.007 E14.35607
G1 X51.666 Y50.514 E14.38156
G1 X52.009 Y50.065 E14.40705
G0 F3000 X52.402 Y50.227
G1 F1500 X52.8 Y49.868 E14.43124
G1 X53.246 Y49.571 E14.45541
G1 X53.732 Y49.343 E14.47963
G1 X54.246 Y49.191 E14.50381
G1 X54.909 Y49.11 E14.53395
G1 X55.33 Y49.1 E14.55295
G1 X124.345 Y49.1 E17.66668
G1 X125.042 Y49.11 E17.69813
G1 X125.576 Y49.158 E17.72232
G1 X126.097 Y49.284 E17.7465
G1 X126.594 Y49.487 E17.77072
G1 X127.055 Y49.761 E17.79492
G1 X127.47 Y50.1 E17.81909
G1 X127.83 Y50.498 E17.84331
G1 X128.127 Y50.944 E17.86748
G1 X128.355 Y51.43 E17.8917
G1 X128.518 Y51.995 E17.91823
G1 X128.747 Y53.124 E17.9702
G1 X129.337 Y55.851 E18.09608
G1 X129.978 Y58.46 E18.21729
G1 X130.712 Y61.117 E18.34166
G1 X131.516 Y63.731 E18.46505
G1 X132.386 Y66.304 E18.58759
G1 X133.33 Y68.857 E18.71039
G1 X134.345 Y71.376 E18.83292
G1 X135.444 Y73.898 E18.95704
G1 X136.595 Y76.347 E19.07913
G1 X137.836 Y78.804 E19.20332
G1 X139.12 Y81.18 E19.32516
G1 X139.943 Y82.622 E19.40007
G1 X140.449 Y83.494 E19.44556
G1 X140.683 Y83.977 E19.46977
G1 X140.842 Y84.489 E19.49396
G1 X140.935 Y85.242 E19.52819
G1 X140.945 Y85.85 E19.55563
G1 X140.945 Y85.961 E19.56063
G1 X140.928 Y87.117 E19.61279
G1 X140.884 Y88.663 E19.68257
G1 X140.884 Y91.373 E19.80484
G1 X140.943 Y93.707 E19.91018
G1 X140.947 Y94.135 E19.92949
G1 X140.938 Y94.749 E19.95719
G1 X140.89 Y95.283 E19.98138
G1 X140.763 Y95.804 E20.00557
G1 X140.457 Y96.494 E20.03963
G1 X139.749 Y97.722 E20.10358
G1 X138.425 Y100.092 E20.22606
G1 X137.153 Y102.531 E20.35017
G1 X135.971 Y104.962 E20.47212
G1 X134.837 Y107.472 E20.59639
G1 X133.798 Y109.955 E20.71782
G1 X132.789 Y112.57 E20.84428
G1 X131.906 Y115.075 E20.96412
G1 X131.074 Y117.665 E21.08685
G1 X130.302 Y120.319 E21.21155
G1 X129.621 Y122.934 E21.33347
G1 X129.009 Y125.59 E21.45644
G1 X128.584 Y127.709 E21.55394
G1 X128.513 Y128.042 E21.5693
G1 X128.362 Y128.556 E21.59347
G1 X128.137 Y129.043 E21.61768
G1 X127.842 Y129.491 E21.64188
G1 X127.483 Y129.89 E21.66609
G1 X127.07 Y130.231 E21.69026
G1 X126.61 Y130.507 E21.71446
G1 X126.114 Y130.712 E21.73867
G1 X125.594 Y130.84 E21.76284
G1 X125.093 Y130.89 E21.78555
G1 X124.67 Y130.9 E21.80464
G1 X55.655 Y130.9 E24.91837
G1 X54.957 Y130.89 E24.94987
G1 X54.423 Y130.842 E24.97405
G1 X53.902 Y130.716 E24.99824
G1 X53.405 Y130.513 E25.02246
G1 X52.944 Y130.239 E25.04665
G1 X52.529 Y129.9 E25.07083
G1 X52.169 Y129.502 E25.09504
G1 X51.872 Y129.056 E25.11922
G1 X51.644 Y128.57 E25.14344
G1 X51.492 Y128.056 E25.16762
G1 X51.415 Y127.496 E25.19312
G1 X51.354 Y126.422 E25.24166
G1 X51.343 Y126.144 E25.25421
G1 X51.155 Y123.448 E25.37614
G1 X50.89 Y120.735 E25.49912
G1 X50.546 Y118.013 E25.62291
G1 X50.128 Y115.318 E25.74595
G1 X49.915 Y114.17 E25.79863
G1 X49.74 Y113.148 E25.84541
G1 X49.689 Y112.642 E25.86835
G1 X49.679 Y112.222 E25.88731
G1 X49.679 Y108.535 E26.05365
G1 X49.69 Y107.828 E26.08556
G1 X49.75 Y107.232 E26.11258
G1 X49.82 Y106.852 E26.13001
G1 X50.279 Y104.166 E26.25295
G1 X50.663 Y101.467 E26.37595
G1 X50.972 Y98.747 E26.49946
G1 X51.202 Y96.028 E26.62257
G1 X51.354 Y93.339 E26.74408
G1 X51.431 Y90.571 E26.86901
G1 X51.431 Y87.84 E26.99223
G1 X51.4 Y86.376 E27.05829
G1 X51.4 Y53.32 E28.54967
G1 X51.41 Y52.655 E28.57968
G1 X51.458 Y52.121 E28.60386
G1 X51.585 Y51.6 E28.62806
G1 X51.788 Y51.103 E28.65228
G1 X52.062 Y50.642 E28.67648
G1 X52.402 Y50.227 E28.70068
G0 F3000 X52.458 Y50.778
G1 F1500 X52.794 Y50.401 E28.72346
G1 X53.185 Y50.08 E28.74629
G1 X53.622 Y49.826 E28.76909
G1 X54.093 Y49.643 E28.79189
G1 X54.588 Y49.537 E28.81473
G1 X55.24 Y49.501 E28.84419
G1 X124.339 Y49.5 E31.96171
G1 X125.036 Y49.51 E31.99316
G1 X125.539 Y49.557 E32.01595
G1 X126.029 Y49.683 E32.03878
G1 X126.493 Y49.885 E32.06161
G1 X126.919 Y50.157 E32.08441
G1 X127.297 Y50.492 E32.1072
G1 X127.617 Y50.883 E32.13
G1 X127.872 Y51.32 E32.15282
G1 X128.055 Y51.791 E32.17562
G1 X128.126 Y52.075 E32.18883
G1 X128.356 Y53.208 E32.24099
G1 X128.946 Y55.934 E32.36682
G1 X129.598 Y58.59 E32.49021
G1 X130.321 Y61.204 E32.61257
G1 X131.138 Y63.862 E32.73803
G1 X132.008 Y66.435 E32.86057
G1 X132.956 Y68.997 E32.98382
G1 X133.984 Y71.549 E33.10795
G1 X135.073 Y74.049 E33.23098
G1 X136.24 Y76.533 E33.3548
G1 X137.477 Y78.981 E33.47855
G1 X138.763 Y81.36 E33.60056
G1 X139.609 Y82.843 E33.67759
G1 X140.103 Y83.695 E33.72202
G1 X140.321 Y84.151 E33.74482
G1 X140.465 Y84.636 E33.76765
G1 X140.535 Y85.248 E33.79544
G1 X140.545 Y85.955 E33.82734
G1 X140.528 Y87.106 E33.87928
G1 X140.484 Y88.652 E33.94905
G1 X140.484 Y91.383 E34.07227
G1 X140.543 Y93.712 E34.17738
G1 X140.547 Y94.129 E34.19619
G1 X140.538 Y94.743 E34.2239
G1 X140.49 Y95.246 E34.24669
G1 X140.364 Y95.736 E34.26952
G1 X140.11 Y96.294 E34.29718
G1 X139.424 Y97.484 E34.35915
G1 X138.064 Y99.918 E34.48495
G1 X136.811 Y102.322 E34.60726
G1 X135.591 Y104.829 E34.73304
G1 X134.48 Y107.289 E34.85483
G1 X133.414 Y109.836 E34.9794
G1 X132.425 Y112.4 E35.10338
G1 X131.52 Y114.968 E35.22623
G1 X130.698 Y117.525 E35.3474
G1 X129.916 Y120.212 E35.47366
G1 X129.23 Y122.849 E35.5966
G1 X128.621 Y125.493 E35.71901
G1 X128.193 Y127.625 E35.81712
G1 X128.122 Y127.958 E35.83248
G1 X127.977 Y128.443 E35.85532
G1 X127.759 Y128.899 E35.87812
G1 X127.471 Y129.314 E35.90091
G1 X127.121 Y129.68 E35.92376
G1 X126.719 Y129.985 E35.94652
G1 X126.273 Y130.223 E35.96933
G1 X125.795 Y130.389 E35.99216
G1 X125.081 Y130.49 E36.02469
G1 X124.67 Y130.5 E36.04324
G1 X55.661 Y130.5 E39.1567
G1 X54.963 Y130.49 E39.1882
G1 X54.46 Y130.443 E39.21099
G1 X53.97 Y130.317 E39.23382
G1 X53.506 Y130.115 E39.25665
G1 X53.08 Y129.843 E39.27945
G1 X52.702 Y129.508 E39.30224
G1 X52.382 Y129.117 E39.32503
G1 X52.127 Y128.68 E39.34786
G1 X51.944 Y128.209 E39.37066
G1 X51.814 Y127.473 E39.40438
G1 X51.754 Y126.406 E39.45259
G1 X51.743 Y126.134 E39.46488
G1 X51.554 Y123.417 E39.58775
G1 X51.287 Y120.682 E39.71173
G1 X50.94 Y117.938 E39.83652
G1 X50.527 Y115.275 E39.9581
G1 X50.309 Y114.102 E40.01193
G1 X50.134 Y113.08 E40.05871
G1 X50.08 Y112.313 E40.0934
G1 X50.079 Y108.541 E40.26358
G1 X50.09 Y107.834 E40.29548
G1 X50.143 Y107.304 E40.31951
G1 X50.213 Y106.924 E40.33695
G1 X50.676 Y104.218 E40.46081
G1 X51.058 Y101.531 E40.58325
G1 X51.369 Y98.79 E40.70771
G1 X51.601 Y96.051 E40.83173
G1 X51.754 Y93.335 E40.95446
G1 X51.831 Y90.583 E41.07867
G1 X51.831 Y87.808 E41.20387
G1 X51.8 Y86.376 E41.26849
G1 X51.8 Y53.326 E42.7596
G1 X51.81 Y52.661 E42.78961
G1 X51.858 Y52.158 E42.8124
G1 X51.984 Y51.668 E42.83523
G1 X52.186 Y51.204 E42.85806
G1 X52.458 Y50.778 E42.88086
G1 F2400 E41.68086
G0 F3000 X53.479 Y108.084
;TYPE:SUPPORT
G1 F2400 E42.88086
G1 F1500 X54.1 Y108.084 E42.90888
G1 X54.1 Y112.352 E43.10144
G1 X53.479 Y112.352 E43.12946
G1 X53.479 Y108.084 E43.32202
G1 F2400 E42.12202
G0 F3000 X53.638 Y109.347
G1 F2400 E43.32202
G1 F1500 X53.939 Y109.347 E43.3356
G1 F2400 E42.1356
G0 F3000 X53.939 Y112.014
G1 F2400 E43.3356
G1 F1500 X53.638 Y112.014 E43.34918
G1 F2400 E42.14918
;MESH:pp_case_top_v2.stl
G0 F3000 X56 Y85.7
;TYPE:WALL-INNER
G1 F2400 E43.34918
G1 F1500 X56 Y53.7 E44.79291
G1 X124 Y53.7 E47.86085
G1 X124 Y85.7 E49.30458
G1 X56 Y85.7 E52.37252
G0 F3000 X55.6 Y86.1
G1 F1500 X55.6 Y53.3 E53.85235
G1 X124.4 Y53.3 E56.95637
G1 X124.4 Y86.1 E58.4362
G1 X55.6 Y86.1 E61.54023
G0 F3000 X55.2 Y86.5
;TYPE:WALL-OUTER
G1 F1500 X55.2 Y52.9 E63.05615
G1 X124.8 Y52.9 E66.19628
G1 X124.8 Y86.5 E67.7122
G1 X55.2 Y86.5 E70.85232
G0 F3000 X55.2 Y86.3
G0 X55.64 Y86.06
G1 F2400 E69.65232
G0 F3000 X56.39 Y85.31
;TYPE:SKIN
G1 F2400 E70.85232
G1 F1500 X56.39 Y54.09 E72.28778
G1 X123.61 Y54.09 E75.37848
G1 X123.61 Y85.31 E76.81393
G1 X56.39 Y85.31 E79.90463
G0 F3000 X56.845 Y85.129
G1 F1500 X56.569 Y84.854 E79.92254
G0 F3000 X56.569 Y84.288
G1 F1500 X57.41 Y85.129 E79.97723
G0 F3000 X57.976 Y85.129
G1 F1500 X56.569 Y83.722 E80.06872
G0 F3000 X56.569 Y83.157
G1 F1500 X58.542 Y85.129 E80.19698
G0 F3000 X59.107 Y85.129
G1 F1500 X56.569 Y82.591 E80.36201
G0 F3000 X56.569 Y82.025
G1 F1500 X59.673 Y85.129 E80.56384
G0 F3000 X60.239 Y85.129
G1 F1500 X56.569 Y81.46 E80.80245
G0 F3000 X56.569 Y80.894
G1 F1500 X60.804 Y85.129 E81.07782
G0 F3000 X61.37 Y85.129
G1 F1500 X56.569 Y80.328 E81.39
G0 F3000 X56.569 Y79.763
G1 F1500 X61.936 Y85.129 E81.73895
G0 F3000 X62.501 Y85.129
G1 F1500 X56.569 Y79.197 E82.12467
G0 F3000 X56.569 Y78.631
G1 F1500 X63.067 Y85.129 E82.5472
G0 F3000 X63.633 Y85.129
G1 F1500 X56.569 Y78.066 E83.00649
G0 F3000 X56.569 Y77.5
G1 F1500 X64.198 Y85.129 E83.50256
G0 F3000 X64.764 Y85.129
G1 F1500 X56.569 Y76.934 E84.03543
G0 F3000 X56.569 Y76.368
G1 F1500 X65.33 Y85.129 E84.60511
G0 F3000 X65.895 Y85.129
G1 F1500 X56.569 Y75.803 E85.21152
G0 F3000 X56.569 Y75.237
G1 F1500 X66.461 Y85.129 E85.85473
G0 F3000 X67.027 Y85.129
G1 F1500 X56.569 Y74.671 E86.53475
G0 F3000 X56.569 Y74.106
G1 F1500 X67.593 Y85.129 E87.25154
G0 F3000 X68.158 Y85.129
G1 F1500 X56.569 Y73.54 E88.00511
G0 F3000 X56.569 Y72.974
G1 F1500 X68.724 Y85.129 E88.79547
G0 F3000 X69.29 Y85.129
G1 F1500 X56.569 Y72.409 E89.62261
G0 F3000 X56.569 Y71.843
G1 F1500 X69.855 Y85.129 E90.48651
G0 F3000 X70.421 Y85.129
G1 F1500 X56.569 Y71.277 E91.38722
G0 F3000 X56.569 Y70.712
G1 F1500 X70.987 Y85.129 E92.32471
G0 F3000 X71.552 Y85.129
G1 F1500 X56.569 Y70.146 E93.29896
G0 F3000 X56.569 Y69.58
G1 F1500 X72.118 Y85.129 E94.31001
G0 F3000 X72.684 Y85.129
G1 F1500 X56.569 Y69.014 E95.35787
G0 F3000 X56.569 Y68.448
G1 F1500 X73.249 Y85.129 E96.4425
G0 F3000 X73.815 Y85.129
G1 F1500 X56.569 Y67.882 E97.56394
G0 F3000 X56.569 Y67.317
G1 F1500 X74.381 Y85.129 E98.72214
G0 F3000 X74.946 Y85.129
G1 F1500 X56.569 Y66.751 E99.91712
G0 F3000 X56.569 Y66.185
G1 F1500 X75.512 Y85.129 E101.1489
G0 F3000 X76.078 Y85.129
G1 F1500 X56.569 Y65.62 E102.41745
G0 F3000 X56.569 Y65.054
G1 F1500 X76.644 Y85.129 E103.7228
G0 F3000 X77.209 Y85.129
G1 F1500 X56.569 Y64.488 E105.06493
G0 F3000 X56.569 Y63.923
G1 F1500 X77.775 Y85.129 E106.44382
G0 F3000 X78.341 Y85.129
G1 F1500 X56.569 Y63.357 E107.85952
G0 F3000 X56.569 Y62.791
G1 F1500 X78.906 Y85.129 E109.31199
G0 F3000 X79.472 Y85.129
G1 F1500 X56.569 Y62.226 E110.80124
G0 F3000 X56.569 Y61.66
G1 F1500 X80.038 Y85.129 E112.32728
G0 F3000 X80.603 Y85.129
G1 F1500 X56.569 Y61.094 E113.8901
G0 F3000 X56.569 Y60.529
G1 F1500 X81.169 Y85.129 E115.48968
G0 F3000 X81.735 Y85.129
G1 F1500 X56.569 Y59.963 E117.12607
G0 F3000 X56.569 Y59.397
G1 F1500 X82.3 Y85.129 E118.79923
G0 F3000 X82.866 Y85.129
G1 F1500 X56.569 Y58.831 E120.5092
G0 F3000 X56.569 Y58.266
G1 F1500 X83.432 Y85.129 E122.25594
G0 F3000 X83.997 Y85.129
G1 F1500 X56.569 Y57.7 E124.03944
G0 F3000 X56.569 Y57.134
G1 F1500 X84.563 Y85.129 E125.85975
G0 F3000 X85.129 Y85.129
G1 F1500 X56.569 Y56.569 E127.71683
G0 F3000 X56.569 Y56.003
G1 F1500 X85.694 Y85.129 E129.61069
G0 F3000 X86.26 Y85.129
G1 F1500 X56.569 Y55.437 E131.54134
G0 F3000 X56.569 Y54.872
G1 F1500 X86.826 Y85.129 E133.50877
G0 F3000 X87.392 Y85.129
G1 F1500 X56.569 Y54.306 E135.513
G0 F3000 X57.098 Y54.269
G1 F1500 X87.957 Y85.129 E137.5196
G0 F3000 X88.523 Y85.129
G1 F1500 X57.663 Y54.269 E139.52624
G0 F3000 X58.229 Y54.269
G1 F1500 X89.089 Y85.129 E141.53288
G0 F3000 X89.654 Y85.129
G1 F1500 X58.795 Y54.269 E143.53948
G0 F3000 X59.36 Y54.269
G1 F1500 X90.22 Y85.129 E145.54612
G0 F3000 X90.786 Y85.129
G1 F1500 X59.926 Y54.269 E147.55275
G0 F3000 X60.492 Y54.269
G1 F1500 X91.351 Y85.129 E149.55936
G0 F3000 X91.917 Y85.129
G1 F1500 X61.057 Y54.269 E151.56599
G0 F3000 X61.623 Y54.269
G1 F1500 X92.483 Y85.129 E153.57263
G0 F3000 X93.048 Y85.129
G1 F1500 X62.189 Y54.269 E155.57923
G0 F3000 X62.755 Y54.269
G1 F1500 X93.614 Y85.129 E157.58584
G0 F3000 X94.18 Y85.129
G1 F1500 X63.32 Y54.269 E159.59247
G0 F3000 X63.886 Y54.269
G1 F1500 X94.745 Y85.129 E161.59908
G0 F3000 X95.311 Y85.129
G1 F1500 X64.452 Y54.269 E163.60568
G0 F3000 X65.017 Y54.269
G1 F1500 X95.877 Y85.129 E165.61232
G0 F3000 X96.443 Y85.129
G1 F1500 X65.583 Y54.269 E167.61895
