;FLAVOR:Marlin
;TIME:1791
;Filament used: 3.04671m
;Layer height: 0.3
;MINX:51
;MINY:53.8
;MINZ:0.3
;MAXX:129
;MAXY:113.856
;MAXZ:9.6
;Generated with Cura_SteamEngine 4.12.1
M82 ;absolute extrusion mode
G21 ;metric values
G90 ;absolute positioning
M82 ;set extruder to absolute mode
M107 ;start with the fan off

M104 S200 T0 ; start heating T0 to what is set in Cura
M140 S60 ; start heating the bed to what is set in Cura
M190 S60 ; start heating the bed to what is set in Cura
M109 S200 T0 ; start heating T0 to what is set in Cura

G28 X0 Y0 ;move X/Y to min endstops
G28 Z0 ;move Z to min endstops
G1 Z15.0 F2400 ;move the platform down 15mm
G92 E0 ;zero the extruded length
G1 F200 E3 ;extrude 3mm of feed stock
G92 E0 ;zero the extruded length again
G1 F2400
G0 Y20 F2400
M117 Printing...
G5
G92 E0
G92 E0
G1 F2400 E-1.2
;LAYER_COUNT:32
;LAYER:0
M107
G0 F3000 X52.406 Y54.772 Z0.3
;TYPE:SKIRT
G1 F2400 E0
G1 F1500 X52.86 Y54.435 E0.02551
G1 X53.357 Y54.166 E0.05101
G1 X53.887 Y53.969 E0.07652
G1 X54.44 Y53.85 E0.10204
G1 X55.218 Y53.802 E0.1372
G1 X55.33 Y53.8 E0.14226
G1 X124.35 Y53.8 E3.25621
G1 X125.048 Y53.81 E3.28771
G1 X125.612 Y53.858 E3.31325
G1 X126.162 Y53.985 E3.33871
G1 X126.69 Y54.189 E3.36425
G1 X127.184 Y54.464 E3.38976
G1 X127.633 Y54.807 E3.41525
G1 X128.03 Y55.209 E3.44074
G1 X128.367 Y55.664 E3.46629
G1 X128.635 Y56.161 E3.49176
G1 X128.831 Y56.691 E3.51726
G1 X128.951 Y57.244 E3.54279
G1 X128.998 Y58.018 E3.57777
G1 X129 Y58.13 E3.58283
G1 X129 Y91.119 E5.07118
G1 X128.99 Y91.847 E5.10403
G1 X128.942 Y92.41 E5.12952
G1 X128.815 Y92.961 E5.15503
G1 X128.612 Y93.489 E5.18055
G1 X128.337 Y93.983 E5.20606
G1 X127.995 Y94.433 E5.23156
G1 X127.592 Y94.83 E5.25709
G1 X127.138 Y95.166 E5.28257
G1 X126.641 Y95.435 E5.30807
G1 X125.941 Y95.689 E5.34166
G1 X123.368 Y96.559 E5.4642
G1 X120.831 Y97.498 E5.58625
G1 X118.296 Y98.519 E5.70955
G1 X115.781 Y99.615 E5.83333
G1 X113.354 Y100.755 E5.9543
G1 X110.919 Y101.985 E6.07738
G1 X108.531 Y103.277 E6.19988
G1 X106.224 Y104.611 E6.32011
G1 X103.87 Y106.062 E6.44487
G1 X101.587 Y107.56 E6.56807
G1 X99.388 Y109.094 E6.68903
G1 X97.187 Y110.724 E6.8126
G1 X95.053 Y112.399 E6.935
G1 X94.628 Y112.744 E6.95969
G1 X93.946 Y113.19 E6.99646
G1 X93.453 Y113.441 E7.02142
G1 X92.927 Y113.649 E7.04694
G1 X92.378 Y113.781 E7.07241
G1 X91.8 Y113.835 E7.0986
G1 X90.728 Y113.856 E7.14698
G1 X89.418 Y113.854 E7.20608
G1 X88.948 Y113.856 E7.22728
G1 X88.266 Y113.846 E7.25806
G1 X87.703 Y113.797 E7.28355
G1 X87.152 Y113.67 E7.30907
G1 X86.608 Y113.459 E7.33539
G1 X85.96 Y113.142 E7.36794
G1 X85.032 Y112.628 E7.4158
G1 X82.595 Y111.322 E7.54054
G1 X80.141 Y110.095 E7.66433
G1 X77.695 Y108.958 E7.78602
G1 X75.216 Y107.89 E7.9078
G1 X73.952 Y107.394 E7.96906
G1 X73.822 Y107.332 E7.97556
G1 X72.753 Y106.902 E8.02755
G1 X72.533 Y106.805 E8.0384
G1 X71.993 Y106.549 E8.06536
G1 X71.422 Y106.219 E8.09511
G1 X71.27 Y106.111 E8.10352
G1 X69.243 Y104.623 E8.21697
G1 X66.971 Y103.051 E8.34162
G1 X64.703 Y101.574 E8.46373
G1 X62.38 Y100.155 E8.58654
G1 X60.039 Y98.813 E8.70829
G1 X57.67 Y97.543 E8.82956
G1 X54.182 Y95.823 E9.00502
G1 X53.308 Y95.412 E9.04859
G1 X52.815 Y95.136 E9.07408
G1 X52.365 Y94.793 E9.09961
G1 X51.969 Y94.39 E9.1251
G1 X51.633 Y93.936 E9.15058
G1 X51.364 Y93.438 E9.17612
G1 X51.169 Y92.908 E9.2016
G1 X51.05 Y92.355 E9.22712
G1 X51.002 Y91.594 E9.26152
G1 X51 Y91.47 E9.26712
G1 X51 Y58.42 E10.75822
G1 X51.009 Y57.755 E10.78823
G1 X51.057 Y57.192 E10.81372
G1 X51.183 Y56.641 E10.83922
G1 X51.386 Y56.113 E10.86475
G1 X51.662 Y55.619 E10.89028
G1 X52.004 Y55.169 E10.91578
G1 X52.406 Y54.772 E10.94127
G0 F3000 X52.794 Y54.971
G1 F1500 X53.241 Y54.673 E10.9655
G1 X53.726 Y54.445 E10.98968
G1 X54.24 Y54.292 E11.01388
G1 X54.908 Y54.21 E11.04424
G1 X55.33 Y54.2 E11.06329
G1 X124.345 Y54.2 E14.17702
G1 X125.043 Y54.21 E14.20851
G1 X125.577 Y54.258 E14.2327
G1 X126.098 Y54.384 E14.25689
G1 X126.595 Y54.587 E14.28111
G1 X127.056 Y54.861 E14.3053
G1 X127.471 Y55.2 E14.32948
G1 X127.831 Y55.598 E14.35369
G1 X128.128 Y56.044 E14.37787
G1 X128.356 Y56.53 E14.40209
G1 X128.508 Y57.044 E14.42627
G1 X128.59 Y57.709 E14.4565
G1 X128.6 Y58.13 E14.4755
G1 X128.6 Y91.113 E15.96358
G1 X128.59 Y91.841 E15.99643
G1 X128.542 Y92.376 E16.02066
G1 X128.416 Y92.897 E16.04485
G1 X128.214 Y93.394 E16.06905
G1 X127.94 Y93.855 E16.09325
G1 X127.601 Y94.27 E16.11742
G1 X127.204 Y94.631 E16.14163
G1 X126.758 Y94.928 E16.16581
G1 X126.103 Y95.216 E16.19809
G1 X125.817 Y95.309 E16.21166
G1 X123.238 Y96.181 E16.33449
G1 X120.679 Y97.128 E16.45759
G1 X118.136 Y98.152 E16.58128
G1 X115.63 Y99.244 E16.70461
G1 X113.169 Y100.4 E16.82728
G1 X110.742 Y101.626 E16.94995
G1 X108.347 Y102.922 E17.07281
G1 X105.994 Y104.282 E17.19543
G1 X103.663 Y105.719 E17.31897
G1 X101.368 Y107.224 E17.4428
G1 X99.143 Y108.777 E17.56521
G1 X96.97 Y110.386 E17.6872
G1 X94.755 Y112.125 E17.81426
G1 X94.376 Y112.433 E17.83629
G1 X93.762 Y112.835 E17.8694
G1 X93.28 Y113.08 E17.89379
G1 X92.78 Y113.276 E17.91802
G1 X92.257 Y113.396 E17.94223
G1 X91.792 Y113.435 E17.96329
G1 X90.728 Y113.456 E18.0113
G1 X89.416 Y113.454 E18.07049
G1 X88.954 Y113.456 E18.09134
G1 X88.272 Y113.446 E18.12211
G1 X87.738 Y113.398 E18.1463
G1 X87.217 Y113.271 E18.17049
G1 X86.352 Y112.894 E18.21307
G1 X86.154 Y112.792 E18.22311
G1 X85.201 Y112.264 E18.27227
G1 X82.784 Y110.969 E18.39598
G1 X80.323 Y109.739 E18.52011
G1 X77.872 Y108.599 E18.64207
G1 X75.367 Y107.519 E18.76514
G1 X74.098 Y107.022 E18.82663
G1 X73.972 Y106.961 E18.83294
G1 X72.902 Y106.531 E18.88497
G1 X72.704 Y106.444 E18.89473
G1 X72.164 Y106.188 E18.92169
G1 X71.65 Y105.89 E18.9485
G1 X71.507 Y105.789 E18.95639
G1 X69.462 Y104.287 E19.07087
G1 X67.212 Y102.731 E19.19429
G1 X64.909 Y101.231 E19.31829
G1 X62.582 Y99.809 E19.44133
G1 X60.248 Y98.471 E19.56271
G1 X57.833 Y97.177 E19.68632
G1 X54.372 Y95.47 E19.86043
G1 X53.478 Y95.05 E19.90499
G1 X53.012 Y94.786 E19.92916
G1 X52.589 Y94.456 E19.95336
G1 X52.22 Y94.067 E19.97755
G1 X51.913 Y93.627 E20.00176
G1 X51.675 Y93.147 E20.02593
G1 X51.51 Y92.636 E20.05016
G1 X51.412 Y91.904 E20.08348
G1 X51.4 Y91.47 E20.10306
G1 X51.4 Y58.425 E21.59395
G1 X51.409 Y57.76 E21.62395
G1 X51.457 Y57.226 E21.64814
G1 X51.583 Y56.705 E21.67232
G1 X51.785 Y56.208 E21.69653
G1 X52.058 Y55.747 E21.7207
G1 X52.397 Y55.331 E21.74491
G1 X52.794 Y54.971 E21.76909
G0 F3000 X52.789 Y55.504
G1 F1500 X53.18 Y55.183 E21.79191
G1 X53.617 Y54.928 E21.81474
G1 X54.088 Y54.744 E21.83755
G1 X54.582 Y54.638 E21.86035
G1 X55.24 Y54.601 E21.89008
G1 X124.339 Y54.6 E25.0076
G1 X125.037 Y54.61 E25.0391
G1 X125.54 Y54.657 E25.06189
G1 X126.03 Y54.783 E25.08472
G1 X126.494 Y54.985 E25.10755
G1 X126.92 Y55.257 E25.13035
G1 X127.298 Y55.592 E25.15314
G1 X127.618 Y55.983 E25.17593
G1 X127.873 Y56.42 E25.19876
G1 X128.056 Y56.891 E25.22156
G1 X128.163 Y57.385 E25.24436
G1 X128.199 Y58.04 E25.27396
G1 X128.2 Y91.108 E26.76588
G1 X128.19 Y91.836 E26.79873
G1 X128.143 Y92.339 E26.82152
G1 X128.017 Y92.829 E26.84435
G1 X127.816 Y93.293 E26.86716
G1 X127.545 Y93.719 E26.88994
G1 X127.209 Y94.098 E26.91279
G1 X126.818 Y94.418 E26.93559
G1 X126.382 Y94.673 E26.95837
G1 X125.694 Y94.928 E26.99148
G1 X123.107 Y95.803 E27.11469
G1 X120.508 Y96.765 E27.23972
G1 X117.993 Y97.777 E27.36203
G1 X115.465 Y98.879 E27.48645
G1 X113.01 Y100.032 E27.60882
G1 X110.579 Y101.261 E27.73172
G1 X108.136 Y102.582 E27.85702
G1 X105.789 Y103.938 E27.97931
G1 X103.439 Y105.388 E28.1039
G1 X101.142 Y106.895 E28.22784
G1 X98.922 Y108.443 E28.34995
G1 X96.708 Y110.083 E28.47426
G1 X94.508 Y111.81 E28.60044
G1 X94.124 Y112.122 E28.62276
G1 X93.578 Y112.48 E28.65222
G1 X93.106 Y112.72 E28.67611
G1 X92.635 Y112.902 E28.69889
G1 X92.14 Y113.008 E28.72173
G1 X91.784 Y113.035 E28.73784
G1 X90.728 Y113.056 E28.78549
G1 X89.415 Y113.054 E28.84473
G1 X88.96 Y113.056 E28.86526
G1 X88.278 Y113.046 E28.89603
G1 X87.775 Y112.998 E28.91883
G1 X87.285 Y112.872 E28.94165
G1 X86.524 Y112.533 E28.97924
G1 X86.348 Y112.442 E28.98818
G1 X85.409 Y111.923 E29.03658
G1 X82.93 Y110.594 E29.16349
G1 X80.521 Y109.39 E29.28499
G1 X78.034 Y108.234 E29.40873
G1 X75.502 Y107.142 E29.53313
G1 X74.243 Y106.649 E29.59414
G1 X74.132 Y106.595 E29.5997
G1 X73.051 Y106.16 E29.65228
G1 X72.875 Y106.083 E29.66094
G1 X72.335 Y105.827 E29.68791
G1 X71.879 Y105.562 E29.7117
G1 X71.743 Y105.466 E29.71921
G1 X69.687 Y103.956 E29.8343
G1 X67.412 Y102.383 E29.95909
G1 X65.155 Y100.913 E30.08061
G1 X62.784 Y99.464 E30.20597
G1 X60.429 Y98.114 E30.32844
G1 X58.02 Y96.823 E30.45175
G1 X54.541 Y95.107 E30.62677
G1 X53.649 Y94.688 E30.67123
G1 X53.21 Y94.437 E30.69405
G1 X52.815 Y94.121 E30.71687
G1 X52.476 Y93.746 E30.73968
G1 X52.2 Y93.323 E30.76246
G1 X51.994 Y92.861 E30.78529
G1 X51.863 Y92.373 E30.80808
G1 X51.802 Y91.569 E30.84446
G1 X51.8 Y91.47 E30.84893
G1 X51.8 Y58.431 E32.33954
G1 X51.809 Y57.766 E32.36955
G1 X51.856 Y57.262 E32.39238
G1 X51.982 Y56.773 E32.41517
G1 X52.183 Y56.309 E32.43798
G1 X52.454 Y55.882 E32.4608
G1 X52.789 Y55.504 E32.48358
G1 F2400 E31.28358
;MESH:pp_case_top_v3.stl
G0 F3000 X56 Y58.8
;TYPE:WALL-INNER
G1 F2400 E32.48358
G1 F1500 X124 Y58.8 E35.55152
G1 X124 Y90.8 E36.99525
G1 X56 Y90.8 E40.06319
G1 X56 Y58.8 E41.50693
G0 F3000 X55.6 Y58.4
G1 F1500 X124.4 Y58.4 E44.61096
G1 X124.4 Y91.2 E46.09078
G1 X55.6 Y91.2 E49.19481
G1 X55.6 Y58.4 E50.67464
G0 F3000 X55.2 Y58
;TYPE:WALL-OUTER
G1 F1500 X124.8 Y58 E53.81476
G1 X124.8 Y91.6 E55.33069
G1 X55.2 Y91.6 E58.47081
G1 X55.2 Y58 E59.98673
G0 F3000 X55.4 Y58
G0 X55.64 Y58.44
G1 F2400 E58.78673
G0 F3000 X56.39 Y59.19
;TYPE:SKIN
G1 F2400 E59.98673
G1 F1500 X123.61 Y59.19 E63.07742
G1 X123.61 Y90.41 E64.51288
G1 X56.39 Y90.41 E67.60358
G1 X56.39 Y59.19 E69.03904
G1 F2400 E67.83904
G0 F3000 X56.854 Y90.229
G1 F2400 E69.03904
G1 F1500 X56.569 Y89.945 E69.05754
G0 F3000 X56.569 Y89.379
G1 F1500 X57.419 Y90.229 E69.11281
G0 F3000 X57.985 Y90.229
G1 F1500 X56.569 Y88.814 E69.20485
G0 F3000 X56.569 Y88.248
G1 F1500 X58.551 Y90.229 E69.33369
G0 F3000 X59.116 Y90.229
G1 F1500 X56.569 Y87.682 E69.49931
G0 F3000 X56.569 Y87.116
G1 F1500 X59.682 Y90.229 E69.70173
G0 F3000 X60.248 Y90.229
G1 F1500 X56.569 Y86.551 E69.94092
G0 F3000 X56.569 Y85.985
G1 F1500 X60.814 Y90.229 E70.21691
G0 F3000 X61.379 Y90.229
G1 F1500 X56.569 Y85.419 E70.52968
G0 F3000 X56.569 Y84.854
G1 F1500 X61.945 Y90.229 E70.87921
G0 F3000 X62.511 Y90.229
G1 F1500 X56.569 Y84.288 E71.26555
G0 F3000 X56.569 Y83.722
G1 F1500 X63.076 Y90.229 E71.68866
G0 F3000 X63.642 Y90.229
G1 F1500 X56.569 Y83.157 E72.14854
G0 F3000 X56.569 Y82.591
G1 F1500 X64.208 Y90.229 E72.64523
G0 F3000 X64.773 Y90.229
G1 F1500 X56.569 Y82.025 E73.17868
G0 F3000 X56.569 Y81.46
G1 F1500 X65.339 Y90.229 E73.74891
G0 F3000 X65.905 Y90.229
G1 F1500 X56.569 Y80.894 E74.35594
G0 F3000 X56.569 Y80.328
G1 F1500 X66.47 Y90.229 E74.99974
G0 F3000 X67.036 Y90.229
G1 F1500 X56.569 Y79.763 E75.68031
G0 F3000 X56.569 Y79.197
G1 F1500 X67.602 Y90.229 E76.39769
G0 F3000 X68.167 Y90.229
G1 F1500 X56.569 Y78.631 E77.15184
G0 F3000 X56.569 Y78.066
G1 F1500 X68.733 Y90.229 E77.94275
G0 F3000 X69.299 Y90.229
G1 F1500 X56.569 Y77.5 E78.77048
G0 F3000 X56.569 Y76.934
G1 F1500 X69.864 Y90.229 E79.63497
G0 F3000 X70.43 Y90.229
G1 F1500 X56.569 Y76.368 E80.53626
G0 F3000 X56.569 Y75.803
G1 F1500 X70.996 Y90.229 E81.47433
G0 F3000 X71.562 Y90.229
G1 F1500 X56.569 Y75.237 E82.4492
G0 F3000 X56.569 Y74.671
G1 F1500 X72.127 Y90.229 E83.46084
G0 F3000 X72.693 Y90.229
G1 F1500 X56.569 Y74.106 E84.50925
G0 F3000 X56.569 Y73.54
G1 F1500 X73.259 Y90.229 E85.59447
G0 F3000 X73.824 Y90.229
G1 F1500 X56.569 Y72.974 E86.71646
G0 F3000 X56.569 Y72.409
G1 F1500 X74.39 Y90.229 E87.87521
G0 F3000 X74.956 Y90.229
G1 F1500 X56.569 Y71.843 E89.07077
G0 F3000 X56.569 Y71.277
G1 F1500 X75.521 Y90.229 E90.30311
G0 F3000 X76.087 Y90.229
G1 F1500 X56.569 Y70.712 E91.57221
G0 F3000 X56.569 Y70.146
G1 F1500 X76.653 Y90.229 E92.87812
G0 F3000 X77.218 Y90.229
G1 F1500 X56.569 Y69.58 E94.22079
G0 F3000 X56.569 Y69.015
G1 F1500 X77.784 Y90.229 E95.60024
G0 F3000 X78.35 Y90.229
G1 F1500 X56.569 Y68.449 E97.0165
G0 F3000 X56.569 Y67.883
G1 F1500 X78.915 Y90.229 E98.46952
G0 F3000 X79.481 Y90.229
G1 F1500 X56.569 Y67.317 E99.95934
G0 F3000 X56.569 Y66.752
G1 F1500 X80.047 Y90.229 E101.48594
G0 F3000 X80.613 Y90.229
G1 F1500 X56.569 Y66.186 E103.04934
G0 F3000 X56.569 Y65.62
G1 F1500 X81.178 Y90.229 E104.64952
G0 F3000 X81.744 Y90.229
G1 F1500 X56.569 Y65.055 E106.28646
G0 F3000 X56.569 Y64.489
G1 F1500 X82.31 Y90.229 E107.96021
G0 F3000 X82.875 Y90.229
G1 F1500 X56.569 Y63.923 E109.67072
G0 F3000 X56.569 Y63.358
G1 F1500 X83.441 Y90.229 E111.41801
G0 F3000 X84.007 Y90.229
G1 F1500 X56.569 Y62.792 E113.2021
G0 F3000 X56.569 Y62.226
G1 F1500 X84.572 Y90.229 E115.02297
G0 F3000 X85.138 Y90.229
G1 F1500 X56.569 Y61.661 E116.8806
G0 F3000 X56.569 Y61.095
G1 F1500 X85.704 Y90.229 E118.77504
G0 F3000 X86.269 Y90.229
G1 F1500 X56.569 Y60.529 E120.70625
G0 F3000 X56.569 Y59.964
G1 F1500 X86.835 Y90.229 E122.67423
G0 F3000 X87.401 Y90.229
G1 F1500 X56.569 Y59.398 E124.67901
G0 F3000 X57.106 Y59.369
G1 F1500 X87.966 Y90.229 E126.68565
G0 F3000 X88.532 Y90.229
G1 F1500 X57.672 Y59.369 E128.69228
G0 F3000 X58.238 Y59.369
G1 F1500 X89.098 Y90.229 E130.69892
G0 F3000 X89.663 Y90.229
G1 F1500 X58.803 Y59.369 E132.70555
G0 F3000 X59.369 Y59.369
G1 F1500 X90.229 Y90.229 E134.71219
G0 F3000 X90.795 Y90.229
G1 F1500 X59.935 Y59.369 E136.71883
G0 F3000 X60.5 Y59.369
G1 F1500 X91.361 Y90.229 E138.7255
G0 F3000 X91.926 Y90.229
G1 F1500 X61.066 Y59.369 E140.73213
G0 F3000 X61.632 Y59.369
G1 F1500 X92.492 Y90.229 E142.73877
G0 F3000 X93.058 Y90.229
G1 F1500 X62.197 Y59.369 E144.74544
G0 F3000 X62.763 Y59.369
G1 F1500 X93.623 Y90.229 E146.75207
G0 F3000 X94.189 Y90.229
G1 F1500 X63.329 Y59.369 E148.75871
G0 F3000 X63.894 Y59.369
G1 F1500 X94.755 Y90.229 E150.76538
G0 F3000 X95.32 Y90.229
G1 F1500 X64.46 Y59.369 E152.77201
G0 F3000 X65.026 Y59.369
G1 F1500 X95.886 Y90.229 E154.77865
G0 F3000 X96.452 Y90.229
G1 F1500 X65.591 Y59.369 E156.78532
G0 F3000 X66.157 Y59.369
G1 F1500 X97.017 Y90.229 E158.79196
G0 F3000 X97.583 Y90.229
G1 F1500 X66.723 Y59.369 E160.79859
G0 F3000 X67.288 Y59.369
G1 F1500 X98.149 Y90.229 E162.80526
G0 F3000 X98.714 Y90.229
G1 F1500 X67.854 Y59.369 E164.8119
G0 F3000 X68.42 Y59.369
G1 F1500 X99.28 Y90.229 E166.81853
G0 F3000 X99.846 Y90.229
G1 F1500 X68.986 Y59.369 E168.82517
G0 F3000 X69.551 Y59.369
G1 F1500 X100.411 Y90.229 E170.83181
G0 F3000 X100.977 Y90.229
G1 F1500 X70.117 Y59.369 E172.83844
G0 F3000 X70.683 Y59.369
G1 F1500 X101.543 Y90.229 E174.84508
G0 F3000 X102.109 Y90.229
G1 F1500 X71.248 Y59.369 E176.85175
G0 F3000 X71.814 Y59.369
G1 F1500 X102.674 Y90.229 E178.85838
G0 F3000 X103.24 Y90.229
G1 F1500 X72.38 Y59.369 E180.86502
G0 F3000 X72.945 Y59.369
G1 F1500 X103.806 Y90.229 E182.87169
G0 F3000 X104.371 Y90.229
G1 F1500 X73.511 Y59.369 E184.87832
G0 F3000 X74.077 Y59.369
G1 F1500 X104.937 Y90.229 E186.88496
G0 F3000 X105.503 Y90.229
G1 F1500 X74.642 Y59.369 E188.89163
G0 F3000 X75.208 Y59.369
G1 F1500 X106.068 Y90.229 E190.89827
G0 F3000 X106.634 Y90.229
G1 F1500 X75.774 Y59.369 E192.9049
G0 F3000 X76.339 Y59.369
G1 F1500 X107.2 Y90.229 E194.91157
G0 F3000 X107.765 Y90.229
G1 F1500 X76.905 Y59.369 E196.91821
G0 F3000 X77.471 Y59.369
G1 F1500 X108.331 Y90.229 E198.92484
G0 F3000 X108.897 Y90.229
G1 F1500 X78.037 Y59.369 E200.93148
G0 F3000 X78.602 Y59.369
G1 F1500 X109.462 Y90.229 E202.93812
G0 F3000 X110.028 Y90.229
G1 F1500 X79.168 Y59.369 E204.94475
G0 F3000 X79.734 Y59.369
G1 F1500 X110.594 Y90.229 E206.95139
G0 F3000 X111.16 Y90.229
G1 F1500 X80.299 Y59.369 E208.95806
G0 F3000 X80.865 Y59.369
G1 F1500 X111.725 Y90.229 E210.96469
G0 F3000 X112.291 Y90.229
G1 F1500 X81.431 Y59.369 E212.97133
G0 F3000 X81.996 Y59.369
G1 F1500 X112.857 Y90.229 E214.978
G0 F3000 X113.422 Y90.229
G1 F1500 X82.562 Y59.369 E216.98463
G0 F3000 X83.128 Y59.369
G1 F1500 X113.988 Y90.229 E218.99127
G0 F3000 X114.554 Y90.229
G1 F1500 X83.693 Y59.369 E220.99794
G0 F3000 X84.259 Y59.369
G1 F1500 X115.119 Y90.229 E223.00458
