;FLAVOR:Marlin
;TIME:1346
;Filament used: 2.23766m
;Layer height: 0.3
;MINX:73.45
;MINY:80.61
;MINZ:0.3
;MAXX:136.549
;MAXY:129.4
;MAXZ:15.9
;Generated with Cura_SteamEngine 4.4.1
M82 ;absolute extrusion mode
G21 ;metric values
G90 ;absolute positioning
M82 ;set extruder to absolute mode
M107 ;start with the fan off

M104 S200 T0 ; start heating T0 to what is set in Cura
M140 S60 ; start heating the bed to what is set in Cura
M190 S60 ; start heating the bed to what is set in Cura
M109 S200 T0 ; start heating T0 to what is set in Cura

G28 X0 Y0 ;move X/Y to min endstops
G28 Z0 ;move Z to min endstops
G1 Z15.0 F2400 ;move the platform down 15mm
G92 E0 ;zero the extruded length
G1 F200 E3 ;extrude 3mm of feed stock
G92 E0 ;zero the extruded length again
G1 F2400
G0 Y20 F2400
M117 Printing...
G5
G92 E0
G92 E0
G1 F2400 E-6
;LAYER_COUNT:53
;LAYER:0
M106 S255
M204 S3000
M205 X10 Y10
G1 F600 Z0.375
G0 F3000 X76.584 Y98.553 Z0.375
M204 S1800
M205 X8 Y8
;TYPE:SKIRT
G1 F600 Z0.3
G1 F2400 E0
G1 X77.034 Y98.226 E0.03885
G1 X78.119 Y97.508 E0.12973
G1 X80.337 Y95.998 E0.31714
G1 X82.496 Y94.436 E0.50327
G1 X84.597 Y92.825 E0.68819
G1 X86.638 Y91.166 E0.8719
G1 X88.655 Y89.428 E1.05786
G1 X90.612 Y87.644 E1.24282
G1 X92.513 Y85.81 E1.42732
G1 X94.368 Y83.918 E1.61239
G1 X94.688 Y83.57 E1.64541
G1 X94.77 Y83.482 E1.65381
G1 X95.429 Y82.793 E1.7204
G1 X95.951 Y82.305 E1.77031
G1 X96.803 Y81.704 E1.84314
G1 X97.093 Y81.533 E1.86665
G1 X97.729 Y81.205 E1.91664
G1 X98.397 Y80.949 E1.9666
G1 X99.089 Y80.77 E2.01653
G1 X100.056 Y80.652 E2.08457
G1 X100.766 Y80.62 E2.13421
G1 X100.965 Y80.615 E2.14811
G1 X101.253 Y80.611 E2.16823
G1 X101.342 Y80.61 E2.17445
G1 X102.032 Y80.61 E2.22264
G1 X102.701 Y80.645 E2.26943
G1 X103.415 Y80.72 E2.31958
G1 X103.524 Y80.732 E2.32724
G1 X104.941 Y80.906 E2.42695
G1 X107.596 Y81.156 E2.61321
G1 X110.188 Y81.326 E2.79465
G1 X112.87 Y81.427 E2.98211
G1 X115.51 Y81.451 E3.16651
G1 X118.154 Y81.4 E3.35122
G1 X120.794 Y81.275 E3.53582
G1 X123.463 Y81.072 E3.72277
G1 X126.074 Y80.799 E3.90614
G1 X126.261 Y80.775 E3.91931
G1 X126.369 Y80.762 E3.9269
G1 X127.145 Y80.675 E3.98144
G1 X127.66 Y80.638 E4.01751
G1 X128.339 Y80.617 E4.06496
G1 X128.516 Y80.614 E4.07732
G1 X129.429 Y80.611 E4.14109
G1 X130.27 Y80.664 E4.19995
G1 X130.448 Y80.687 E4.21248
G1 X131.151 Y80.818 E4.26243
G1 X131.835 Y81.027 E4.31239
G1 X132.723 Y81.432 E4.38056
G1 X132.942 Y81.553 E4.39803
G1 X133.198 Y81.702 E4.41872
G1 X133.294 Y81.761 E4.42659
G1 X133.882 Y82.169 E4.47658
G1 X134.42 Y82.64 E4.52652
G1 X134.902 Y83.169 E4.57651
G1 X135.486 Y84.015 E4.64831
G1 X135.647 Y84.294 E4.67081
G1 X135.97 Y84.933 E4.72082
G1 X136.219 Y85.603 E4.77074
G1 X136.391 Y86.297 E4.82068
G1 X136.502 Y87.354 E4.89492
G1 X136.525 Y88.411 E4.96876
G1 X136.527 Y88.545 E4.97812
G1 X136.549 Y118.525 E7.07211
G1 X136.548 Y118.612 E7.07819
G1 X136.539 Y119.314 E7.12723
G1 X136.527 Y119.642 E7.15015
G1 X136.495 Y120.14 E7.18501
G1 X136.478 Y120.347 E7.19951
G1 X136.435 Y120.791 E7.23067
G1 X136.279 Y121.705 E7.29543
G1 X136.129 Y122.314 E7.33924
G1 X136.081 Y122.499 E7.35259
G1 X135.99 Y122.826 E7.3763
G1 X135.627 Y123.81 E7.44955
G1 X135.453 Y124.184 E7.47836
G1 X135.361 Y124.372 E7.49298
G1 X135.181 Y124.728 E7.52085
G1 X134.824 Y125.347 E7.57076
G1 X134.468 Y125.837 E7.61306
G1 X134.033 Y126.381 E7.66171
G1 X133.556 Y126.914 E7.71167
G1 X133.18 Y127.26 E7.74736
G1 X132.92 Y127.481 E7.77119
G1 X132.189 Y128.018 E7.83455
G1 X131.791 Y128.269 E7.86741
G1 X131.166 Y128.617 E7.91738
G1 X130.505 Y128.892 E7.96738
G1 X129.801 Y129.096 E8.01858
G1 X129.446 Y129.177 E8.04401
G1 X129.213 Y129.225 E8.06063
G1 X128.986 Y129.268 E8.07676
G1 X128.277 Y129.362 E8.12672
G1 X127.916 Y129.379 E8.15196
G1 X126.961 Y129.397 E8.21867
G1 X126.841 Y129.398 E8.22706
G1 X102.528 Y129.4 E9.92523
G1 X102.436 Y129.399 E9.93166
G1 X101.735 Y129.389 E9.98062
G1 X101.007 Y129.337 E10.0316
G1 X100.519 Y129.274 E10.06597
G1 X99.815 Y129.143 E10.11598
G1 X99.028 Y128.896 E10.1736
G1 X98.643 Y128.747 E10.20243
G1 X98.205 Y128.558 E10.23575
G1 X95.624 Y127.331 E10.43536
G1 X93.152 Y126.234 E10.62426
G1 X90.743 Y125.245 E10.80614
G1 X88.259 Y124.306 E10.99162
G1 X85.728 Y123.43 E11.17869
G1 X83.286 Y122.662 E11.35749
G1 X79.637 Y121.649 E11.622
G1 X79.422 Y121.593 E11.63752
G1 X78.708 Y121.363 E11.68991
G1 X78.273 Y121.194 E11.72251
G1 X77.622 Y120.898 E11.77246
G1 X76.785 Y120.374 E11.84143
G1 X76.497 Y120.161 E11.86645
G1 X75.947 Y119.704 E11.9164
G1 X75.292 Y118.996 E11.98377
G1 X75.06 Y118.704 E12.00981
G1 X74.647 Y118.12 E12.05977
G1 X74.197 Y117.264 E12.12732
G1 X74.043 Y116.908 E12.15441
G1 X73.796 Y116.237 E12.20435
G1 X73.589 Y115.323 E12.26981
G1 X73.539 Y114.992 E12.29319
G1 X73.475 Y114.36 E12.33756
G1 X73.461 Y114.084 E12.35686
G1 X73.453 Y113.817 E12.37552
G1 X73.45 Y113.478 E12.3992
G1 X73.45 Y105.512 E12.95559
G1 X73.451 Y105.414 E12.96244
G1 X73.46 Y104.829 E13.0033
G1 X73.492 Y104.276 E13.04199
G1 X73.539 Y103.816 E13.07429
G1 X73.651 Y103.11 E13.12422
G1 X73.944 Y102.139 E13.19506
G1 X74.092 Y101.76 E13.22348
G1 X74.389 Y101.109 E13.27346
G1 X74.908 Y100.282 E13.34165
G1 X75.121 Y99.994 E13.36667
G1 X75.578 Y99.444 E13.41662
G1 X76.288 Y98.788 E13.48414
G1 X76.584 Y98.553 E13.51053
M204 S3000
M205 X10 Y10
G0 F3000 X76.932 Y98.991
M204 S1800
M205 X8 Y8
G1 F2400 X77.343 Y98.693 E13.54599
G1 X78.433 Y97.973 E13.63723
G1 X80.679 Y96.443 E13.82705
G1 X82.812 Y94.9 E14.01093
G1 X84.928 Y93.277 E14.19719
G1 X87.015 Y91.58 E14.38507
G1 X89.022 Y89.852 E14.57005
G1 X90.982 Y88.065 E14.7553
G1 X92.923 Y86.191 E14.94375
G1 X94.767 Y84.311 E15.12768
G1 X95.099 Y83.95 E15.16194
G1 X95.175 Y83.869 E15.1697
G1 X95.834 Y83.18 E15.23629
G1 X96.334 Y82.715 E15.28398
G1 X97.088 Y82.186 E15.34832
G1 X97.378 Y82.015 E15.37183
G1 X97.986 Y81.703 E15.41956
G1 X98.626 Y81.465 E15.46725
G1 X99.289 Y81.302 E15.51494
G1 X100.081 Y81.212 E15.57062
G1 X100.791 Y81.18 E15.62026
G1 X100.973 Y81.175 E15.63297
G1 X101.261 Y81.171 E15.65309
G1 X101.342 Y81.17 E15.65875
G1 X102.032 Y81.17 E15.70694
G1 X102.642 Y81.202 E15.74961
G1 X103.356 Y81.277 E15.79975
G1 X103.456 Y81.288 E15.80678
G1 X104.894 Y81.464 E15.90797
G1 X107.506 Y81.711 E16.09122
G1 X110.201 Y81.888 E16.27986
G1 X112.844 Y81.987 E16.46459
G1 X115.515 Y82.011 E16.65116
G1 X118.191 Y81.959 E16.83811
G1 X120.828 Y81.834 E17.0225
G1 X123.494 Y81.632 E17.20924
G1 X126.119 Y81.358 E17.39358
G1 X126.332 Y81.33 E17.40859
G1 X126.431 Y81.318 E17.41555
G1 X127.207 Y81.231 E17.47009
G1 X127.677 Y81.198 E17.503
G1 X128.356 Y81.177 E17.55045
G1 X128.518 Y81.174 E17.56177
G1 X129.431 Y81.171 E17.62554
G1 X130.198 Y81.219 E17.67921
G1 X130.376 Y81.242 E17.69175
G1 X131.048 Y81.369 E17.73952
G1 X131.7 Y81.574 E17.78726
G1 X132.452 Y81.922 E17.84513
G1 X132.671 Y82.043 E17.86261
G1 X132.905 Y82.18 E17.88155
G1 X133.001 Y82.239 E17.88942
G1 X133.561 Y82.63 E17.93712
G1 X134.072 Y83.084 E17.98487
G1 X134.526 Y83.594 E18.03256
G1 X135.001 Y84.295 E18.0917
G1 X135.162 Y84.574 E18.1142
G1 X135.469 Y85.185 E18.16196
G1 X135.701 Y85.827 E18.20964
G1 X135.858 Y86.492 E18.25736
G1 X135.943 Y87.366 E18.3187
G1 X135.966 Y88.423 E18.39254
G1 X135.967 Y88.546 E18.40113
G1 X135.989 Y118.526 E20.49513
G1 X135.989 Y118.605 E20.50064
G1 X135.98 Y119.307 E20.54968
G1 X135.968 Y119.606 E20.57058
G1 X135.936 Y120.104 E20.60544
G1 X135.921 Y120.293 E20.61868
G1 X135.878 Y120.737 E20.64984
G1 X135.736 Y121.571 E20.70893
G1 X135.586 Y122.18 E20.75273
G1 X135.541 Y122.349 E20.76495
G1 X135.45 Y122.676 E20.78866
G1 X135.119 Y123.573 E20.85544
G1 X134.945 Y123.947 E20.88425
G1 X134.862 Y124.119 E20.89759
G1 X134.682 Y124.475 E20.92545
G1 X134.338 Y125.066 E20.97321
G1 X134.031 Y125.487 E21.00961
G1 X133.596 Y126.031 E21.05826
G1 X133.139 Y126.539 E21.10598
G1 X132.817 Y126.834 E21.13649
G1 X132.557 Y127.055 E21.16032
G1 X131.89 Y127.545 E21.21813
G1 X131.492 Y127.796 E21.25099
G1 X130.894 Y128.126 E21.2987
G1 X130.261 Y128.384 E21.34644
G1 X129.676 Y128.55 E21.38892
G1 X129.321 Y128.631 E21.41435
G1 X129.109 Y128.675 E21.42947
G1 X128.882 Y128.718 E21.44561
G1 X127.905 Y128.819 E21.51421
G1 X126.95 Y128.837 E21.58093
G1 X126.84 Y128.838 E21.58861
G1 X102.527 Y128.84 E23.28678
G1 X102.444 Y128.839 E23.29258
G1 X101.743 Y128.829 E23.34155
G1 X101.078 Y128.782 E23.38811
G1 X100.59 Y128.719 E23.42248
G1 X99.919 Y128.592 E23.47018
G1 X99.23 Y128.373 E23.52067
G1 X98.845 Y128.224 E23.54951
G1 X98.445 Y128.052 E23.57992
G1 X95.843 Y126.815 E23.78115
G1 X93.385 Y125.724 E23.96899
G1 X90.946 Y124.722 E24.15316
G1 X88.452 Y123.78 E24.33937
G1 X85.912 Y122.901 E24.5271
G1 X83.426 Y122.12 E24.7091
G1 X79.818 Y121.117 E24.97067
G1 X79.562 Y121.051 E24.98913
G1 X78.911 Y120.841 E25.03691
G1 X78.476 Y120.672 E25.0695
G1 X77.855 Y120.387 E25.11723
G1 X77.118 Y119.923 E25.17806
G1 X76.83 Y119.71 E25.20308
G1 X76.306 Y119.273 E25.25073
G1 X75.731 Y118.648 E25.31005
G1 X75.499 Y118.356 E25.3361
G1 X75.106 Y117.797 E25.38383
G1 X74.711 Y117.042 E25.44334
G1 X74.557 Y116.686 E25.47043
G1 X74.323 Y116.044 E25.51816
G1 X74.143 Y115.239 E25.57578
G1 X74.093 Y114.908 E25.59916
G1 X74.034 Y114.332 E25.6396
G1 X74.02 Y114.056 E25.6589
G1 X74.013 Y113.812 E25.67595
G1 X74.01 Y113.473 E25.69963
G1 X74.01 Y105.512 E26.25568
G1 X74.011 Y105.422 E26.26196
G1 X74.02 Y104.837 E26.30283
G1 X74.049 Y104.333 E26.33809
G1 X74.096 Y103.873 E26.37039
G1 X74.205 Y103.199 E26.41807
G1 X74.466 Y102.343 E26.48058
G1 X74.614 Y101.964 E26.509
G1 X74.899 Y101.343 E26.55672
G1 X75.359 Y100.615 E26.61687
G1 X75.572 Y100.327 E26.64189
G1 X76.009 Y99.803 E26.68955
G1 X76.636 Y99.226 E26.74906
G1 X76.932 Y98.991 E26.77546
M204 S3000
M205 X10 Y10
G0 F3000 X77.28 Y99.43
M204 S1800
M205 X8 Y8
G1 F2400 X77.651 Y99.16 E26.80751
G1 X78.772 Y98.419 E26.90137
G1 X80.98 Y96.916 E27.08793
G1 X83.163 Y95.337 E27.27611
G1 X85.303 Y93.695 E27.46451
G1 X87.338 Y92.041 E27.64767
G1 X89.406 Y90.259 E27.83834
G1 X91.37 Y88.469 E28.02395
G1 X93.298 Y86.608 E28.21111
G1 X95.183 Y84.685 E28.39919
G1 X95.511 Y84.329 E28.433
G1 X95.579 Y84.256 E28.43997
G1 X96.238 Y83.567 E28.50656
G1 X96.715 Y83.127 E28.55189
G1 X97.372 Y82.669 E28.60783
G1 X97.662 Y82.498 E28.63134
G1 X98.241 Y82.203 E28.67673
G1 X98.852 Y81.981 E28.72214
G1 X99.485 Y81.836 E28.76749
G1 X100.106 Y81.771 E28.8111
G1 X100.816 Y81.739 E28.86075
G1 X100.981 Y81.735 E28.87227
G1 X101.269 Y81.731 E28.89239
G1 X101.342 Y81.73 E28.89749
G1 X102.032 Y81.73 E28.94568
G1 X102.584 Y81.759 E28.98429
G1 X103.298 Y81.834 E29.03444
G1 X103.388 Y81.844 E29.04076
G1 X104.808 Y82.018 E29.14069
G1 X107.49 Y82.271 E29.32885
G1 X110.178 Y82.448 E29.517
G1 X112.818 Y82.547 E29.70152
G1 X115.521 Y82.571 E29.89032
G1 X118.194 Y82.519 E30.07706
G1 X120.862 Y82.393 E30.26362
G1 X123.556 Y82.188 E30.45233
G1 X126.21 Y81.911 E30.63871
G1 X126.404 Y81.886 E30.65237
G1 X126.494 Y81.875 E30.6587
G1 X127.27 Y81.788 E30.71324
G1 X127.695 Y81.758 E30.743
G1 X128.374 Y81.737 E30.79045
G1 X128.52 Y81.734 E30.80065
G1 X129.433 Y81.731 E30.86442
G1 X130.127 Y81.775 E30.91299
G1 X130.305 Y81.798 E30.92552
G1 X130.943 Y81.92 E30.97089
G1 X131.561 Y82.12 E31.01626
G1 X132.181 Y82.412 E31.06413
G1 X132.4 Y82.533 E31.08161
G1 X132.612 Y82.657 E31.09876
G1 X132.708 Y82.716 E31.10663
G1 X133.239 Y83.089 E31.15195
G1 X133.721 Y83.525 E31.19735
G1 X134.145 Y84.017 E31.24271
G1 X134.516 Y84.575 E31.28952
G1 X134.677 Y84.854 E31.31202
G1 X134.967 Y85.436 E31.35743
G1 X135.182 Y86.048 E31.40274
G1 X135.321 Y86.683 E31.44814
G1 X135.383 Y87.378 E31.49688
G1 X135.406 Y88.435 E31.57072
G1 X135.407 Y88.546 E31.57848
G1 X135.429 Y118.526 E33.67247
G1 X135.429 Y118.598 E33.6775
G1 X135.42 Y119.3 E33.72653
G1 X135.409 Y119.571 E33.74548
G1 X135.377 Y120.069 E33.78033
G1 X135.363 Y120.239 E33.79225
G1 X135.32 Y120.683 E33.8234
G1 X135.192 Y121.437 E33.87682
G1 X135.042 Y122.046 E33.92063
G1 X135.002 Y122.199 E33.93168
G1 X134.911 Y122.526 E33.95538
G1 X134.611 Y123.337 E34.01578
G1 X134.437 Y123.711 E34.04459
G1 X134.362 Y123.866 E34.05662
G1 X134.182 Y124.222 E34.08448
G1 X133.854 Y124.783 E34.12987
G1 X133.594 Y125.137 E34.16055
G1 X133.159 Y125.681 E34.2092
G1 X132.723 Y126.163 E34.25459
G1 X132.455 Y126.407 E34.27991
G1 X132.195 Y126.628 E34.30374
G1 X131.592 Y127.071 E34.35601
G1 X131.194 Y127.322 E34.38887
G1 X130.624 Y127.634 E34.43426
G1 X130.02 Y127.874 E34.47965
G1 X129.552 Y128.004 E34.51358
G1 X129.197 Y128.085 E34.53901
G1 X129.005 Y128.125 E34.55271
G1 X128.778 Y128.168 E34.56885
G1 X127.895 Y128.259 E34.63085
G1 X126.94 Y128.277 E34.69756
G1 X126.84 Y128.278 E34.70455
G1 X102.527 Y128.28 E36.40272
G1 X102.452 Y128.279 E36.40796
G1 X101.751 Y128.269 E36.45693
G1 X101.15 Y128.227 E36.49901
G1 X100.662 Y128.164 E36.53337
G1 X100.024 Y128.041 E36.57876
G1 X99.432 Y127.851 E36.62218
G1 X99.047 Y127.702 E36.65102
G1 X98.686 Y127.546 E36.67849
G1 X96.09 Y126.312 E36.87925
G1 X93.605 Y125.208 E37.06917
G1 X91.149 Y124.2 E37.2546
G1 X88.625 Y123.246 E37.44307
G1 X86.118 Y122.379 E37.62835
G1 X83.567 Y121.577 E37.81512
G1 X79.985 Y120.582 E38.07479
G1 X79.703 Y120.509 E38.09513
G1 X79.114 Y120.319 E38.13836
G1 X78.679 Y120.15 E38.17095
G1 X78.089 Y119.878 E38.21633
G1 X77.451 Y119.473 E38.26911
G1 X77.163 Y119.26 E38.29413
G1 X76.666 Y118.842 E38.33949
G1 X76.169 Y118.3 E38.39086
G1 X75.937 Y118.008 E38.4169
G1 X75.565 Y117.475 E38.4623
G1 X75.225 Y116.819 E38.51391
G1 X75.071 Y116.463 E38.541
G1 X74.85 Y115.852 E38.58639
G1 X74.696 Y115.156 E38.63617
G1 X74.646 Y114.825 E38.65956
G1 X74.594 Y114.303 E38.6962
G1 X74.58 Y114.027 E38.7155
G1 X74.573 Y113.807 E38.73087
G1 X74.57 Y113.468 E38.75455
G1 X74.57 Y105.512 E39.31025
G1 X74.571 Y105.431 E39.31591
G1 X74.58 Y104.846 E39.35677
G1 X74.606 Y104.39 E39.38867
G1 X74.653 Y103.93 E39.42097
G1 X74.759 Y103.289 E39.46635
G1 X74.988 Y102.546 E39.52065
G1 X75.136 Y102.167 E39.54907
G1 X75.409 Y101.578 E39.59442
G1 X75.809 Y100.948 E39.64654
G1 X76.022 Y100.66 E39.67156
G1 X76.44 Y100.163 E39.71692
G1 X76.984 Y99.665 E39.76843
G1 X77.28 Y99.43 E39.79483
M204 S3000
M205 X10 Y10
G1 F2400 E33.79483
;MESH:25mm_board_clip_hook.stl
G0 F3000 X81.172 Y102.695
G0 X81.346 Y104.006
G0 X101.033 Y105.032
M204 S1800
M205 X8 Y8
;TYPE:WALL-INNER
G1 F2400 E39.79483
G1 F1500 X101.018 Y105.831 E39.85065
G1 X84.385 Y105.831 E41.0124
G1 X83.592 Y105.905 E41.06803
G1 X82.872 Y106.202 E41.12243
G1 X82.277 Y106.659 E41.17483
G1 X81.822 Y107.253 E41.22709
G1 X81.799 Y107.307 E41.23119
G1 X81.537 Y107.943 E41.27923
G1 X81.45 Y108.591 E41.3249
G1 X81.45 Y110.845 E41.48233
G1 X81.535 Y111.514 E41.52944
G1 X81.799 Y112.16 E41.57818
G1 X81.82 Y112.21 E41.58197
G1 X82.278 Y112.805 E41.63441
G1 X82.871 Y113.26 E41.68662
G1 X83.387 Y113.475 E41.72566
G1 X83.562 Y113.547 E41.73888
G1 X84.213 Y113.631 E41.78473
G1 X86.281 Y113.631 E41.92917
G1 X86.36 Y113.641 E41.93473
G1 X86.415 Y113.648 E41.9386
G1 X86.423 Y113.653 E41.93926
G1 X86.444 Y113.933 E41.95887
G1 X86.432 Y114 E41.96363
G1 X86.425 Y114.009 E41.96442
G1 X86.406 Y114.019 E41.96592
G1 X86.332 Y114.028 E41.9695
G1 X86.311 Y114.031 E41.97017
G1 X86.281 Y114.031 E41.97115
G1 X84.213 Y114.031 E42.07432
G1 X83.562 Y114.031 E42.1102
G1 X83.372 Y114.031 E42.12259
G1 X81.413 Y114.031 E42.25942
G1 X81.287 Y114.015 E42.26829
G1 X81.273 Y114.006 E42.26945
G1 X81.263 Y113.988 E42.27089
G1 X81.25 Y113.886 E42.27807
G1 X81.25 Y112.212 E42.39499
G1 X81.25 Y111.514 E42.43201
G1 X81.25 Y110.845 E42.4522
G1 X81.25 Y108.591 E42.50843
G1 X81.25 Y107.943 E42.52807
G1 X81.25 Y107.255 E42.56464
G1 X81.25 Y104.918 E42.72787
G1 X81.267 Y104.784 E42.73731
G1 X81.277 Y104.769 E42.73856
G1 X81.294 Y104.76 E42.73991
G1 X81.395 Y104.747 E42.74702
G1 X100.753 Y104.747 E44.0991
G1 X100.754 Y104.747 E44.09917
G1 X101.038 Y104.747 E44.11901
G1 X101.034 Y105.031 E44.13179
G1 X101.033 Y105.032 E44.13189
M204 S3000
M205 X10 Y10
G0 F3000 X101.571 Y115.116
G0 X101.862 Y116.261
G0 X103.307 Y118.3
M204 S1800
M205 X8 Y8
G1 F1500 X104.078 Y118.4 E44.1862
G1 X125.914 Y118.4 E45.71136
G1 X126.686 Y118.299 E45.76574
G1 X127.492 Y117.965 E45.82668
G1 X128.183 Y117.433 E45.88759
