;FLAVOR:Marlin
;TIME:4054
;Filament used: 6.65555m
;Layer height: 0.3
;MINX:38.476
;MINY:57.79
;MINZ:0.3
;MAXX:141.117
;MAXY:135.856
;MAXZ:15.9
;Generated with Cura_SteamEngine 4.4.1
M82 ;absolute extrusion mode
G21 ;metric values
G90 ;absolute positioning
M82 ;set extruder to absolute mode
M107 ;start with the fan off

M104 S200 T0 ; start heating T0 to what is set in Cura
M140 S60 ; start heating the bed to what is set in Cura
M190 S60 ; start heating the bed to what is set in Cura
M109 S200 T0 ; start heating T0 to what is set in Cura

G28 X0 Y0 ;move X/Y to min endstops
G28 Z0 ;move Z to min endstops
G1 Z15.0 F2400 ;move the platform down 15mm
G92 E0 ;zero the extruded length
G1 F200 E3 ;extrude 3mm of feed stock
G92 E0 ;zero the extruded length again
G1 F2400
G0 Y20 F2400
M117 Printing...
G5
G92 E0
G92 E0
G1 F2400 E-6
;LAYER_COUNT:53
;LAYER:0
M106 S255
M204 S3000
M205 X10 Y10
G1 F600 Z0.375
G0 F3000 X60.852 Y67.442 Z0.375
M204 S1800
M205 X8 Y8
;TYPE:SKIRT
G1 F600 Z0.3
G1 F2400 E0
G1 X61.509 Y66.862 E0.06121
G1 X63.47 Y65.089 E0.24586
G1 X65.396 Y63.246 E0.43205
G1 X67.257 Y61.361 E0.61707
G1 X67.562 Y61.037 E0.64815
G1 X67.618 Y60.979 E0.65378
G1 X68.294 Y60.277 E0.72185
G1 X68.818 Y59.79 E0.77182
G1 X69.212 Y59.488 E0.80649
G1 X69.406 Y59.351 E0.82308
G1 X69.676 Y59.171 E0.84574
G1 X70.06 Y58.928 E0.87748
G1 X70.685 Y58.58 E0.92745
G1 X71.344 Y58.304 E0.97735
G1 X72.067 Y58.094 E1.02994
G1 X72.464 Y58.004 E1.05837
G1 X72.668 Y57.962 E1.07292
G1 X72.86 Y57.925 E1.08657
G1 X73.569 Y57.829 E1.13655
G1 X73.955 Y57.81 E1.16354
G1 X74.891 Y57.793 E1.22893
G1 X75.006 Y57.792 E1.23696
G1 X99.335 Y57.79 E2.93625
G1 X99.427 Y57.791 E2.94268
G1 X100.129 Y57.801 E2.99171
G1 X100.83 Y57.849 E3.04079
G1 X101.311 Y57.909 E3.07465
G1 X102.015 Y58.037 E3.12462
G1 X102.852 Y58.3 E3.1859
G1 X103.271 Y58.464 E3.21733
G1 X103.585 Y58.597 E3.24115
G1 X103.825 Y58.706 E3.25956
G1 X103.95 Y58.765 E3.26921
G1 X106.069 Y59.783 E3.43341
G1 X108.517 Y60.876 E3.62066
G1 X110.977 Y61.893 E3.80659
G1 X113.397 Y62.81 E3.98735
G1 X115.936 Y63.694 E4.17513
G1 X118.408 Y64.476 E4.35622
G1 X121.996 Y65.482 E4.61649
G1 X122.466 Y65.604 E4.65041
G1 X123.177 Y65.834 E4.7026
G1 X123.583 Y65.992 E4.73303
G1 X124.234 Y66.288 E4.78298
G1 X125.072 Y66.814 E4.85209
G1 X125.373 Y67.037 E4.87825
G1 X125.923 Y67.494 E4.9282
G1 X126.572 Y68.196 E4.99498
G1 X126.805 Y68.489 E5.02112
G1 X127.218 Y69.072 E5.07102
G1 X127.618 Y69.813 E5.12984
G1 X128.544 Y71.841 E5.28556
G1 X129.688 Y74.19 E5.46805
G1 X130.903 Y76.517 E5.6514
G1 X132.223 Y78.878 E5.84033
G1 X133.568 Y81.132 E6.02366
G1 X134.986 Y83.363 E6.2083
G1 X136.459 Y85.542 E6.39201
G1 X138.017 Y87.711 E6.57854
G1 X139.535 Y89.705 E6.75358
G1 X139.914 Y90.261 E6.80058
G1 X140.155 Y90.658 E6.83301
G1 X140.491 Y91.289 E6.88295
G1 X140.755 Y91.954 E6.93292
G1 X140.943 Y92.644 E6.98287
G1 X141.053 Y93.351 E7.03285
G1 X141.081 Y93.779 E7.06281
G1 X141.091 Y94.099 E7.08517
G1 X141.094 Y94.294 E7.09879
G1 X141.117 Y124.982 E9.24223
G1 X141.116 Y125.069 E9.24831
G1 X141.107 Y125.771 E9.29735
G1 X141.095 Y126.099 E9.32027
G1 X141.063 Y126.597 E9.35513
G1 X141.047 Y126.795 E9.369
G1 X141.005 Y127.235 E9.39987
G1 X140.847 Y128.163 E9.46562
G1 X140.69 Y128.798 E9.51131
G1 X140.64 Y128.986 E9.5249
G1 X140.553 Y129.297 E9.54745
G1 X140.194 Y130.271 E9.61996
G1 X140.022 Y130.641 E9.64846
G1 X139.925 Y130.84 E9.66392
G1 X139.723 Y131.238 E9.69509
G1 X139.364 Y131.856 E9.74501
G1 X139.067 Y132.272 E9.78071
G1 X138.902 Y132.484 E9.79948
G1 X138.706 Y132.723 E9.82107
G1 X138.383 Y133.099 E9.85569
G1 X137.887 Y133.615 E9.90568
G1 X137.248 Y134.137 E9.96331
G1 X137.059 Y134.272 E9.97953
G1 X136.761 Y134.473 E10.00464
G1 X136.369 Y134.721 E10.03704
G1 X135.744 Y135.069 E10.087
G1 X135.084 Y135.345 E10.13697
G1 X134.356 Y135.555 E10.18989
G1 X134.006 Y135.634 E10.21495
G1 X133.808 Y135.675 E10.22908
G1 X133.564 Y135.722 E10.24643
G1 X132.855 Y135.818 E10.29641
G1 X132.466 Y135.837 E10.32361
G1 X131.558 Y135.853 E10.38704
G1 X131.446 Y135.854 E10.39486
G1 X107.096 Y135.856 E12.09562
G1 X107.004 Y135.855 E12.10204
G1 X106.303 Y135.845 E12.15101
G1 X105.575 Y135.793 E12.20199
G1 X105.087 Y135.73 E12.23636
G1 X104.383 Y135.599 E12.28637
G1 X103.596 Y135.352 E12.34399
G1 X103.211 Y135.203 E12.37282
G1 X102.772 Y135.014 E12.4062
G1 X100.166 Y133.774 E12.60778
G1 X97.748 Y132.701 E12.79255
G1 X95.295 Y131.692 E12.97781
G1 X92.826 Y130.762 E13.16209
G1 X90.326 Y129.898 E13.34684
G1 X87.809 Y129.107 E13.53112
G1 X84.481 Y128.177 E13.77247
G1 X83.964 Y128.043 E13.80978
G1 X83.254 Y127.813 E13.8619
G1 X82.848 Y127.655 E13.89233
G1 X82.197 Y127.359 E13.94228
G1 X81.358 Y126.833 E14.01145
G1 X81.045 Y126.601 E14.03866
G1 X80.749 Y126.367 E14.06501
G1 X80.228 Y125.931 E14.11247
G1 X80.156 Y125.87 E14.11906
G1 X79.079 Y124.941 E14.2184
G1 X77.054 Y123.292 E14.4008
G1 X74.941 Y121.669 E14.5869
G1 X72.797 Y120.116 E14.77181
G1 X70.603 Y118.621 E14.95724
G1 X68.383 Y117.197 E15.14146
G1 X66.133 Y115.844 E15.32484
G1 X63.782 Y114.517 E15.5134
G1 X61.464 Y113.295 E15.69643
G1 X59.095 Y112.13 E15.88082
G1 X56.679 Y111.026 E16.06635
G1 X54.23 Y109.99 E16.25208
G1 X51.752 Y109.02 E16.43794
G1 X49.297 Y108.144 E16.62001
G1 X46.748 Y107.312 E16.80729
G1 X44.806 Y106.731 E16.94887
G1 X44.303 Y106.586 E16.98543
G1 X43.746 Y106.398 E17.02649
G1 X43.29 Y106.22 E17.06068
G1 X42.639 Y105.923 E17.11066
G1 X41.811 Y105.404 E17.17892
G1 X41.523 Y105.191 E17.20394
G1 X40.973 Y104.734 E17.25388
G1 X40.318 Y104.026 E17.32125
G1 X40.086 Y103.734 E17.3473
G1 X39.673 Y103.15 E17.39726
G1 X39.223 Y102.294 E17.46481
G1 X39.069 Y101.938 E17.4919
G1 X38.822 Y101.267 E17.54184
G1 X38.615 Y100.353 E17.6073
G1 X38.565 Y100.022 E17.63068
G1 X38.501 Y99.39 E17.67505
G1 X38.487 Y99.114 E17.69435
G1 X38.479 Y98.847 E17.71301
G1 X38.476 Y98.508 E17.73668
G1 X38.476 Y90.561 E18.29175
G1 X38.477 Y90.466 E18.29839
G1 X38.486 Y89.862 E18.34058
G1 X38.518 Y89.308 E18.37934
G1 X38.565 Y88.847 E18.41171
G1 X38.677 Y88.14 E18.4617
G1 X38.968 Y87.174 E18.53217
G1 X39.114 Y86.799 E18.56028
G1 X39.41 Y86.148 E18.61023
G1 X39.937 Y85.309 E18.67943
G1 X40.152 Y85.019 E18.70464
G1 X40.609 Y84.47 E18.75454
G1 X41.317 Y83.816 E18.82186
G1 X41.626 Y83.571 E18.8494
G1 X42.083 Y83.24 E18.88881
G1 X43.031 Y82.616 E18.96808
G1 X45.212 Y81.136 E19.15218
G1 X47.377 Y79.577 E19.33852
G1 X49.461 Y77.984 E19.52174
G1 X51.562 Y76.284 E19.71051
G1 X53.52 Y74.604 E19.89071
G1 X55.517 Y72.791 E20.0791
G1 X57.42 Y70.962 E20.26345
G1 X59.263 Y69.088 E20.44704
G1 X59.881 Y68.423 E20.51045
G1 X59.956 Y68.344 E20.51805
G1 X60.474 Y67.805 E20.57027
G1 X60.852 Y67.442 E20.60687
M204 S3000
M205 X10 Y10
G0 F3000 X61.223 Y67.862
M204 S1800
M205 X8 Y8
G1 F2400 X61.832 Y67.324 E20.66363
G1 X63.873 Y65.479 E20.8558
G1 X65.786 Y63.649 E21.04071
G1 X67.669 Y61.742 E21.22789
G1 X67.971 Y61.42 E21.25873
G1 X68.021 Y61.367 E21.26382
G1 X68.697 Y60.665 E21.33189
G1 X69.199 Y60.202 E21.37959
G1 X69.535 Y59.946 E21.40909
G1 X69.729 Y59.809 E21.42568
G1 X69.975 Y59.644 E21.44637
G1 X70.359 Y59.401 E21.47811
G1 X70.957 Y59.07 E21.52585
G1 X71.589 Y58.811 E21.57355
G1 X72.191 Y58.641 E21.61725
G1 X72.588 Y58.551 E21.64568
G1 X72.774 Y58.512 E21.65895
G1 X72.966 Y58.475 E21.67261
G1 X73.965 Y58.37 E21.74277
G1 X74.901 Y58.353 E21.80816
G1 X75.007 Y58.352 E21.81556
G1 X99.336 Y58.35 E23.51485
G1 X99.419 Y58.351 E23.52065
G1 X100.121 Y58.361 E23.56969
G1 X100.761 Y58.405 E23.61449
G1 X101.242 Y58.465 E23.64835
G1 X101.914 Y58.589 E23.69608
G1 X102.648 Y58.822 E23.74987
G1 X103.067 Y58.986 E23.78129
G1 X103.353 Y59.107 E23.80298
G1 X103.593 Y59.216 E23.8214
G1 X103.708 Y59.269 E23.83024
G1 X105.862 Y60.304 E23.99716
G1 X108.282 Y61.385 E24.18228
G1 X110.761 Y62.409 E24.36962
G1 X113.235 Y63.347 E24.55442
G1 X115.728 Y64.214 E24.73878
G1 X118.293 Y65.026 E24.9267
G1 X121.815 Y66.014 E25.18219
G1 X122.325 Y66.146 E25.21899
G1 X122.974 Y66.356 E25.26663
G1 X123.38 Y66.514 E25.29706
G1 X124.001 Y66.798 E25.34476
G1 X124.739 Y67.264 E25.40572
G1 X125.04 Y67.487 E25.43188
G1 X125.564 Y67.925 E25.47959
G1 X126.134 Y68.544 E25.53836
G1 X126.367 Y68.837 E25.56451
G1 X126.76 Y69.396 E25.61223
G1 X127.108 Y70.046 E25.66373
G1 X128.016 Y72.035 E25.81645
G1 X129.189 Y74.444 E26.00359
G1 X130.427 Y76.814 E26.19035
G1 X131.731 Y79.146 E26.37697
G1 X133.085 Y81.417 E26.56164
G1 X134.515 Y83.667 E26.74785
G1 X136.012 Y85.88 E26.93446
G1 X137.548 Y88.018 E27.11834
G1 X139.09 Y90.044 E27.29617
G1 X139.435 Y90.551 E27.339
G1 X139.676 Y90.948 E27.37144
G1 X139.996 Y91.552 E27.41919
G1 X140.243 Y92.189 E27.46691
G1 X140.414 Y92.851 E27.51466
G1 X140.521 Y93.797 E27.58116
G1 X140.531 Y94.117 E27.60352
G1 X140.534 Y94.295 E27.61595
G1 X140.557 Y124.983 E29.7594
G1 X140.557 Y125.062 E29.76491
G1 X140.548 Y125.764 E29.81395
G1 X140.536 Y126.063 E29.83485
G1 X140.504 Y126.561 E29.86971
G1 X140.49 Y126.742 E29.88239
G1 X140.448 Y127.182 E29.91326
G1 X140.303 Y128.029 E29.97328
G1 X140.146 Y128.664 E30.01897
G1 X140.101 Y128.835 E30.03132
G1 X140.014 Y129.146 E30.05387
G1 X139.686 Y130.035 E30.12006
G1 X139.514 Y130.405 E30.14856
G1 X139.426 Y130.586 E30.16261
G1 X139.224 Y130.984 E30.19379
G1 X138.879 Y131.574 E30.24153
G1 X138.625 Y131.928 E30.27196
G1 X138.46 Y132.14 E30.29072
G1 X138.281 Y132.358 E30.31042
G1 X137.958 Y132.734 E30.34505
G1 X137.483 Y133.226 E30.39281
G1 X136.922 Y133.681 E30.44326
G1 X136.733 Y133.816 E30.45949
G1 X136.461 Y133.999 E30.48238
G1 X136.069 Y134.247 E30.51478
G1 X135.472 Y134.578 E30.56246
G1 X134.839 Y134.837 E30.61023
G1 X134.233 Y135.009 E30.65423
G1 X133.883 Y135.088 E30.67929
G1 X133.702 Y135.126 E30.69221
G1 X133.458 Y135.173 E30.70956
G1 X132.456 Y135.277 E30.77993
G1 X131.548 Y135.293 E30.84336
G1 X131.445 Y135.294 E30.85055
G1 X107.095 Y135.296 E32.55131
G1 X107.012 Y135.295 E32.55711
G1 X106.311 Y135.285 E32.60607
G1 X105.646 Y135.238 E32.65264
G1 X105.158 Y135.175 E32.687
G1 X104.487 Y135.048 E32.7347
G1 X103.798 Y134.829 E32.7852
G1 X103.413 Y134.68 E32.81403
G1 X103.013 Y134.508 E32.84445
G1 X100.399 Y133.265 E33.04662
G1 X97.981 Y132.191 E33.23141
G1 X95.48 Y131.162 E33.42031
G1 X93.05 Y130.247 E33.60167
G1 X90.478 Y129.358 E33.79174
G1 X87.99 Y128.577 E33.97388
G1 X84.611 Y127.633 E34.21893
G1 X84.105 Y127.501 E34.25545
G1 X83.457 Y127.291 E34.30303
G1 X83.051 Y127.133 E34.33346
G1 X82.43 Y126.849 E34.38115
G1 X81.691 Y126.383 E34.44218
G1 X81.378 Y126.151 E34.46939
G1 X81.108 Y125.938 E34.49341
G1 X80.587 Y125.502 E34.54086
G1 X80.522 Y125.446 E34.54685
G1 X79.457 Y124.528 E34.64506
G1 X77.39 Y122.844 E34.83128
G1 X75.269 Y121.215 E35.01807
G1 X73.129 Y119.665 E35.20263
G1 X70.919 Y118.159 E35.38943
G1 X68.655 Y116.707 E35.57729
G1 X66.405 Y115.353 E35.7607
G1 X64.068 Y114.035 E35.9481
G1 X61.736 Y112.806 E36.13222
G1 X59.338 Y111.626 E36.31889
G1 X56.879 Y110.503 E36.50771
G1 X54.463 Y109.48 E36.69096
G1 X51.947 Y108.496 E36.87965
G1 X49.471 Y107.612 E37.06328
G1 X46.918 Y106.779 E37.25085
G1 X44.941 Y106.187 E37.395
G1 X44.458 Y106.048 E37.4301
G1 X43.949 Y105.876 E37.46763
G1 X43.493 Y105.698 E37.50182
G1 X42.873 Y105.413 E37.54948
G1 X42.144 Y104.953 E37.60969
G1 X41.856 Y104.74 E37.63471
G1 X41.332 Y104.303 E37.68236
G1 X40.757 Y103.678 E37.74168
G1 X40.525 Y103.386 E37.76773
G1 X40.132 Y102.827 E37.81546
G1 X39.737 Y102.072 E37.87497
G1 X39.583 Y101.716 E37.90207
G1 X39.349 Y101.074 E37.94979
G1 X39.169 Y100.269 E38.00741
G1 X39.119 Y99.938 E38.03079
G1 X39.06 Y99.362 E38.07123
G1 X39.046 Y99.086 E38.09053
G1 X39.039 Y98.842 E38.10758
G1 X39.036 Y98.503 E38.13126
G1 X39.036 Y90.561 E38.68598
G1 X39.037 Y90.474 E38.69206
G1 X39.046 Y89.87 E38.73425
G1 X39.075 Y89.365 E38.76958
G1 X39.122 Y88.904 E38.80195
G1 X39.231 Y88.229 E38.8497
G1 X39.49 Y87.377 E38.9119
G1 X39.636 Y87.002 E38.94001
G1 X39.921 Y86.381 E38.98773
G1 X40.387 Y85.643 E39.0487
G1 X40.602 Y85.353 E39.07391
G1 X41.04 Y84.829 E39.12161
G1 X41.665 Y84.255 E39.18088
G1 X41.974 Y84.01 E39.20843
G1 X42.391 Y83.708 E39.24439
G1 X43.317 Y83.099 E39.3218
G1 X45.542 Y81.589 E39.50962
G1 X47.685 Y80.046 E39.69406
G1 X49.852 Y78.39 E39.88455
G1 X51.9 Y76.732 E40.0686
G1 X53.903 Y75.014 E40.25291
G1 X55.886 Y73.214 E40.43997
G1 X57.811 Y71.363 E40.6265
G1 X59.66 Y69.484 E40.81062
G1 X60.291 Y68.804 E40.87542
G1 X60.359 Y68.732 E40.88233
G1 X60.877 Y68.193 E40.93455
G1 X61.223 Y67.862 E40.96799
M204 S3000
M205 X10 Y10
G0 F3000 X61.594 Y68.282
M204 S1800
M205 X8 Y8
G1 F2400 X62.228 Y67.723 E41.02703
G1 X64.239 Y65.904 E41.21643
G1 X66.176 Y64.051 E41.40366
G1 X68.079 Y62.123 E41.59287
G1 X68.379 Y61.804 E41.62345
G1 X68.425 Y61.756 E41.6281
G1 X69.101 Y61.054 E41.69617
G1 X69.579 Y60.614 E41.74155
G1 X69.858 Y60.403 E41.76598
G1 X70.052 Y60.266 E41.78257
G1 X70.275 Y60.117 E41.8013
G1 X70.659 Y59.874 E41.83304
G1 X71.228 Y59.561 E41.8784
G1 X71.831 Y59.321 E41.92373
G1 X72.315 Y59.187 E41.95881
G1 X72.712 Y59.097 E41.98724
G1 X72.88 Y59.061 E41.99924
G1 X73.072 Y59.024 E42.0129
G1 X73.975 Y58.93 E42.07631
G1 X74.911 Y58.913 E42.14169
G1 X75.007 Y58.912 E42.1484
G1 X99.336 Y58.91 E43.84769
G1 X99.411 Y58.911 E43.85293
G1 X100.113 Y58.921 E43.90197
G1 X100.692 Y58.961 E43.9425
G1 X101.173 Y59.021 E43.97636
G1 X101.811 Y59.141 E44.0217
G1 X102.443 Y59.343 E44.06805
G1 X102.862 Y59.507 E44.09947
G1 X103.121 Y59.617 E44.11913
G1 X103.361 Y59.726 E44.13754
G1 X103.465 Y59.774 E44.14554
G1 X105.628 Y60.814 E44.31317
G1 X108.048 Y61.894 E44.49827
G1 X110.568 Y62.936 E44.68874
G1 X113.018 Y63.864 E44.87172
G1 X115.564 Y64.75 E45.06001
G1 X118.122 Y65.56 E45.24742
G1 X121.684 Y66.558 E45.5058
G1 X122.184 Y66.688 E45.54188
G1 X122.771 Y66.877 E45.58495
G1 X123.177 Y67.035 E45.61538
G1 X123.767 Y67.308 E45.66079
G1 X124.405 Y67.713 E45.71357
G1 X124.706 Y67.936 E45.73974
G1 X125.203 Y68.355 E45.78514
G1 X125.696 Y68.893 E45.83611
G1 X125.929 Y69.186 E45.86225
G1 X126.301 Y69.718 E45.9076
G1 X126.599 Y70.279 E45.95197
G1 X127.52 Y72.296 E46.10684
G1 X128.683 Y74.684 E46.29236
G1 X129.935 Y77.08 E46.48118
G1 X131.247 Y79.428 E46.66905
G1 X132.609 Y81.71 E46.85467
G1 X134.05 Y83.978 E47.04235
G1 X135.553 Y86.202 E47.22983
G1 X137.108 Y88.366 E47.41596
G1 X138.644 Y90.384 E47.59309
G1 X138.956 Y90.842 E47.6318
G1 X139.197 Y91.239 E47.66424
G1 X139.5 Y91.814 E47.70963
G1 X139.729 Y92.422 E47.75501
G1 X139.882 Y93.053 E47.80036
G1 X139.961 Y93.814 E47.8538
G1 X139.971 Y94.134 E47.87616
G1 X139.974 Y94.295 E47.88741
G1 X139.997 Y124.983 E50.03085
G1 X139.997 Y125.055 E50.03588
G1 X139.988 Y125.757 E50.08492
G1 X139.977 Y126.028 E50.10386
G1 X139.945 Y126.526 E50.13872
G1 X139.932 Y126.689 E50.15014
G1 X139.89 Y127.129 E50.18101
G1 X139.76 Y127.894 E50.23521
G1 X139.603 Y128.529 E50.2809
G1 X139.562 Y128.684 E50.29209
G1 X139.475 Y128.995 E50.31465
G1 X139.178 Y129.799 E50.37452
G1 X139.006 Y130.169 E50.40301
G1 X138.926 Y130.333 E50.41576
G1 X138.724 Y130.731 E50.44693
G1 X138.395 Y131.291 E50.4923
G1 X138.183 Y131.584 E50.51756
G1 X138.018 Y131.796 E50.53632
G1 X137.856 Y131.994 E50.55419
G1 X137.533 Y132.37 E50.58881
G1 X137.08 Y132.835 E50.63416
G1 X136.597 Y133.226 E50.67756
G1 X136.408 Y133.361 E50.69378
G1 X136.162 Y133.526 E50.71447
G1 X135.77 Y133.774 E50.74687
G1 X135.201 Y134.087 E50.79223
G1 X134.597 Y134.328 E50.83765
G1 X134.11 Y134.462 E50.87293
G1 X133.76 Y134.541 E50.89799
G1 X133.596 Y134.576 E50.9097
G1 X133.352 Y134.623 E50.92706
G1 X132.446 Y134.717 E50.99068
G1 X131.538 Y134.733 E51.05411
G1 X131.445 Y134.734 E51.06061
G1 X107.095 Y134.736 E52.76136
G1 X107.02 Y134.735 E52.7666
G1 X106.319 Y134.725 E52.81557
G1 X105.718 Y134.683 E52.85765
G1 X105.23 Y134.62 E52.89202
G1 X104.592 Y134.497 E52.9374
G1 X104 Y134.307 E52.98083
G1 X103.615 Y134.158 E53.00966
G1 X103.253 Y134.002 E53.03719
G1 X100.664 Y132.771 E53.23743
G1 X98.17 Y131.663 E53.42804
G1 X95.683 Y130.64 E53.61587
G1 X93.222 Y129.714 E53.79953
G1 X90.684 Y128.836 E53.9871
G1 X88.13 Y128.034 E54.17408
G1 X84.779 Y127.098 E54.41709
G1 X84.246 Y126.959 E54.45557
G1 X83.66 Y126.77 E54.49857
G1 X83.254 Y126.612 E54.529
G1 X82.664 Y126.339 E54.57441
G1 X82.025 Y125.933 E54.62729
