;FLAVOR:Marlin
;TIME:2935
;Filament used: 3.84179m
;Layer height: 0.3
;MINX:62.055
;MINY:67.899
;MINZ:0.3
;MAXX:119.873
;MAXY:112.114
;MAXZ:45.9
;Generated with Cura_SteamEngine 4.13.1
M82 ;absolute extrusion mode
G21 ;metric values
G90 ;absolute positioning
M82 ;set extruder to absolute mode
M107 ;start with the fan off

M104 S225 T0 ; start heating T0 to what is set in Cura
M140 S74 ; start heating the bed to what is set in Cura
M190 S74 ; start heating the bed to what is set in Cura
M109 S225 T0 ; start heating T0 to what is set in Cura

G28 X0 Y0 ;move X/Y to min endstops
G28 Z0 ;move Z to min endstops
G1 Z15.0 F2400 ;move the platform down 15mm
G92 E0 ;zero the extruded length
G1 F2400
G0 Y20 F2400
M117 Printing...
G5
G92 E0
G92 E0
G1 F2400 E-1.2
;LAYER_COUNT:153
;LAYER:0
M107
M204 S500
G0 F3000 X65.186 Y73.793 Z0.3
;TYPE:SKIRT
G1 F2400 E0
G1 F1500 X65.932 Y73.232 E0.04149
G1 X66.183 Y73.049 E0.0553
G1 X66.744 Y72.653 E0.08582
G1 X67.53 Y72.177 E0.12667
G1 X68.557 Y71.65 E0.17798
G1 X68.69 Y71.584 E0.18458
G1 X71.009 Y70.361 E0.30113
G1 X72.518 Y69.496 E0.37844
G1 X72.605 Y69.452 E0.38278
G1 X73.776 Y68.793 E0.44251
G1 X74.425 Y68.474 E0.47465
G1 X75.105 Y68.228 E0.5068
G1 X75.808 Y68.059 E0.53894
G1 X76.619 Y67.962 E0.57525
G1 X77.315 Y67.923 E0.60623
G1 X77.496 Y67.916 E0.61428
G1 X78.098 Y67.899 E0.64106
G1 X78.821 Y67.918 E0.67321
G1 X79.537 Y68.017 E0.70534
G1 X80.238 Y68.195 E0.73749
G1 X80.636 Y68.334 E0.75623
G1 X81.928 Y68.832 E0.81778
G1 X84.448 Y69.764 E0.93721
G1 X86.094 Y70.33 E1.01459
G1 X88.592 Y71.124 E1.1311
G1 X91.155 Y71.859 E1.24962
G1 X93.381 Y72.434 E1.35182
G1 X94.526 Y72.715 E1.40423
G1 X95.217 Y72.925 E1.43633
G1 X95.882 Y73.211 E1.46851
G1 X96.729 Y73.715 E1.51233
G1 X97.765 Y74.443 E1.56861
G1 X99.964 Y75.939 E1.68684
G1 X102.197 Y77.368 E1.80468
G1 X104.48 Y78.738 E1.92304
G1 X106.77 Y80.027 E2.03985
G1 X109.118 Y81.262 E2.15778
G1 X111.449 Y82.405 E2.27319
G1 X113.944 Y83.538 E2.395
G1 X114.171 Y83.645 E2.40615
G1 X114.807 Y83.989 E2.43829
G1 X115.136 Y84.205 E2.45579
G1 X115.975 Y84.794 E2.50136
G1 X116.168 Y84.936 E2.51201
G1 X116.724 Y85.353 E2.5429
G1 X117.278 Y85.818 E2.57505
G1 X117.776 Y86.342 E2.60719
G1 X118.214 Y86.917 E2.63932
G1 X118.586 Y87.537 E2.67146
G1 X118.983 Y88.455 E2.71592
G1 X119.277 Y89.31 E2.75611
G1 X119.373 Y89.608 E2.77003
G1 X119.581 Y90.277 E2.80117
G1 X119.757 Y90.979 E2.83334
G1 X119.855 Y91.695 E2.86547
G1 X119.873 Y92.418 E2.89761
G1 X119.811 Y93.138 E2.92974
G1 X119.588 Y94.14 E2.97537
G1 X119.329 Y94.983 E3.01457
G1 X119.213 Y95.339 E3.03122
G1 X118.992 Y95.986 E3.06161
G1 X118.721 Y96.656 E3.09373
G1 X118.408 Y97.242 E3.12327
G1 X116.979 Y99.619 E3.24655
G1 X115.675 Y101.932 E3.36459
G1 X114.458 Y104.243 E3.48069
G1 X113.286 Y106.629 E3.59886
G1 X113.073 Y107.084 E3.62119
G1 X112.486 Y108.338 E3.68274
G1 X112.144 Y108.975 E3.71487
G1 X111.733 Y109.57 E3.74702
G1 X111.26 Y110.116 E3.77913
G1 X110.728 Y110.607 E3.81131
G1 X110.146 Y111.036 E3.84345
G1 X109.52 Y111.398 E3.8756
G1 X108.858 Y111.688 E3.90773
G1 X108.168 Y111.904 E3.93986
G1 X107.458 Y112.043 E3.97203
G1 X106.766 Y112.101 E4.00289
G1 X106.241 Y112.114 E4.02624
G1 X79.03 Y112.113 E5.23583
G1 X78.349 Y112.103 E5.2661
G1 X77.628 Y112.053 E5.29823
G1 X76.916 Y111.923 E5.3304
G1 X76.224 Y111.715 E5.36252
G1 X75.558 Y111.432 E5.39469
G1 X74.928 Y111.078 E5.42681
G1 X74.497 Y110.778 E5.45016
G1 X73.943 Y110.313 E5.48231
G1 X73.445 Y109.789 E5.51444
G1 X73.007 Y109.214 E5.54657
G1 X72.635 Y108.594 E5.57871
G1 X72.334 Y107.937 E5.61084
G1 X72.196 Y107.551 E5.62906
G1 X71.996 Y106.929 E5.6581
G1 X71.51 Y105.345 E5.73175
G1 X70.653 Y102.814 E5.85054
G1 X69.743 Y100.357 E5.96701
G1 X68.957 Y98.391 E6.06113
G1 X67.502 Y94.865 E6.23068
G1 X66.744 Y92.955 E6.32203
G1 X66.703 Y92.871 E6.32618
G1 X66.387 Y92.067 E6.36459
G1 X65.333 Y89.582 E6.48457
G1 X64.257 Y87.232 E6.59947
G1 X63.651 Y86.004 E6.66034
G1 X63.237 Y85.139 E6.70297
G1 X62.952 Y84.445 E6.73632
G1 X62.651 Y83.567 E6.77758
G1 X62.553 Y83.262 E6.79182
G1 X62.346 Y82.595 E6.82286
G1 X62.17 Y81.894 E6.85499
G1 X62.073 Y81.178 E6.88711
G1 X62.055 Y80.455 E6.91926
G1 X62.117 Y79.734 E6.95142
G1 X62.34 Y78.738 E6.9968
G1 X62.637 Y77.775 E7.04159
G1 X62.724 Y77.51 E7.05399
G1 X62.933 Y76.899 E7.0827
G1 X63.204 Y76.229 E7.11482
G1 X63.548 Y75.593 E7.14697
G1 X63.96 Y74.999 E7.1791
G1 X64.435 Y74.454 E7.21124
G1 X65.186 Y73.793 E7.25571
G0 F3000 X65.45 Y74.144
G1 F1500 X66.191 Y73.587 E7.29692
G1 X66.437 Y73.408 E7.31044
G1 X66.998 Y73.012 E7.34096
G1 X67.731 Y72.569 E7.37904
G1 X68.852 Y71.995 E7.43502
G1 X68.893 Y71.975 E7.43705
G1 X71.225 Y70.744 E7.55427
G1 X72.737 Y69.878 E7.63172
G1 X72.825 Y69.834 E7.6361
G1 X73.992 Y69.177 E7.69563
G1 X74.619 Y68.869 E7.72668
G1 X75.277 Y68.636 E7.75771
G1 X75.958 Y68.479 E7.78877
G1 X76.644 Y68.402 E7.81946
G1 X77.509 Y68.355 E7.85797
G1 X78.111 Y68.338 E7.88474
G1 X78.809 Y68.359 E7.91578
G1 X79.5 Y68.459 E7.94682
G1 X80.477 Y68.744 E7.99206
G1 X81.795 Y69.252 E8.05485
G1 X84.292 Y70.176 E8.1732
G1 X85.944 Y70.744 E8.25085
G1 X88.477 Y71.549 E8.369
G1 X91.049 Y72.286 E8.48793
G1 X93.241 Y72.853 E8.58858
G1 X94.421 Y73.142 E8.64258
G1 X95.089 Y73.347 E8.67364
G1 X95.729 Y73.626 E8.70468
G1 X96.476 Y74.075 E8.74342
G1 X97.509 Y74.8 E8.79952
G1 X99.747 Y76.324 E8.91988
G1 X101.939 Y77.726 E9.03555
G1 X104.233 Y79.104 E9.1545
G1 X106.575 Y80.421 E9.27394
G1 X108.916 Y81.653 E9.39153
G1 X111.284 Y82.814 E9.50877
G1 X113.757 Y83.936 E9.62948
G1 X113.984 Y84.043 E9.64064
G1 X114.883 Y84.565 E9.68685
G1 X115.715 Y85.149 E9.73204
G1 X115.904 Y85.288 E9.74246
G1 X116.46 Y85.705 E9.77336
G1 X116.994 Y86.155 E9.8044
G1 X117.473 Y86.664 E9.83547
G1 X117.89 Y87.223 E9.86647
G1 X118.241 Y87.827 E9.89753
G1 X118.567 Y88.598 E9.93474
G1 X118.858 Y89.446 E9.97459
G1 X118.953 Y89.739 E9.98828
G1 X119.161 Y90.408 E10.01942
G1 X119.33 Y91.086 E10.05048
G1 X119.42 Y91.778 E10.0815
G1 X119.431 Y92.476 E10.11254
G1 X119.361 Y93.171 E10.14359
G1 X119.167 Y94.01 E10.18187
G1 X118.878 Y94.948 E10.2255
G1 X118.797 Y95.197 E10.23714
G1 X118.576 Y95.844 E10.26753
G1 X118.312 Y96.491 E10.29859
G1 X118.031 Y97.015 E10.32502
G1 X116.605 Y99.386 E10.44801
G1 X115.289 Y101.722 E10.5672
G1 X114.06 Y104.055 E10.68441
G1 X112.89 Y106.438 E10.80242
G1 X112.684 Y106.88 E10.8241
G1 X112.088 Y108.152 E10.88654
G1 X111.756 Y108.766 E10.91757
G1 X111.356 Y109.338 E10.94859
G1 X110.893 Y109.861 E10.97964
G1 X110.374 Y110.328 E11.01068
G1 X109.804 Y110.732 E11.04174
G1 X109.193 Y111.069 E11.07275
G1 X108.546 Y111.333 E11.10382
G1 X107.874 Y111.522 E11.13485
G1 X107.185 Y111.632 E11.16586
G1 X106.43 Y111.671 E11.19947
G1 X106.241 Y111.674 E11.20787
G1 X79.036 Y111.673 E12.41719
G1 X78.355 Y111.663 E12.44747
G1 X77.659 Y111.613 E12.47849
G1 X76.973 Y111.484 E12.50952
G1 X76.306 Y111.277 E12.54056
G1 X75.667 Y110.995 E12.57161
G1 X74.785 Y110.444 E12.61784
G1 X74.761 Y110.426 E12.61917
G1 X74.227 Y109.976 E12.65021
G1 X73.748 Y109.467 E12.68128
G1 X73.331 Y108.908 E12.71228
G1 X72.98 Y108.304 E12.74334
G1 X72.615 Y107.417 E12.78597
G1 X72.417 Y106.8 E12.81478
G1 X71.93 Y105.214 E12.88853
G1 X71.076 Y102.691 E13.00693
G1 X70.15 Y100.191 E13.12544
G1 X69.338 Y98.16 E13.22267
G1 X67.911 Y94.703 E13.38892
G1 X67.173 Y92.842 E13.47791
G1 X67.112 Y92.71 E13.48438
G1 X66.788 Y91.885 E13.52378
G1 X65.738 Y89.409 E13.64333
G1 X64.658 Y87.051 E13.75862
G1 X64.048 Y85.814 E13.81993
G1 X63.634 Y84.949 E13.86255
G1 X63.368 Y84.301 E13.89369
G1 X63.07 Y83.432 E13.93453
G1 X62.973 Y83.132 E13.94854
G1 X62.766 Y82.465 E13.97959
G1 X62.598 Y81.787 E14.01064
G1 X62.508 Y81.095 E14.04166
G1 X62.498 Y80.397 E14.07269
G1 X62.567 Y79.702 E14.10374
G1 X62.76 Y78.867 E14.14183
G1 X63.019 Y78.023 E14.18108
G1 X63.14 Y77.653 E14.19838
G1 X63.349 Y77.042 E14.22709
G1 X63.613 Y76.395 E14.25815
G1 X63.948 Y75.783 E14.28916
G1 X64.352 Y75.213 E14.32022
G1 X64.818 Y74.693 E14.35126
G1 X65.45 Y74.144 E14.38847
G0 F3000 X65.715 Y74.495
G1 F1500 X66.45 Y73.943 E14.42933
G1 X66.691 Y73.768 E14.44257
G1 X67.252 Y73.372 E14.4731
G1 X67.932 Y72.96 E14.50844
G1 X69.046 Y72.389 E14.56408
G1 X69.109 Y72.358 E14.56721
G1 X71.431 Y71.133 E14.68391
G1 X72.956 Y70.259 E14.76204
G1 X73.046 Y70.214 E14.76651
G1 X74.208 Y69.56 E14.82579
G1 X74.813 Y69.265 E14.85571
G1 X75.448 Y69.045 E14.88558
G1 X76.105 Y68.901 E14.91548
G1 X76.668 Y68.841 E14.94065
G1 X77.364 Y68.802 E14.97163
G1 X77.521 Y68.795 E14.97862
G1 X78.123 Y68.778 E15.00539
G1 X78.796 Y68.799 E15.03532
G1 X79.461 Y68.9 E15.06522
G1 X80.319 Y69.155 E15.10501
G1 X81.574 Y69.639 E15.1648
G1 X84.2 Y70.61 E15.28926
G1 X85.768 Y71.149 E15.36296
G1 X88.352 Y71.971 E15.4835
G1 X90.933 Y72.71 E15.60284
G1 X93.136 Y73.28 E15.70399
G1 X94.316 Y73.569 E15.758
G1 X94.959 Y73.768 E15.78792
G1 X95.574 Y74.041 E15.81783
G1 X96.223 Y74.435 E15.85158
G1 X97.276 Y75.175 E15.90879
G1 X99.474 Y76.67 E16.02695
G1 X101.717 Y78.106 E16.14534
G1 X104.043 Y79.502 E16.26593
G1 X106.338 Y80.793 E16.38298
G1 X108.728 Y82.051 E16.50304
G1 X111.105 Y83.216 E16.62071
G1 X113.569 Y84.334 E16.74099
G1 X113.796 Y84.441 E16.75214
G1 X114.631 Y84.926 E16.79507
G1 X115.456 Y85.505 E16.83987
G1 X115.64 Y85.64 E16.85002
G1 X116.196 Y86.057 E16.88091
G1 X116.709 Y86.492 E16.91081
G1 X117.167 Y86.984 E16.94069
G1 X117.563 Y87.528 E16.9706
G1 X117.892 Y88.115 E17.00051
G1 X118.151 Y88.741 E17.03063
G1 X118.44 Y89.582 E17.07016
G1 X118.533 Y89.87 E17.08361
G1 X118.741 Y90.539 E17.11475
G1 X118.902 Y91.192 E17.14465
G1 X118.985 Y91.859 E17.17453
G1 X118.987 Y92.532 E17.20444
G1 X118.91 Y93.2 E17.23433
G1 X118.746 Y93.881 E17.26547
G1 X118.46 Y94.812 E17.30877
G1 X118.38 Y95.055 E17.32014
G1 X118.159 Y95.702 E17.35053
G1 X117.904 Y96.324 E17.38041
G1 X117.654 Y96.788 E17.40384
G1 X116.222 Y99.169 E17.52735
G1 X114.911 Y101.496 E17.64608
G1 X113.662 Y103.867 E17.7652
G1 X112.493 Y106.247 E17.88307
G1 X112.285 Y106.695 E17.90503
G1 X111.69 Y107.965 E17.96737
G1 X111.369 Y108.556 E17.99727
G1 X110.98 Y109.105 E18.02718
G1 X110.528 Y109.604 E18.0571
G1 X110.021 Y110.045 E18.08697
G1 X109.465 Y110.424 E18.11689
G1 X108.868 Y110.734 E18.14679
G1 X108.239 Y110.971 E18.17667
G1 X107.586 Y111.131 E18.20655
G1 X106.739 Y111.221 E18.24442
G1 X106.241 Y111.234 E18.26656
G1 X79.043 Y111.233 E19.47557
G1 X78.362 Y111.223 E19.50585
G1 X77.691 Y111.174 E19.53575
G1 X77.031 Y111.045 E19.56565
G1 X76.391 Y110.838 E19.59555
G1 X75.78 Y110.557 E19.62544
G1 X75.049 Y110.092 E19.66395
G1 X75.025 Y110.074 E19.66529
G1 X74.512 Y109.639 E19.69519
G1 X74.054 Y109.147 E19.72507
G1 X73.658 Y108.603 E19.75498
G1 X73.329 Y108.016 E19.78489
G1 X73.034 Y107.282 E19.82005
G1 X72.837 Y106.671 E19.84859
G1 X72.34 Y105.051 E19.92392
G1 X71.492 Y102.548 E20.04139
G1 X70.558 Y100.025 E20.16098
G1 X69.77 Y98.055 E20.2553
G1 X68.32 Y94.54 E20.42432
G1 X67.562 Y92.63 E20.51567
G1 X67.522 Y92.549 E20.51968
G1 X67.202 Y91.734 E20.5586
G1 X66.142 Y89.236 E20.67923
G1 X65.046 Y86.842 E20.79627
G1 X64.445 Y85.624 E20.85664
G1 X64.031 Y84.759 E20.89927
G1 X63.784 Y84.158 E20.92816
G1 X63.488 Y83.296 E20.96867
G1 X63.393 Y83.002 E20.98241
G1 X63.186 Y82.335 E21.01345
G1 X63.025 Y81.682 E21.04335
G1 X62.943 Y81.014 E21.07326
G1 X62.941 Y80.341 E21.10318
G1 X63.018 Y79.673 E21.13307
G1 X63.181 Y78.997 E21.16398
G1 X63.473 Y78.049 E21.20808
G1 X63.557 Y77.795 E21.21997
G1 X63.766 Y77.184 E21.24867
G1 X64.021 Y76.562 E21.27856
G1 X64.348 Y75.974 E21.30846
G1 X64.742 Y75.429 E21.33836
G1 X65.199 Y74.935 E21.36827
G1 X65.715 Y74.495 E21.39842
G0 F3000 X65.98 Y74.847
G1 F1500 X66.709 Y74.299 E21.43896
G1 X66.945 Y74.127 E21.45194
G1 X67.506 Y73.731 E21.48246
G1 X68.133 Y73.352 E21.51503
G1 X69.305 Y72.752 E21.57356
G1 X71.646 Y71.517 E21.69122
G1 X73.174 Y70.641 E21.76951
G1 X73.257 Y70.6 E21.77362
G1 X74.424 Y69.943 E21.83316
G1 X75.005 Y69.662 E21.86184
G1 X75.617 Y69.454 E21.89058
G1 X76.25 Y69.324 E21.9193
G1 X76.693 Y69.28 E21.93909
G1 X77.389 Y69.241 E21.97008
G1 X77.534 Y69.235 E21.97653
G1 X78.136 Y69.218 E22.0033
G1 X78.781 Y69.24 E22.03199
G1 X79.419 Y69.341 E22.0607
G1 X80.161 Y69.565 E22.09516
G1 X81.489 Y70.077 E22.15842
G1 X84.03 Y71.017 E22.27886
G1 X85.616 Y71.562 E22.35341
G1 X88.237 Y72.395 E22.47566
G1 X90.782 Y73.125 E22.59335
G1 X93.098 Y73.724 E22.69969
G1 X94.212 Y73.997 E22.75067
G1 X94.828 Y74.189 E22.77936
G1 X95.417 Y74.456 E22.8081
G1 X95.97 Y74.796 E22.83696
G1 X96.969 Y75.497 E22.89121
G1 X99.266 Y77.06 E23.01471
G1 X101.505 Y78.493 E23.13288
G1 X103.785 Y79.861 E23.25108
G1 X106.155 Y81.195 E23.37197
G1 X108.512 Y82.435 E23.49036
G1 X110.886 Y83.599 E23.60789
G1 X113.382 Y84.732 E23.72974
G1 X113.609 Y84.839 E23.74089
G1 X114.378 Y85.286 E23.78043
G1 X115.196 Y85.86 E23.82485
G1 X115.376 Y85.992 E23.83478
G1 X115.932 Y86.409 E23.86567
G1 X116.424 Y86.828 E23.8944
G1 X116.86 Y87.304 E23.92309
G1 X117.234 Y87.831 E23.95182
G1 X117.54 Y88.399 E23.9805
G1 X117.735 Y88.885 E24.00377
G1 X118.021 Y89.718 E24.04292
G1 X118.113 Y90 E24.05611
G1 X118.321 Y90.669 E24.08725
G1 X118.474 Y91.297 E24.11599
G1 X118.548 Y91.938 E24.14467
G1 X118.543 Y92.584 E24.17339
G1 X118.458 Y93.224 E24.20208
G1 X118.326 Y93.752 E24.22628
G1 X118.041 Y94.676 E24.26926
G1 X117.964 Y94.912 E24.2803
G1 X117.743 Y95.559 E24.31069
G1 X117.497 Y96.156 E24.33939
G1 X117.277 Y96.562 E24.35992
G1 X115.824 Y98.979 E24.48528
G1 X114.523 Y101.286 E24.60301
G1 X113.278 Y103.651 E24.72182
G1 X112.097 Y106.057 E24.84096
G1 X111.879 Y106.523 E24.86383
G1 X111.291 Y107.778 E24.92544
G1 X110.981 Y108.345 E24.95416
G1 X110.604 Y108.869 E24.98286
G1 X110.165 Y109.343 E25.01158
G1 X109.671 Y109.759 E25.04029
G1 X109.129 Y110.11 E25.06899
G1 X108.548 Y110.392 E25.0977
G1 X107.936 Y110.6 E25.12643
G1 X107.304 Y110.731 E25.15512
G1 X106.726 Y110.782 E25.18091
G1 X106.241 Y110.794 E25.20248
G1 X79.049 Y110.793 E26.41122
G1 X78.368 Y110.783 E26.4415
G1 X77.724 Y110.734 E26.47021
G1 X77.091 Y110.605 E26.49893
G1 X76.479 Y110.4 E26.52762
G1 X75.897 Y110.12 E26.55633
G1 X75.313 Y109.74 E26.5873
G1 X75.289 Y109.722 E26.58863
G1 X74.797 Y109.303 E26.61736
G1 X74.361 Y108.827 E26.64605
G1 X73.987 Y108.3 E26.67478
G1 X73.681 Y107.732 E26.70346
G1 X73.452 Y107.147 E26.73138
G1 X73.258 Y106.541 E26.75967
G1 X72.763 Y104.93 E26.83458
G1 X71.904 Y102.393 E26.95365
G1 X70.984 Y99.906 E27.07152
G1 X70.155 Y97.834 E27.17073
G1 X68.729 Y94.378 E27.33692
G1 X67.991 Y92.518 E27.42587
G1 X67.931 Y92.388 E27.43223
G1 X67.603 Y91.552 E27.47215
G1 X66.547 Y89.063 E27.59234
G1 X65.441 Y86.648 E27.71042
G1 X64.842 Y85.435 E27.77055
G1 X64.428 Y84.57 E27.81318
G1 X64.2 Y84.015 E27.83985
G1 X63.907 Y83.16 E27.88003
G1 X63.814 Y82.871 E27.89352
G1 X63.607 Y82.204 E27.92457
G1 X63.454 Y81.577 E27.95326
G1 X63.379 Y80.935 E27.98199
G1 X63.385 Y80.289 E28.01071
G1 X63.47 Y79.649 E28.03941
G1 X63.602 Y79.126 E28.06338
G1 X63.891 Y78.186 E28.1071
G1 X63.973 Y77.938 E28.11871
G1 X64.182 Y77.327 E28.14742
G1 X64.428 Y76.73 E28.17612
G1 X64.747 Y76.167 E28.20488
G1 X65.132 Y75.649 E28.23357
G1 X65.578 Y75.182 E28.26228
G1 X65.98 Y74.847 E28.28554
G1 F2400 E27.08554
G0 F3000 X91.393 Y83.321
G1 F2400 E28.28554
G1 F1500 X91.501 Y83.242 E28.29149
G1 X91.629 Y83.242 E28.29718
G1 X91.737 Y83.321 E28.30313
G1 X91.777 Y83.444 E28.30887
G1 X91.737 Y83.567 E28.31462
G1 X91.629 Y83.646 E28.32057
G1 X91.501 Y83.646 E28.32626
G1 X91.393 Y83.567 E28.33221
G1 X91.353 Y83.444 E28.33796
G1 X91.393 Y83.321 E28.34371
G0 F3000 X91.019 Y83.049
G1 F1500 X91.358 Y82.802 E28.36235
G1 X91.772 Y82.802 E28.38076
G1 X92.111 Y83.049 E28.3994
G1 X92.24 Y83.444 E28.41787
G1 X92.111 Y83.839 E28.43634
G1 X91.772 Y84.086 E28.45499
G1 X91.358 Y84.086 E28.47339
G1 X91.019 Y83.839 E28.49204
G1 X90.89 Y83.444 E28.51051
G1 X91.019 Y83.049 E28.52898
G0 F3000 X90.644 Y82.777
G1 F1500 X91.214 Y82.362 E28.56032
G1 X91.916 Y82.362 E28.59153
G1 X92.486 Y82.777 E28.62287
G1 X92.703 Y83.444 E28.65405
G1 X92.486 Y84.111 E28.68523
G1 X91.916 Y84.526 E28.71657
G1 X91.214 Y84.526 E28.74778
G1 X90.644 Y84.111 E28.77912
G1 X90.427 Y83.444 E28.8103
G1 X90.644 Y82.777 E28.84148
G0 F3000 X90.27 Y82.506
