;FLAVOR:Marlin
;TIME:1622
;Filament used: 2.10977m
;Layer height: 0.3
;MINX:73.79
;MINY:67.898
;MINZ:0.3
;MAXX:106.218
;MAXY:112.114
;MAXZ:45.9
;Generated with Cura_SteamEngine 4.13.1
M82 ;absolute extrusion mode
G21 ;metric values
G90 ;absolute positioning
M82 ;set extruder to absolute mode
M107 ;start with the fan off

M104 S225 T0 ; start heating T0 to what is set in Cura
M140 S75 ; start heating the bed to what is set in Cura
M190 S75 ; start heating the bed to what is set in Cura
M109 S225 T0 ; start heating T0 to what is set in Cura

G28 X0 Y0 ;move X/Y to min endstops
G28 Z0 ;move Z to min endstops
G1 Z15.0 F2400 ;move the platform down 15mm
G92 E0 ;zero the extruded length
G1 F2400
G0 Y20 F2400
M117 Printing...
G5
G92 E0
G92 E0
G1 F2400 E-1.2
;LAYER_COUNT:153
;LAYER:0
M107
M204 S500
G0 F3000 X79.032 Y70.232 Z0.3
;TYPE:SKIRT
G1 F2400 E0
G1 F1500 X79.532 Y69.71 E0.03213
G1 X80.087 Y69.247 E0.06426
G1 X80.69 Y68.848 E0.0964
G1 X81.333 Y68.518 E0.12853
G1 X82.009 Y68.261 E0.16068
G1 X82.709 Y68.079 E0.19283
G1 X83.623 Y67.963 E0.23378
G1 X84.482 Y67.916 E0.27202
G1 X85.074 Y67.898 E0.29835
G1 X85.797 Y67.916 E0.3305
G1 X86.513 Y68.014 E0.36263
G1 X87.215 Y68.19 E0.3948
G1 X87.892 Y68.442 E0.42691
G1 X88.538 Y68.768 E0.45907
G1 X89.143 Y69.163 E0.49119
G1 X89.702 Y69.623 E0.52337
G1 X90.206 Y70.141 E0.5555
G1 X90.497 Y70.5 E0.57604
G1 X92.171 Y72.722 E0.69971
G1 X93.813 Y74.775 E0.81657
G1 X95.521 Y76.791 E0.93402
G1 X97.29 Y78.763 E1.05178
G1 X99.091 Y80.662 E1.16812
G1 X100.992 Y82.552 E1.28728
G1 X102.908 Y84.355 E1.40424
G1 X104.047 Y85.38 E1.47235
G1 X104.557 Y85.893 E1.50451
G1 X105.007 Y86.459 E1.53665
G1 X105.392 Y87.071 E1.56879
G1 X105.707 Y87.721 E1.6009
G1 X105.948 Y88.403 E1.63305
G1 X106.113 Y89.107 E1.66519
G1 X106.209 Y90.053 E1.70746
G1 X106.218 Y90.73 E1.73756
G1 X106.115 Y102.586 E2.2646
G1 X106.111 Y103.429 E2.30208
G1 X106.11 Y104.919 E2.36831
G1 X106.101 Y105.646 E2.40063
G1 X106.053 Y106.367 E2.43275
G1 X105.924 Y107.079 E2.46491
G1 X105.718 Y107.772 E2.49705
G1 X105.437 Y108.438 E2.52918
G1 X105.084 Y109.069 E2.56132
G1 X104.663 Y109.657 E2.59347
G1 X104.181 Y110.195 E2.62558
G1 X103.641 Y110.677 E2.65776
G1 X103.052 Y111.096 E2.68989
G1 X102.42 Y111.447 E2.72202
G1 X101.753 Y111.727 E2.75418
G1 X101.06 Y111.931 E2.78629
G1 X100.348 Y112.058 E2.81844
G1 X99.745 Y112.102 E2.84532
G1 X99.241 Y112.114 E2.86773
G1 X86.03 Y112.113 E3.45498
G1 X85.349 Y112.103 E3.48526
G1 X84.628 Y112.053 E3.51739
G1 X83.916 Y111.923 E3.54956
G1 X83.224 Y111.715 E3.58168
G1 X82.558 Y111.432 E3.61385
G1 X81.928 Y111.078 E3.64597
G1 X81.497 Y110.778 E3.66931
G1 X80.943 Y110.313 E3.70147
G1 X80.445 Y109.789 E3.7336
G1 X80.007 Y109.214 E3.76573
G1 X79.635 Y108.594 E3.79787
G1 X79.334 Y107.937 E3.83
G1 X79.196 Y107.551 E3.84822
G1 X78.996 Y106.929 E3.87726
G1 X78.51 Y105.345 E3.95091
G1 X77.653 Y102.814 E4.0697
G1 X76.743 Y100.357 E4.18617
G1 X75.957 Y98.391 E4.28028
G1 X74.501 Y94.862 E4.44998
G1 X74.249 Y94.226 E4.48039
G1 X74.02 Y93.54 E4.51254
G1 X73.868 Y92.833 E4.54469
G1 X73.796 Y92.114 E4.57681
G1 X73.79 Y91.69 E4.59566
G1 X73.808 Y90.821 E4.6343
G1 X73.885 Y88.561 E4.73482
G1 X73.919 Y87.866 E4.76575
G1 X73.994 Y87.147 E4.79788
G1 X74.128 Y86.499 E4.8273
G1 X74.252 Y85.997 E4.85028
G1 X77.481 Y73.516 E5.42336
G1 X77.686 Y72.767 E5.45787
G1 X77.915 Y72.081 E5.49002
G1 X78.218 Y71.425 E5.52214
G1 X78.592 Y70.806 E5.55429
G1 X79.032 Y70.232 E5.58644
G0 F3000 X79.428 Y70.447
G1 F1500 X79.921 Y69.951 E5.61753
G1 X80.466 Y69.516 E5.64853
G1 X81.058 Y69.145 E5.67958
G1 X81.688 Y68.845 E5.7106
G1 X82.349 Y68.618 E5.74167
G1 X83.031 Y68.469 E5.7727
G1 X83.648 Y68.402 E5.80029
G1 X84.335 Y68.363 E5.83087
G1 X84.496 Y68.356 E5.83804
G1 X85.088 Y68.338 E5.86437
G1 X85.786 Y68.357 E5.89541
G1 X86.477 Y68.455 E5.92643
G1 X87.152 Y68.632 E5.95745
G1 X87.803 Y68.885 E5.9885
G1 X88.421 Y69.21 E6.01953
G1 X88.998 Y69.604 E6.05059
G1 X89.525 Y70.061 E6.0816
G1 X90.145 Y70.765 E6.1233
G1 X91.803 Y72.965 E6.24576
G1 X93.464 Y75.042 E6.36398
G1 X95.202 Y77.094 E6.48351
G1 X96.956 Y79.048 E6.60024
G1 X98.806 Y81 E6.71978
G1 X100.654 Y82.838 E6.83564
G1 X102.625 Y84.691 E6.9559
G1 X103.753 Y85.707 E7.02338
G1 X104.244 Y86.203 E7.05441
G1 X104.676 Y86.752 E7.08546
G1 X105.042 Y87.347 E7.11651
G1 X105.337 Y87.98 E7.14756
G1 X105.559 Y88.642 E7.17859
G1 X105.703 Y89.325 E7.20962
G1 X105.769 Y90.066 E7.24269
G1 X105.778 Y90.732 E7.2723
G1 X105.675 Y102.582 E7.79908
G1 X105.671 Y103.427 E7.83664
G1 X105.671 Y104.914 E7.90274
G1 X105.662 Y105.641 E7.93506
G1 X105.613 Y106.337 E7.96608
G1 X105.485 Y107.024 E7.99714
G1 X105.28 Y107.691 E8.02816
G1 X104.999 Y108.33 E8.05919
G1 X104.647 Y108.934 E8.09026
G1 X104.229 Y109.493 E8.12129
G1 X103.75 Y110 E8.1523
G1 X103.215 Y110.45 E8.18337
G1 X102.633 Y110.836 E8.21442
G1 X102.011 Y111.152 E8.24543
G1 X101.356 Y111.395 E8.27648
G1 X100.678 Y111.562 E8.30752
G1 X99.733 Y111.663 E8.34977
G1 X99.241 Y111.674 E8.37165
G1 X86.036 Y111.673 E8.95864
G1 X85.355 Y111.663 E8.98891
G1 X84.659 Y111.613 E9.01993
G1 X83.973 Y111.484 E9.05096
G1 X83.306 Y111.277 E9.082
G1 X82.667 Y110.995 E9.11305
G1 X81.785 Y110.444 E9.15928
G1 X81.761 Y110.426 E9.16061
G1 X81.227 Y109.976 E9.19166
G1 X80.748 Y109.467 E9.22273
G1 X80.331 Y108.908 E9.25373
G1 X79.98 Y108.304 E9.28478
G1 X79.615 Y107.417 E9.32742
G1 X79.417 Y106.8 E9.35622
G1 X78.93 Y105.214 E9.42997
G1 X78.076 Y102.691 E9.54838
G1 X77.15 Y100.191 E9.66688
G1 X76.338 Y98.16 E9.76412
G1 X74.91 Y94.7 E9.9305
G1 X74.658 Y94.064 E9.96091
G1 X74.438 Y93.401 E9.99197
G1 X74.296 Y92.718 E10.02298
G1 X74.23 Y91.699 E10.06837
G1 X74.247 Y90.836 E10.10674
G1 X74.324 Y88.583 E10.20695
G1 X74.358 Y87.888 E10.23788
G1 X74.494 Y86.873 E10.2834
G1 X74.662 Y86.172 E10.31544
G1 X77.907 Y73.626 E10.89149
G1 X78.11 Y72.883 E10.92573
G1 X78.332 Y72.221 E10.95677
G1 X78.629 Y71.589 E10.98781
G1 X78.996 Y70.995 E11.01885
G1 X79.428 Y70.447 E11.04987
G0 F3000 X79.824 Y70.665
G1 F1500 X80.307 Y70.197 E11.07976
G1 X80.843 Y69.79 E11.10968
G1 X81.423 Y69.45 E11.13957
G1 X82.039 Y69.18 E11.16946
G1 X82.683 Y68.986 E11.19936
G1 X83.673 Y68.841 E11.24384
G1 X84.36 Y68.802 E11.27443
G1 X85.101 Y68.778 E11.30738
G1 X85.773 Y68.797 E11.33727
G1 X86.439 Y68.896 E11.3672
G1 X87.087 Y69.074 E11.39707
G1 X87.711 Y69.327 E11.427
G1 X88.299 Y69.652 E11.45686
G1 X88.845 Y70.045 E11.48677
G1 X89.341 Y70.5 E11.51669
G1 X89.794 Y71.03 E11.54768
G1 X91.455 Y73.235 E11.6704
G1 X93.142 Y75.344 E11.79045
G1 X94.85 Y77.361 E11.90794
G1 X96.638 Y79.353 E12.02692
G1 X98.488 Y81.304 E12.14644
G1 X100.372 Y83.177 E12.26453
G1 X102.293 Y84.985 E12.3818
G1 X103.459 Y86.034 E12.45152
G1 X103.931 Y86.513 E12.48141
G1 X104.343 Y87.045 E12.51132
G1 X104.689 Y87.621 E12.54119
G1 X104.965 Y88.235 E12.57112
G1 X105.165 Y88.877 E12.60101
G1 X105.288 Y89.538 E12.63089
G1 X105.33 Y90.078 E12.65497
G1 X105.338 Y90.733 E12.68409
G1 X105.235 Y102.578 E13.21065
G1 X105.231 Y103.425 E13.2483
G1 X105.231 Y104.908 E13.31422
G1 X105.222 Y105.635 E13.34654
G1 X105.173 Y106.306 E13.37645
G1 X105.046 Y106.966 E13.40632
G1 X104.841 Y107.607 E13.43624
G1 X104.561 Y108.219 E13.46615
G1 X104.211 Y108.793 E13.49604
G1 X103.795 Y109.322 E13.52595
G1 X103.32 Y109.797 E13.55582
G1 X102.791 Y110.213 E13.58573
G1 X102.217 Y110.564 E13.61564
G1 X101.605 Y110.843 E13.64554
G1 X100.965 Y111.048 E13.67541
G1 X100.304 Y111.176 E13.70534
G1 X99.721 Y111.223 E13.73134
G1 X99.241 Y111.234 E13.75268
G1 X86.043 Y111.233 E14.33936
G1 X85.362 Y111.223 E14.36964
G1 X84.691 Y111.174 E14.39954
G1 X84.031 Y111.045 E14.42944
G1 X83.391 Y110.838 E14.45934
G1 X82.78 Y110.557 E14.48923
G1 X82.049 Y110.092 E14.52774
G1 X82.025 Y110.074 E14.52908
G1 X81.512 Y109.639 E14.55898
G1 X81.054 Y109.147 E14.58886
G1 X80.658 Y108.603 E14.61877
G1 X80.329 Y108.016 E14.64868
G1 X80.034 Y107.282 E14.68384
G1 X79.837 Y106.671 E14.71238
G1 X79.34 Y105.051 E14.78771
G1 X78.492 Y102.548 E14.90518
G1 X77.558 Y100.025 E15.02477
G1 X76.77 Y98.055 E15.11909
G1 X75.319 Y94.538 E15.28821
G1 X75.067 Y93.902 E15.31862
G1 X74.857 Y93.263 E15.34852
G1 X74.724 Y92.604 E15.3784
G1 X74.67 Y91.707 E15.41835
G1 X74.687 Y90.851 E15.45641
G1 X74.764 Y88.604 E15.55635
G1 X74.798 Y87.909 E15.58728
G1 X74.924 Y86.968 E15.62949
G1 X75.089 Y86.277 E15.66107
G1 X78.353 Y73.661 E16.24034
G1 X78.534 Y72.999 E16.27085
G1 X78.75 Y72.362 E16.30075
G1 X79.04 Y71.755 E16.33065
G1 X79.399 Y71.187 E16.36052
G1 X79.824 Y70.665 E16.39044
G0 F3000 X80.218 Y70.888
G1 F1500 X80.692 Y70.449 E16.41916
G1 X81.217 Y70.072 E16.44789
G1 X81.784 Y69.763 E16.4766
G1 X82.385 Y69.526 E16.50531
G1 X83.01 Y69.366 E16.53399
G1 X83.698 Y69.28 E16.56481
G1 X84.385 Y69.241 E16.5954
G1 X84.522 Y69.235 E16.6015
G1 X85.114 Y69.217 E16.62782
G1 X85.76 Y69.238 E16.65656
G1 X86.398 Y69.338 E16.68526
G1 X87.019 Y69.516 E16.71398
G1 X87.613 Y69.769 E16.74268
G1 X88.172 Y70.094 E16.77142
G1 X88.685 Y70.485 E16.80009
G1 X89.147 Y70.937 E16.82883
G1 X89.442 Y71.294 E16.84941
G1 X91.116 Y73.516 E16.97308
G1 X92.792 Y75.611 E17.09234
G1 X94.531 Y77.664 E17.21194
G1 X96.302 Y79.638 E17.32983
G1 X98.17 Y81.608 E17.45051
G1 X100.053 Y83.481 E17.56857
G1 X102.031 Y85.341 E17.68926
G1 X103.164 Y86.361 E17.75703
G1 X103.617 Y86.822 E17.78576
G1 X104.009 Y87.335 E17.81446
G1 X104.334 Y87.893 E17.84316
G1 X104.589 Y88.487 E17.8719
G1 X104.767 Y89.108 E17.90061
G1 X104.868 Y89.746 E17.92933
G1 X104.895 Y90.265 E17.95243
G1 X104.898 Y90.796 E17.97603
G1 X104.795 Y102.575 E18.49966
G1 X104.791 Y103.423 E18.53735
G1 X104.791 Y104.903 E18.60314
G1 X104.782 Y105.63 E18.63546
G1 X104.734 Y106.274 E18.66417
G1 X104.607 Y106.907 E18.69287
G1 X104.402 Y107.52 E18.7216
G1 X104.124 Y108.103 E18.75031
G1 X103.775 Y108.647 E18.77904
G1 X103.363 Y109.143 E18.8077
G1 X102.892 Y109.585 E18.83642
G1 X102.37 Y109.966 E18.86514
G1 X101.805 Y110.279 E18.89386
G1 X101.205 Y110.52 E18.9226
G1 X100.581 Y110.685 E18.95129
G1 X99.708 Y110.783 E18.99034
G1 X99.241 Y110.794 E19.0111
G1 X86.049 Y110.793 E19.59752
G1 X85.368 Y110.783 E19.62779
G1 X84.724 Y110.734 E19.6565
G1 X84.091 Y110.605 E19.68522
G1 X83.479 Y110.4 E19.71391
G1 X82.897 Y110.12 E19.74262
G1 X82.313 Y109.74 E19.77359
G1 X82.289 Y109.722 E19.77492
G1 X81.797 Y109.303 E19.80365
G1 X81.361 Y108.827 E19.83235
G1 X80.987 Y108.3 E19.86107
G1 X80.681 Y107.732 E19.88975
G1 X80.452 Y107.147 E19.91768
G1 X80.258 Y106.541 E19.94596
G1 X79.763 Y104.93 E20.02088
G1 X78.904 Y102.393 E20.13994
G1 X77.984 Y99.906 E20.25782
G1 X77.155 Y97.834 E20.35702
G1 X75.728 Y94.376 E20.52331
G1 X75.476 Y93.74 E20.55372
G1 X75.276 Y93.126 E20.58242
G1 X75.153 Y92.492 E20.61113
G1 X75.11 Y91.716 E20.64568
G1 X75.127 Y90.866 E20.68347
G1 X75.203 Y88.626 E20.7831
G1 X75.237 Y87.931 E20.81403
G1 X75.353 Y87.063 E20.85296
G1 X75.516 Y86.383 E20.88405
G1 X78.778 Y73.777 E21.46287
G1 X78.959 Y73.115 E21.49337
G1 X79.167 Y72.504 E21.52206
G1 X79.45 Y71.923 E21.55079
G1 X79.802 Y71.382 E21.57948
G1 X80.218 Y70.888 E21.60819
G1 F2400 E20.40819
;MESH:kp3s_3_0_hotend-fan_duct.stl
G0 F3000 X96.582 Y90.404
;TYPE:WALL-INNER
G1 F2400 E21.60819
G1 F1500 X96.582 Y91.322 E21.649
G1 X98.572 Y91.331 E21.73746
G1 X98.471 Y102.984 E22.25548
G1 X98.471 Y104.474 E22.32171
G1 X86.519 Y104.474 E22.85301
G1 X86.519 Y104.162 E22.86688
G1 X83.889 Y97.58 E23.18195
G1 X81.426 Y91.618 E23.4687
G1 X81.535 Y88.347 E23.61418
G1 X84.697 Y76.128 E24.17524
G1 X84.815 Y75.67 E24.19626
G1 X85.088 Y76.057 E24.20776
G1 X91.035 Y84.492 E24.66653
G1 X94.843 Y90.404 E24.97913
G1 X96.582 Y90.404 E25.05643
G0 F3000 X97.022 Y90.884
G1 F1500 X99.016 Y90.893 E25.14507
G1 X98.911 Y102.986 E25.68265
G1 X98.911 Y104.914 E25.76836
G1 X86.079 Y104.914 E26.33877
G1 X86.079 Y104.247 E26.36842
G1 X83.481 Y97.746 E26.67962
G1 X80.983 Y91.698 E26.9705
G1 X81.097 Y88.285 E27.1223
G1 X84.503 Y75.12 E27.72678
G1 X84.953 Y75.101 E27.7468
G1 X91.395 Y84.238 E28.24376
G1 X95.083 Y89.964 E28.54652
G1 X97.022 Y89.964 E28.63271
G1 X97.022 Y90.884 E28.67361
G0 F3000 X97.462 Y90.446
;TYPE:WALL-OUTER
G1 F1500 X99.46 Y90.455 E28.76242
G1 X99.351 Y102.988 E29.31956
G1 X99.351 Y105.354 E29.42474
G1 X85.639 Y105.354 E30.03426
G1 X85.639 Y104.332 E30.07969
G1 X83.073 Y97.912 E30.38703
G1 X80.54 Y91.778 E30.68203
G1 X80.659 Y88.223 E30.84015
G1 X84.159 Y74.693 E31.46138
G1 X85.175 Y74.651 E31.50658
G1 X91.755 Y83.984 E32.0142
G1 X95.323 Y89.524 E32.30712
G1 X97.462 Y89.524 E32.4022
G1 X97.462 Y90.446 E32.44319
G0 F3000 X97.662 Y90.446
G0 X97.659 Y90.93
G1 F2400 E31.24319
G0 F3000 X98.138 Y91.759
;TYPE:SKIN
G1 F2400 E32.44319
G1 F1500 X98.041 Y102.982 E32.94209
G1 X98.041 Y104.044 E32.9893
G1 X86.935 Y104.044 E33.48299
G1 X84.288 Y97.418 E33.80016
G1 X81.859 Y91.541 E34.08284
G1 X81.963 Y88.407 E34.22223
G1 X84.998 Y76.677 E34.76082
G1 X90.678 Y84.733 E35.19899
G1 X94.608 Y90.834 E35.52159
G1 X96.152 Y90.834 E35.59022
G1 X96.152 Y91.75 E35.63094
G1 X98.138 Y91.759 E35.71922
G1 F2400 E34.51922
G0 F3000 X87.666 Y103.844
G1 F2400 E35.71922
G1 F1500 X86.67 Y102.849 E35.78181
G1 X86.593 Y102.772
G1 F2400 E34.58181
G0 F3000 X86.257 Y101.813
G1 F2400 E35.78181
G1 F1500 X88.288 Y103.844 E35.90949
G0 F3000 X88.91 Y103.844
G1 F1500 X85.843 Y100.777 E36.10229
G1 X85.766 Y100.7
G1 F2400 E34.90229
G0 F3000 X85.429 Y99.741
G1 F2400 E36.10229
G1 F1500 X89.533 Y103.844 E36.36026
G0 F3000 X90.155 Y103.844
G1 F1500 X85.015 Y98.705 E36.68335
G1 X84.938 Y98.628
G1 F2400 E35.48335
G0 F3000 X84.601 Y97.669
G1 F2400 E36.68335
G1 F1500 X90.777 Y103.844 E37.07157
G0 F3000 X91.399 Y103.844
G1 F1500 X84.171 Y96.616 E37.52596
G1 X84.094 Y96.539
G1 F2400 E36.32596
G0 F3000 X83.732 Y95.555
G1 F2400 E37.52596
G1 F1500 X92.022 Y103.844 E38.04708
G0 F3000 X92.644 Y103.844
G1 F1500 X83.294 Y94.494 E38.63487
G1 X83.217 Y94.417
G1 F2400 E37.43487
G0 F3000 X82.855 Y93.433
G1 F2400 E38.63487
G1 F1500 X93.266 Y103.844 E39.28935
G0 F3000 X93.888 Y103.844
G1 F1500 X82.416 Y92.372 E40.01054
G1 X82.339 Y92.295
G1 F2400 E38.81054
G0 F3000 X82.061 Y91.395
G1 F2400 E40.01054
G1 F1500 X94.511 Y103.844 E40.79317
G0 F3000 X95.133 Y103.844
G1 F1500 X82.081 Y90.793 E41.61365
G0 F3000 X82.101 Y90.19
G1 F1500 X95.755 Y103.844 E42.47201
G0 F3000 X96.377 Y103.844
G1 F1500 X82.121 Y89.588 E43.36821
G0 F3000 X82.141 Y88.985
G1 F1500 X97 Y103.844 E44.30232
G0 F3000 X97.622 Y103.844
G1 F1500 X82.17 Y88.392 E45.27371
G0 F3000 X82.298 Y87.898
G1 F1500 X97.843 Y103.443 E46.25094
G0 F3000 X97.844 Y102.822
G1 F1500 X82.425 Y87.403 E47.22026
G0 F3000 X82.553 Y86.909
G1 F1500 X97.85 Y102.205 E48.18187
G0 F3000 X97.855 Y101.588
G1 F1500 X82.681 Y86.414 E49.13578
G0 F3000 X82.809 Y85.92
G1 F1500 X97.86 Y100.972 E50.08199
G0 F3000 X97.865 Y100.354
G1 F1500 X82.937 Y85.426 E51.02044
G0 F3000 X83.065 Y84.932
G1 F1500 X97.871 Y99.738 E51.95122
G0 F3000 X97.876 Y99.12
G1 F1500 X83.193 Y84.437 E52.87426
G0 F3000 X83.32 Y83.942
G1 F1500 X97.881 Y98.504 E53.78967
G0 F3000 X97.886 Y97.886
G1 F1500 X83.448 Y83.448 E54.69731
G0 F3000 X83.576 Y82.954
G1 F1500 X97.891 Y97.269 E55.59722
G0 F3000 X97.897 Y96.653
G1 F1500 X83.704 Y82.459 E56.48949
G0 F3000 X83.832 Y81.965
G1 F1500 X97.902 Y96.035 E57.374
G0 F3000 X97.908 Y95.419
G1 F1500 X83.96 Y81.471 E58.25084
G0 F3000 X84.088 Y80.977
G1 F1500 X97.913 Y94.801 E59.11992
G0 F3000 X97.918 Y94.185
G1 F1500 X94.765 Y91.032 E59.31813
G0 F3000 X95.387 Y91.032
G1 F1500 X95.953 Y91.597 E59.35368
G0 F3000 X96.305 Y91.949
G1 F1500 X97.923 Y93.567 E59.45539
G0 F3000 X97.929 Y92.951
G1 F1500 X96.93 Y91.952 E59.5182
G0 F3000 X97.555 Y91.954
G1 F1500 X97.934 Y92.334 E59.54205
G1 F2400 E58.34205
G0 F3000 X94.018 Y90.284
G1 F2400 E59.54205
G1 F1500 X84.216 Y80.482 E60.15825
G0 F3000 X84.343 Y79.987
G1 F1500 X92.891 Y88.536 E60.69565
G1 X92.968 Y88.613
G1 F2400 E59.49565
G0 F3000 X91.764 Y86.786
G1 F2400 E60.69565
G1 F1500 X84.471 Y79.493 E61.15413
G0 F3000 X84.599 Y78.999
G1 F1500 X90.638 Y85.038 E61.53377
G1 X90.715 Y85.115
G1 F2400 E60.33377
G0 F3000 X89.19 Y82.968
G1 F2400 E61.53377
G1 F1500 X84.727 Y78.505 E61.81434
G0 F3000 X84.855 Y78.01
G1 F1500 X87.703 Y80.859 E61.99341
G1 X87.78 Y80.936
G1 F2400 E60.79341
G0 F3000 X86.217 Y78.75
