;FLAVOR:Marlin
;TIME:2489
;Filament used: 3.91399m
;Layer height: 0.3
;MINX:58.36
;MINY:52.46
;MINZ:0.3
;MAXX:121.64
;MAXY:127.54
;MAXZ:26.1
;Generated with Cura_SteamEngine 4.13.1
M82 ;absolute extrusion mode
G21 ;metric values
G90 ;absolute positioning
M82 ;set extruder to absolute mode
M107 ;start with the fan off

M104 S225 T0 ; start heating T0 to what is set in Cura
M140 S75 ; start heating the bed to what is set in Cura
M190 S75 ; start heating the bed to what is set in Cura
M109 S225 T0 ; start heating T0 to what is set in Cura

G28 X0 Y0 ;move X/Y to min endstops
G28 Z0 ;move Z to min endstops
G1 Z15.0 F2400 ;move the platform down 15mm
G92 E0 ;zero the extruded length
G1 F2400
G0 Y20 F2400
M117 Printing...
G5
G92 E0
G92 E0
G1 F2400 E-1.2
;LAYER_COUNT:87
;LAYER:0
M107
M204 S500
G0 F3000 X68.149 Y54.864 Z0.3
;TYPE:SKIRT
G1 F2400 E0
G1 F1500 X68.638 Y54.331 E0.03215
G1 X69.182 Y53.855 E0.06429
G1 X69.776 Y53.442 E0.09645
G1 X70.411 Y53.098 E0.12855
G1 X71.081 Y52.825 E0.16071
G1 X71.777 Y52.628 E0.19286
G1 X72.49 Y52.509 E0.225
G1 X73.005 Y52.473 E0.24794
G1 X73.53 Y52.46 E0.27129
G1 X92.693 Y52.46 E1.12313
G1 X93.49 Y52.471 E1.15856
G1 X94.211 Y52.521 E1.19068
G1 X94.923 Y52.65 E1.22285
G1 X95.615 Y52.858 E1.25497
G1 X96.281 Y53.14 E1.28712
G1 X96.98 Y53.539 E1.3229
G1 X97.877 Y54.126 E1.37055
G1 X100.16 Y55.576 E1.49077
G1 X102.441 Y56.935 E1.6088
G1 X104.76 Y58.23 E1.72687
G1 X107.063 Y59.432 E1.84235
G1 X109.47 Y60.602 E1.96132
G1 X111.875 Y61.688 E2.07862
G1 X114.334 Y62.716 E2.19709
G1 X116.782 Y63.66 E2.31372
G1 X117.352 Y63.87 E2.34072
G1 X118.016 Y64.157 E2.37288
G1 X118.643 Y64.516 E2.405
G1 X119.228 Y64.942 E2.43717
G1 X119.762 Y65.429 E2.46929
G1 X120.239 Y65.973 E2.50145
G1 X120.652 Y66.566 E2.53358
G1 X120.998 Y67.201 E2.56572
G1 X121.272 Y67.87 E2.59786
G1 X121.47 Y68.565 E2.62998
G1 X121.59 Y69.278 E2.66212
G1 X121.628 Y69.825 E2.6865
G1 X121.64 Y70.33 E2.70895
G1 X121.639 Y120.345 E4.93223
G1 X121.63 Y121.072 E4.96455
G1 X121.582 Y121.793 E4.99667
G1 X121.453 Y122.505 E5.02883
G1 X121.247 Y123.198 E5.06097
G1 X120.966 Y123.864 E5.0931
G1 X120.613 Y124.495 E5.12524
G1 X120.192 Y125.083 E5.15739
G1 X119.71 Y125.621 E5.1895
G1 X119.17 Y126.103 E5.22167
G1 X118.581 Y126.522 E5.2538
G1 X117.949 Y126.873 E5.28594
G1 X117.282 Y127.153 E5.3181
G1 X116.589 Y127.357 E5.35021
G1 X115.877 Y127.484 E5.38236
G1 X115.274 Y127.528 E5.40923
G1 X114.77 Y127.54 E5.43164
G1 X73.814 Y127.539 E7.25223
G1 X73.113 Y127.529 E7.28339
G1 X72.391 Y127.479 E7.31556
G1 X71.68 Y127.349 E7.34769
G1 X70.987 Y127.142 E7.37984
G1 X70.322 Y126.86 E7.41195
G1 X69.691 Y126.505 E7.44414
G1 X69.104 Y126.084 E7.47625
G1 X68.621 Y125.658 E7.50487
G1 X68.282 Y125.33 E7.52584
G1 X60.685 Y117.732 E8.00346
G1 X60.214 Y117.246 E8.03354
G1 X59.74 Y116.7 E8.06568
G1 X59.329 Y116.105 E8.09783
G1 X58.987 Y115.468 E8.12997
G1 X58.717 Y114.797 E8.16212
G1 X58.523 Y114.101 E8.19424
G1 X58.407 Y113.387 E8.22639
G1 X58.369 Y112.768 E8.25396
G1 X58.36 Y112.218 E8.27841
G1 X58.361 Y77.614 E9.81664
G1 X58.371 Y76.91 E9.84793
G1 X58.421 Y76.189 E9.88006
G1 X58.55 Y75.477 E9.91223
G1 X58.758 Y74.785 E9.94435
G1 X59.04 Y74.119 E9.9765
G1 X59.249 Y73.729 E9.99616
G1 X59.617 Y73.093 E10.02883
G1 X60.943 Y70.715 E10.14986
G1 X62.149 Y68.404 E10.26573
G1 X63.325 Y65.984 E10.38534
G1 X64.407 Y63.587 E10.50224
G1 X65.42 Y61.166 E10.6189
G1 X66.384 Y58.66 E10.73826
G1 X66.828 Y57.402 E10.79756
G1 X67.074 Y56.738 E10.82903
G1 X67.363 Y56.075 E10.86118
G1 X67.722 Y55.448 E10.8933
G1 X68.149 Y54.864 E10.92546
G0 F3000 X68.535 Y55.088
G1 F1500 X69.014 Y54.579 E10.95653
G1 X69.548 Y54.129 E10.98757
G1 X70.13 Y53.743 E11.01862
G1 X70.752 Y53.426 E11.04965
G1 X71.406 Y53.182 E11.08068
G1 X72.084 Y53.014 E11.11173
G1 X73.018 Y52.913 E11.15349
G1 X73.53 Y52.9 E11.17626
G1 X92.693 Y52.9 E12.02809
G1 X93.484 Y52.911 E12.06326
G1 X94.18 Y52.96 E12.09427
G1 X94.866 Y53.09 E12.12531
G1 X95.533 Y53.296 E12.15634
G1 X96.172 Y53.578 E12.18739
G1 X96.739 Y53.907 E12.21653
G1 X97.678 Y54.522 E12.26643
G1 X99.91 Y55.939 E12.38395
G1 X102.212 Y57.311 E12.50307
G1 X104.553 Y58.618 E12.62226
G1 X106.892 Y59.838 E12.73952
G1 X109.265 Y60.992 E12.85682
G1 X111.706 Y62.094 E12.97587
G1 X114.145 Y63.114 E13.09339
G1 X116.675 Y64.09 E13.21393
G1 X117.2 Y64.283 E13.2388
G1 X117.84 Y64.562 E13.26983
G1 X118.444 Y64.911 E13.30084
G1 X119.005 Y65.328 E13.33191
G1 X119.514 Y65.806 E13.36295
G1 X119.965 Y66.339 E13.39399
G1 X120.352 Y66.92 E13.42502
G1 X120.671 Y67.542 E13.45609
G1 X120.916 Y68.195 E13.4871
G1 X121.085 Y68.873 E13.51816
G1 X121.189 Y69.837 E13.56126
G1 X121.2 Y70.33 E13.58318
G1 X121.2 Y120.34 E15.80623
G1 X121.191 Y121.067 E15.83855
G1 X121.142 Y121.763 E15.86957
G1 X121.014 Y122.45 E15.90063
G1 X120.809 Y123.117 E15.93165
G1 X120.528 Y123.756 E15.96268
G1 X120.176 Y124.36 E15.99376
G1 X119.758 Y124.919 E16.02478
G1 X119.279 Y125.426 E16.05579
G1 X118.744 Y125.876 E16.08686
G1 X118.162 Y126.262 E16.11791
G1 X117.54 Y126.578 E16.14892
G1 X116.885 Y126.821 E16.17998
G1 X116.207 Y126.988 E16.21102
G1 X115.262 Y127.089 E16.25326
G1 X114.77 Y127.1 E16.27514
G1 X73.82 Y127.099 E18.09545
G1 X73.119 Y127.089 E18.12662
G1 X72.422 Y127.039 E18.15768
G1 X71.736 Y126.91 E18.18871
G1 X71.069 Y126.704 E18.21974
G1 X70.43 Y126.422 E18.25079
G1 X69.828 Y126.069 E18.28181
G1 X69.072 Y125.476 E18.32452
G1 X68.59 Y125.016 E18.35414
G1 X61.001 Y117.426 E18.83125
G1 X60.53 Y116.94 E18.86134
G1 X60.073 Y116.412 E18.89238
G1 X59.68 Y115.835 E18.92341
G1 X59.355 Y115.216 E18.95449
G1 X59.104 Y114.565 E18.9855
G1 X58.928 Y113.889 E19.01656
G1 X58.813 Y112.901 E19.06077
G1 X58.8 Y112.213 E19.09136
G1 X58.801 Y77.62 E20.62909
G1 X58.811 Y76.916 E20.66039
G1 X58.86 Y76.22 E20.69141
G1 X58.99 Y75.534 E20.72244
G1 X59.196 Y74.867 E20.75347
G1 X59.63 Y73.949 E20.79861
G1 X59.988 Y73.33 E20.8304
G1 X61.331 Y70.922 E20.95296
G1 X62.555 Y68.575 E21.07063
G1 X63.716 Y66.189 E21.18858
G1 X64.813 Y63.756 E21.30722
G1 X65.831 Y61.325 E21.42437
G1 X66.792 Y58.825 E21.54343
G1 X67.241 Y57.555 E21.60331
G1 X67.487 Y56.891 E21.63479
G1 X67.767 Y56.251 E21.66584
G1 X68.118 Y55.647 E21.69689
G1 X68.535 Y55.088 E21.72789
G0 F3000 X68.92 Y55.314
G1 F1500 X69.389 Y54.832 E21.75779
G1 X69.912 Y54.408 E21.78772
G1 X70.481 Y54.05 E21.8176
G1 X71.088 Y53.761 E21.84748
G1 X71.726 Y53.547 E21.8774
G1 X72.384 Y53.41 E21.90727
G1 X73.032 Y53.353 E21.93619
G1 X73.53 Y53.34 E21.95834
G1 X92.693 Y53.34 E22.81017
G1 X93.477 Y53.351 E22.84503
G1 X94.148 Y53.4 E22.87493
G1 X94.808 Y53.529 E22.90483
G1 X95.449 Y53.735 E22.93476
G1 X96.06 Y54.016 E22.96465
G1 X96.498 Y54.275 E22.98727
G1 X97.428 Y54.884 E23.03669
G1 X99.7 Y56.327 E23.15633
G1 X102.009 Y57.702 E23.27579
G1 X104.318 Y58.992 E23.39336
G1 X106.692 Y60.231 E23.5124
G1 X109.074 Y61.389 E23.63013
G1 X111.524 Y62.495 E23.74962
G1 X113.999 Y63.53 E23.86888
G1 X116.505 Y64.496 E23.98826
G1 X117.048 Y64.696 E24.01399
G1 X117.664 Y64.966 E24.04388
G1 X118.244 Y65.306 E24.07377
G1 X118.779 Y65.714 E24.10368
G1 X119.262 Y66.181 E24.13354
G1 X119.687 Y66.703 E24.16346
G1 X120.046 Y67.272 E24.19337
G1 X120.336 Y67.879 E24.22327
G1 X120.551 Y68.516 E24.25316
G1 X120.689 Y69.174 E24.28305
G1 X120.749 Y69.849 E24.31317
G1 X120.76 Y70.33 E24.33456
G1 X120.76 Y120.334 E26.55734
G1 X120.751 Y121.061 E26.58966
G1 X120.702 Y121.732 E26.61957
G1 X120.575 Y122.392 E26.64945
G1 X120.37 Y123.033 E26.67936
G1 X120.09 Y123.645 E26.70928
G1 X119.74 Y124.219 E26.73916
G1 X119.324 Y124.748 E26.76908
G1 X118.849 Y125.223 E26.79894
G1 X118.32 Y125.639 E26.82885
G1 X117.746 Y125.99 E26.85876
G1 X117.134 Y126.269 E26.88866
G1 X116.494 Y126.474 E26.91853
G1 X115.833 Y126.602 E26.94846
G1 X115.25 Y126.649 E26.97446
G1 X114.77 Y126.66 E26.9958
G1 X73.826 Y126.659 E28.81585
G1 X73.125 Y126.649 E28.84702
G1 X72.454 Y126.6 E28.87693
G1 X71.794 Y126.471 E28.90682
G1 X71.154 Y126.265 E28.93671
G1 X70.543 Y125.984 E28.9666
G1 X69.969 Y125.633 E28.99651
G1 X69.37 Y125.152 E29.03066
G1 X68.897 Y124.701 E29.05971
G1 X61.317 Y117.12 E29.53626
G1 X60.846 Y116.634 E29.56634
G1 X60.407 Y116.124 E29.59625
G1 X60.032 Y115.566 E29.62614
G1 X59.726 Y114.967 E29.65604
G1 X59.493 Y114.336 E29.68594
G1 X59.337 Y113.682 E29.71583
G1 X59.253 Y112.886 E29.75141
G1 X59.24 Y112.207 E29.7816
G1 X59.241 Y77.627 E31.31875
G1 X59.251 Y76.923 E31.35005
G1 X59.3 Y76.252 E31.37996
G1 X59.429 Y75.592 E31.40985
G1 X59.635 Y74.951 E31.43978
G1 X60.01 Y74.169 E31.47833
G1 X60.416 Y73.467 E31.51438
G1 X61.713 Y71.142 E31.63272
G1 X62.948 Y68.775 E31.7514
G1 X64.112 Y66.38 E31.86977
G1 X65.206 Y63.956 E31.98799
G1 X66.241 Y61.483 E32.10716
G1 X67.212 Y58.959 E32.22738
G1 X67.654 Y57.708 E32.28635
G1 X67.9 Y57.044 E32.31783
G1 X68.17 Y56.428 E32.34773
G1 X68.512 Y55.849 E32.37762
G1 X68.92 Y55.314 E32.40753
G0 F3000 X69.304 Y55.544
G1 F1500 X69.762 Y55.088 E32.43626
G1 X70.273 Y54.693 E32.46497
G1 X70.829 Y54.363 E32.49371
G1 X71.421 Y54.105 E32.52242
G1 X72.04 Y53.922 E32.55111
G1 X72.677 Y53.817 E32.57981
G1 X73.368 Y53.782 E32.61056
G1 X73.53 Y53.78 E32.61776
G1 X92.693 Y53.78 E33.4696
G1 X93.471 Y53.791 E33.50419
G1 X94.115 Y53.84 E33.5329
G1 X94.748 Y53.968 E33.56161
G1 X95.361 Y54.173 E33.59034
G1 X95.943 Y54.453 E33.61905
G1 X96.256 Y54.643 E33.63532
G1 X97.149 Y55.228 E33.68278
G1 X99.466 Y56.7 E33.8048
G1 X101.795 Y58.087 E33.9253
G1 X104.096 Y59.372 E34.04245
G1 X106.508 Y60.63 E34.16338
G1 X108.883 Y61.785 E34.28078
G1 X111.355 Y62.901 E34.40134
G1 X113.81 Y63.928 E34.51963
G1 X116.393 Y64.924 E34.64269
G1 X116.896 Y65.109 E34.66652
G1 X117.487 Y65.369 E34.69522
G1 X118.041 Y65.701 E34.72393
G1 X118.55 Y66.098 E34.75262
G1 X119.007 Y66.555 E34.78135
G1 X119.403 Y67.065 E34.81006
G1 X119.733 Y67.62 E34.83876
G1 X119.993 Y68.212 E34.8675
G1 X120.177 Y68.831 E34.89621
G1 X120.283 Y69.468 E34.92491
G1 X120.318 Y70.185 E34.95682
G1 X120.32 Y70.33 E34.96327
G1 X120.32 Y120.329 E37.18583
G1 X120.311 Y121.056 E37.21815
G1 X120.263 Y121.7 E37.24686
G1 X120.136 Y122.333 E37.27556
G1 X119.931 Y122.946 E37.30429
G1 X119.653 Y123.529 E37.333
G1 X119.304 Y124.073 E37.36173
G1 X118.892 Y124.569 E37.39039
G1 X118.421 Y125.011 E37.41911
G1 X117.899 Y125.392 E37.44783
G1 X117.334 Y125.705 E37.47655
G1 X116.734 Y125.946 E37.50529
G1 X116.11 Y126.111 E37.53398
G1 X115.237 Y126.209 E37.57303
G1 X114.77 Y126.22 E37.59379
G1 X73.833 Y126.219 E39.41353
G1 X73.132 Y126.209 E39.4447
G1 X72.488 Y126.16 E39.47341
G1 X71.854 Y126.032 E39.50216
G1 X71.242 Y125.826 E39.53086
G1 X70.66 Y125.547 E39.55955
G1 X70.117 Y125.198 E39.58825
G1 X69.669 Y124.829 E39.61405
G1 X69.205 Y124.387 E39.64253
G1 X61.633 Y116.814 E40.11858
G1 X61.162 Y116.328 E40.14866
G1 X60.742 Y115.837 E40.17738
G1 X60.385 Y115.298 E40.20612
G1 X60.099 Y114.719 E40.23483
G1 X59.885 Y114.11 E40.26352
G1 X59.749 Y113.478 E40.29226
G1 X59.693 Y112.871 E40.31936
G1 X59.68 Y112.202 E40.3491
G1 X59.681 Y77.633 E41.88577
G1 X59.691 Y76.929 E41.91706
G1 X59.74 Y76.285 E41.94577
G1 X59.868 Y75.652 E41.97448
G1 X60.073 Y75.039 E42.00322
G1 X60.391 Y74.39 E42.03534
G1 X60.797 Y73.688 E42.07139
G1 X62.092 Y71.364 E42.18965
G1 X63.347 Y68.959 E42.31024
G1 X64.516 Y66.555 E42.42907
G1 X65.607 Y64.137 E42.54699
G1 X66.656 Y61.629 E42.66783
G1 X67.624 Y59.113 E42.78767
G1 X68.066 Y57.861 E42.84669
G1 X68.312 Y57.197 E42.87816
G1 X68.574 Y56.606 E42.9069
G1 X68.906 Y56.052 E42.93561
G1 X69.304 Y55.544 E42.9643
G1 F2400 E41.7643
;MESH:kp3s_3_0_hotend-fan_mount.stl
G0 F3000 X74.3 Y60.1
;TYPE:WALL-INNER
G1 F2400 E42.9643
G1 F1500 X74.745 Y60.1 E42.98408
G1 X81.455 Y60.1 E43.28235
G1 X84.745 Y60.1 E43.4286
G1 X91.455 Y60.1 E43.72688
G1 X92.3 Y60.1 E43.76444
G1 X92.3 Y60.945 E43.802
G1 X91.829 Y60.474 E43.81608
G1 X91.455 Y60.1 E43.8254
G1 X84.745 Y60.1
G1 X83.2 Y61.645 E43.92253
G1 X83.2 Y68.355 E44.2208
G1 X84.745 Y69.9 E44.31793
G1 X91.455 Y69.9 E44.6162
G1 X91.926 Y69.429 E44.64581
G1 X92.3 Y69.055 E44.66932
G1 X92.3 Y69.584 E44.68198
G1 X92.3 Y71.1 E44.74937
G1 X114 Y71.1 E45.71398
G1 X114 Y114.825 E47.65765
G1 X114 Y115.377 E47.68219
G1 X113.707 Y114.825 E47.69303
G1 X113.276 Y114.299 E47.72326
G1 X112.75 Y113.868 E47.75349
G1 X112.151 Y113.55 E47.78364
G1 X111.502 Y113.351 E47.81381
G1 X110.825 Y113.285 E47.84405
G1 X110.15 Y113.351 E47.8742
G1 X109.499 Y113.548 E47.90443
G1 X108.899 Y113.868 E47.93466
G1 X108.375 Y114.299 E47.96482
G1 X107.943 Y114.824 E47.99504
G1 X107.623 Y115.424 E48.02527
G1 X107.426 Y116.075 E48.0555
G1 X107.361 Y116.75 E48.08565
G1 X107.426 Y117.425 E48.11579
G1 X107.623 Y118.076 E48.14602
G1 X107.943 Y118.676 E48.17625
G1 X108.375 Y119.201 E48.20647
G1 X108.899 Y119.632 E48.23663
G1 X109.401 Y119.9 E48.26193
G1 X108.899 Y119.9 E48.2682
G1 X73.656 Y119.9 E49.83483
G1 X66 Y112.244 E50.31612
G1 X66 Y81.738 E51.67218
G1 X66.274 Y81.963 E51.68794
G1 X66.874 Y82.283 E51.71817
G1 X67.525 Y82.48 E51.7484
G1 X68.2 Y82.546 E51.77855
G1 X68.875 Y82.48 E51.8087
G1 X69.526 Y82.283 E51.83893
G1 X70.126 Y81.963 E51.86916
G1 X70.651 Y81.532 E51.89936
G1 X71.082 Y81.007 E51.92955
G1 X71.402 Y80.407 E51.95978
G1 X71.599 Y79.756 E51.99001
G1 X71.665 Y79.081 E52.02016
G1 X71.599 Y78.406 E52.05031
G1 X71.402 Y77.755 E52.08054
G1 X71.082 Y77.155 E52.11077
G1 X70.651 Y76.631 E52.14093
G1 X70.126 Y76.199 E52.17115
G1 X69.526 Y75.879 E52.20138
G1 X68.875 Y75.682 E52.23161
G1 X68.242 Y75.62 E52.25989
G1 X68.639 Y75.285 E52.27113
G1 X74.3 Y70.512 E52.60028
G1 X74.3 Y69.984 E52.62375
G1 X74.3 Y69.455 E52.64727
G1 X74.745 Y69.9 E52.66335
G1 X81.455 Y69.9 E52.96162
G1 X83 Y68.355 E53.05875
G1 X83 Y61.645 E53.19464
G1 X81.455 Y60.1 E53.29176
G1 X74.745 Y60.1
G1 X74.3 Y60.545 E53.31974
G1 X74.3 Y60.1 E53.32531
G1 F2400 E52.12531
G0 F3000 X114 Y118.123
G1 F2400 E53.32531
G1 F1500 X114 Y118.675 E53.34985
G1 X114 Y119.9 E53.4043
G1 X112.75 Y119.9 E53.45987
G1 X112.245 Y119.9 E53.48232
G1 X112.75 Y119.632 E53.49159
G1 X113.276 Y119.201 E53.52182
G1 X113.707 Y118.675 E53.55205
G1 X114 Y118.123 E53.56289
G1 F2400 E52.36289
G0 F3000 X110.236 Y119.715
G1 F2400 E53.56289
G1 F1500 X110.825 Y119.773 E53.5892
G1 X111.415 Y119.715 E53.61555
G1 X111.982 Y119.542 E53.6419
G1 X112.505 Y119.264 E53.66823
G1 X112.963 Y118.888 E53.69457
G1 X113.339 Y118.43 E53.72091
G1 X113.617 Y117.907 E53.74724
G1 X113.791 Y117.339 E53.77365
G1 X113.848 Y116.75 E53.79995
G1 X113.791 Y116.161 E53.82626
G1 X113.617 Y115.593 E53.85267
G1 X113.339 Y115.07 E53.879
G1 X112.963 Y114.612 E53.90534
G1 X112.505 Y114.236 E53.93168
G1 X111.982 Y113.958 E53.95801
G1 X111.415 Y113.785 E53.98436
G1 X110.825 Y113.727 E54.01071
G1 X110.236 Y113.785 E54.03702
G1 X109.668 Y113.957 E54.0634
G1 X109.145 Y114.236 E54.08975
G1 X108.688 Y114.612 E54.11606
G1 X108.311 Y115.07 E54.14243
G1 X108.032 Y115.593 E54.16878
G1 X107.86 Y116.161 E54.19516
G1 X107.803 Y116.75 E54.22146
G1 X107.86 Y117.339 E54.24777
G1 X108.032 Y117.907 E54.27415
G1 X108.311 Y118.43 E54.3005
G1 X108.688 Y118.888 E54.32687
G1 X109.145 Y119.264 E54.35317
G1 X109.668 Y119.543 E54.37952
G1 X110.236 Y119.715 E54.4059
G0 F3000 X110.322 Y119.281
;TYPE:WALL-OUTER
G1 F1500 X110.825 Y119.331 E54.42837
G1 X111.329 Y119.281 E54.45089
G1 X111.813 Y119.134 E54.47337
G1 X112.259 Y118.896 E54.49584
G1 X112.65 Y118.575 E54.51833
G1 X112.971 Y118.184 E54.54082
G1 X113.209 Y117.738 E54.56329
G1 X113.357 Y117.253 E54.58583
G1 X113.406 Y116.75 E54.6083
G1 X113.357 Y116.247 E54.63076
G1 X113.209 Y115.762 E54.6533
G1 X112.971 Y115.316 E54.67578
G1 X112.65 Y114.925 E54.69826
G1 X112.259 Y114.604 E54.72075
G1 X111.813 Y114.366 E54.74322
G1 X111.329 Y114.219 E54.76571
G1 X110.825 Y114.169 E54.78822
G1 X110.322 Y114.219 E54.81069
G1 X109.837 Y114.366 E54.83322
G1 X109.391 Y114.604 E54.85569
G1 X109.001 Y114.925 E54.87815
G1 X108.679 Y115.316 E54.90066
G1 X108.441 Y115.762 E54.92313
G1 X108.294 Y116.247 E54.94566
G1 X108.245 Y116.75 E54.96813
G1 X108.294 Y117.253 E54.99059
G1 X108.441 Y117.738 E55.01312
G1 X108.679 Y118.184 E55.03559
G1 X109.001 Y118.575 E55.05811
G1 X109.391 Y118.896 E55.08056
G1 X109.837 Y119.134 E55.10303
G1 X110.322 Y119.281 E55.12556
G0 F3000 X110.521 Y119.3
G0 X110.473 Y119.782
