;FLAVOR:Marlin
;TIME:4240
;Filament used: 5.13934m
;Layer height: 0.3
;MINX:52.46
;MINY:60.01
;MINZ:0.3
;MAXX:126.54
;MAXY:119.13
;MAXZ:38.1
;Generated with Cura_SteamEngine 4.13.1
M82 ;absolute extrusion mode
G21 ;metric values
G90 ;absolute positioning
M82 ;set extruder to absolute mode
M107 ;start with the fan off

M104 S225 T0 ; start heating T0 to what is set in Cura
M140 S75 ; start heating the bed to what is set in Cura
M190 S75 ; start heating the bed to what is set in Cura
M109 S225 T0 ; start heating T0 to what is set in Cura

G28 X0 Y0 ;move X/Y to min endstops
G28 Z0 ;move Z to min endstops
G1 Z15.0 F2400 ;move the platform down 15mm
G92 E0 ;zero the extruded length
G1 F2400
G0 Y20 F2400
M117 Printing...
G5
G92 E0
G92 E0
G1 F2400 E-1.2
;LAYER_COUNT:127
;LAYER:0
M107
M204 S500
G0 F3000 X57.541 Y61.605 Z0.3
;TYPE:SKIRT
G1 F2400 E0
G1 F1500 X58.114 Y61.164 E0.03214
G1 X58.732 Y60.789 E0.06427
G1 X59.388 Y60.484 E0.09643
G1 X60.073 Y60.254 E0.12855
G1 X60.78 Y60.101 E0.16071
G1 X61.627 Y60.022 E0.19852
G1 X62.13 Y60.01 E0.22089
G1 X62.293 Y60.01 E0.22813
G1 X63.088 Y60.021 E0.26348
G1 X64.116 Y60.117 E0.30937
G1 X64.664 Y60.235 E0.33429
G1 X67.264 Y60.911 E0.45371
G1 X69.865 Y61.508 E0.57234
G1 X72.409 Y62.018 E0.68767
G1 X75.039 Y62.467 E0.80627
G1 X77.646 Y62.838 E0.92333
G1 X80.283 Y63.136 E1.04129
G1 X82.918 Y63.359 E1.15884
G1 X85.584 Y63.509 E1.27754
G1 X88.181 Y63.582 E1.39303
G1 X90.85 Y63.58 E1.51167
G1 X93.484 Y63.505 E1.62881
G1 X96.123 Y63.354 E1.74631
G1 X98.733 Y63.132 E1.86275
G1 X101.378 Y62.83 E1.98109
G1 X104.026 Y62.453 E2.09998
G1 X106.591 Y62.012 E2.21568
G1 X109.205 Y61.487 E2.33419
G1 X111.762 Y60.898 E2.45083
G1 X113.112 Y60.555 E2.51275
G1 X114.33 Y60.236 E2.56872
G1 X115.017 Y60.095 E2.5999
G1 X115.827 Y60.022 E2.63605
G1 X116.33 Y60.01 E2.65841
G1 X116.577 Y60.011 E2.66939
G1 X117.275 Y60.02 E2.70042
G1 X117.997 Y60.069 E2.73259
G1 X118.708 Y60.197 E2.76471
G1 X119.401 Y60.404 E2.79686
G1 X120.067 Y60.685 E2.82899
G1 X120.698 Y61.039 E2.86115
G1 X121.286 Y61.46 E2.8933
G1 X121.824 Y61.943 E2.92544
G1 X122.305 Y62.482 E2.95755
G1 X122.724 Y63.072 E2.98972
G1 X123.075 Y63.704 E3.02185
G1 X123.354 Y64.371 E3.05399
G1 X123.558 Y65.065 E3.08615
G1 X123.707 Y65.997 E3.1281
G1 X123.813 Y67.239 E3.18351
G1 X123.843 Y67.659 E3.20223
G1 X124.106 Y70.276 E3.31915
G1 X124.448 Y72.916 E3.43748
G1 X124.86 Y75.525 E3.55489
G1 X125.344 Y78.108 E3.67171
G1 X125.914 Y80.738 E3.79134
G1 X126.235 Y82.051 E3.85142
G1 X126.352 Y82.56 E3.87464
G1 X126.475 Y83.272 E3.90676
G1 X126.517 Y83.89 E3.93429
G1 X126.539 Y84.958 E3.98178
G1 X126.54 Y104.343 E4.84348
G1 X126.529 Y105.137 E4.87878
G1 X126.479 Y105.859 E4.91095
G1 X126.39 Y106.388 E4.9348
G1 X126.308 Y106.775 E4.95238
G1 X125.823 Y108.881 E5.04845
G1 X125.304 Y111.462 E5.16548
G1 X125.044 Y112.969 E5.23345
G1 X124.918 Y113.645 E5.26402
G1 X124.747 Y114.348 E5.29618
G1 X124.499 Y115.027 E5.32832
G1 X124.177 Y115.675 E5.36048
G1 X123.786 Y116.283 E5.39261
G1 X123.113 Y117.071 E5.43868
G1 X122.98 Y117.204 E5.44704
G1 X122.442 Y117.687 E5.47918
G1 X121.853 Y118.107 E5.51134
G1 X121.222 Y118.459 E5.54345
G1 X120.555 Y118.739 E5.57561
G1 X119.862 Y118.944 E5.60774
G1 X119.15 Y119.072 E5.63989
G1 X118.575 Y119.116 E5.66553
G1 X117.878 Y119.13 E5.69652
G1 X95.245 Y119.129 E6.7026
G1 X94.538 Y119.118 E6.73403
G1 X93.817 Y119.067 E6.76616
G1 X93.106 Y118.937 E6.79829
G1 X92.551 Y118.776 E6.82398
G1 X92.019 Y118.596 E6.84895
G1 X90.306 Y117.992 E6.92969
G1 X87.741 Y117.168 E7.04945
G1 X85.237 Y116.44 E7.16537
G1 X82.68 Y115.775 E7.28281
G1 X80.057 Y115.17 E7.40247
G1 X77.505 Y114.661 E7.51815
G1 X74.913 Y114.218 E7.63504
G1 X72.29 Y113.844 E7.75281
G1 X69.623 Y113.543 E7.87212
G1 X67.045 Y113.323 E7.98714
G1 X64.352 Y113.172 E8.10703
G1 X61.714 Y113.097 E8.22434
G1 X60.413 Y113.079 E8.28218
G1 X59.692 Y113.029 E8.31431
G1 X58.981 Y112.9 E8.34643
G1 X58.288 Y112.692 E8.37859
G1 X57.622 Y112.41 E8.41074
G1 X56.992 Y112.056 E8.44287
G1 X56.405 Y111.634 E8.475
G1 X55.916 Y111.204 E8.50395
G1 X55.576 Y110.874 E8.52501
G1 X54.785 Y110.082 E8.57477
G1 X54.314 Y109.596 E8.60485
G1 X53.84 Y109.05 E8.63699
G1 X53.429 Y108.455 E8.66914
G1 X53.087 Y107.818 E8.70128
G1 X52.817 Y107.147 E8.73343
G1 X52.623 Y106.451 E8.76555
G1 X52.507 Y105.737 E8.7977
G1 X52.469 Y105.118 E8.82527
G1 X52.46 Y104.568 E8.84972
G1 X52.461 Y84.68 E9.73379
G1 X52.472 Y83.974 E9.76518
G1 X52.499 Y83.473 E9.78748
G1 X52.661 Y82.505 E9.83111
G1 X52.797 Y81.953 E9.85638
G1 X53.417 Y79.263 E9.97909
G1 X53.927 Y76.731 E10.0939
G1 X54.379 Y74.099 E10.21261
G1 X54.754 Y71.464 E10.33092
G1 X55.053 Y68.842 E10.44823
G1 X55.295 Y66.003 E10.57489
G1 X55.396 Y65.287 E10.60703
G1 X55.575 Y64.587 E10.63915
G1 X55.831 Y63.91 E10.67133
G1 X56.16 Y63.267 E10.70343
G1 X56.558 Y62.663 E10.73559
G1 X57.02 Y62.107 E10.76772
G1 X57.541 Y61.605 E10.79988
G0 F3000 X57.957 Y61.831
G1 F1500 X58.522 Y61.421 E10.83091
G1 X59.131 Y61.079 E10.86196
G1 X59.775 Y60.809 E10.893
G1 X60.445 Y60.614 E10.92402
G1 X61.134 Y60.497 E10.95509
G1 X61.639 Y60.461 E10.97759
G1 X62.293 Y60.45 E11.00667
G1 X63.082 Y60.461 E11.04174
G1 X64.04 Y60.55 E11.08451
G1 X64.554 Y60.66 E11.10788
G1 X67.162 Y61.338 E11.22766
G1 X69.787 Y61.941 E11.34739
G1 X72.355 Y62.455 E11.46381
G1 X74.975 Y62.902 E11.58195
G1 X77.606 Y63.277 E11.70009
G1 X80.23 Y63.573 E11.81747
G1 X82.893 Y63.799 E11.93627
G1 X85.512 Y63.947 E12.05288
G1 X88.203 Y64.022 E12.17255
G1 X90.826 Y64.02 E12.28915
G1 X93.524 Y63.943 E12.40913
G1 X96.15 Y63.793 E12.52605
G1 X98.784 Y63.569 E12.64356
G1 X101.454 Y63.264 E12.76302
G1 X104.056 Y62.893 E12.87985
G1 X106.679 Y62.442 E12.99816
G1 X109.317 Y61.912 E13.11777
G1 X111.852 Y61.329 E13.2334
G1 X113.255 Y60.972 E13.29775
G1 X114.441 Y60.662 E13.35224
G1 X115.083 Y60.53 E13.38138
G1 X115.839 Y60.461 E13.41512
G1 X116.493 Y60.45 E13.4442
G1 X117.27 Y60.46 E13.47874
G1 X117.966 Y60.508 E13.50975
G1 X118.653 Y60.637 E13.54083
G1 X119.32 Y60.843 E13.57186
G1 X119.959 Y61.123 E13.60287
G1 X120.562 Y61.475 E13.63391
G1 X121.121 Y61.894 E13.66496
G1 X121.629 Y62.374 E13.69603
G1 X122.078 Y62.908 E13.72704
G1 X122.463 Y63.491 E13.7581
G1 X122.779 Y64.113 E13.78911
G1 X123.022 Y64.768 E13.82017
G1 X123.189 Y65.446 E13.85121
G1 X123.268 Y66.034 E13.87758
G1 X123.374 Y67.271 E13.93277
G1 X123.405 Y67.698 E13.9518
G1 X123.667 Y70.309 E14.06845
G1 X124.016 Y73.005 E14.18929
G1 X124.421 Y75.568 E14.30463
G1 X124.916 Y78.209 E14.42408
G1 X125.483 Y80.829 E14.54324
G1 X125.806 Y82.149 E14.60364
G1 X125.923 Y82.658 E14.62686
G1 X126.04 Y83.347 E14.65793
G1 X126.077 Y83.899 E14.68252
G1 X126.099 Y84.967 E14.73
G1 X126.1 Y104.343 E15.59131
G1 X126.089 Y105.131 E15.62634
G1 X126.039 Y105.828 E15.6574
G1 X125.905 Y106.559 E15.69044
G1 X125.398 Y108.762 E15.79093
G1 X124.867 Y111.407 E15.91085
G1 X124.612 Y112.889 E15.9777
G1 X124.486 Y113.565 E16.00826
G1 X124.319 Y114.243 E16.0393
G1 X124.075 Y114.897 E16.07033
G1 X123.759 Y115.52 E16.10138
G1 X123.373 Y116.102 E16.13243
G1 X122.802 Y116.76 E16.17116
G1 X122.669 Y116.893 E16.17952
G1 X122.148 Y117.358 E16.21056
G1 X121.577 Y117.76 E16.2416
G1 X120.964 Y118.094 E16.27263
G1 X120.317 Y118.356 E16.30366
G1 X119.644 Y118.543 E16.33471
G1 X118.954 Y118.651 E16.36576
G1 X118.412 Y118.682 E16.38989
G1 X117.873 Y118.69 E16.41385
G1 X95.252 Y118.689 E17.4194
G1 X94.545 Y118.678 E17.45084
G1 X93.849 Y118.627 E17.48186
G1 X93.163 Y118.497 E17.51289
G1 X92.247 Y118.209 E17.55558
G1 X90.438 Y117.571 E17.64085
G1 X87.901 Y116.757 E17.75928
G1 X85.355 Y116.017 E17.87714
G1 X82.75 Y115.339 E17.9968
G1 X80.175 Y114.746 E18.11426
G1 X77.587 Y114.229 E18.23157
G1 X74.948 Y113.778 E18.35058
G1 X72.334 Y113.406 E18.46795
G1 X69.708 Y113.109 E18.58543
G1 X67.036 Y112.881 E18.70464
G1 X64.425 Y112.734 E18.82088
G1 X61.675 Y112.657 E18.94318
G1 X60.42 Y112.639 E18.99897
G1 X59.723 Y112.59 E19.03003
G1 X59.037 Y112.46 E19.06107
G1 X58.37 Y112.254 E19.0921
G1 X57.731 Y111.972 E19.12314
G1 X57.128 Y111.619 E19.1542
G1 X56.37 Y111.023 E19.19707
G1 X55.884 Y110.56 E19.22691
G1 X55.101 Y109.776 E19.27616
G1 X54.63 Y109.29 E19.30625
G1 X54.173 Y108.762 E19.33729
G1 X53.78 Y108.185 E19.36832
G1 X53.455 Y107.566 E19.3994
G1 X53.204 Y106.915 E19.43041
G1 X53.028 Y106.239 E19.46146
G1 X52.913 Y105.251 E19.50568
G1 X52.9 Y104.563 E19.53627
G1 X52.901 Y84.687 E20.4198
G1 X52.912 Y83.981 E20.45119
G1 X52.937 Y83.513 E20.47202
G1 X53.088 Y82.61 E20.51272
G1 X53.234 Y82.017 E20.53986
G1 X53.843 Y79.376 E20.66034
G1 X54.363 Y76.792 E20.77751
G1 X54.814 Y74.163 E20.89608
G1 X55.188 Y71.539 E21.0139
G1 X55.489 Y68.896 E21.13215
G1 X55.733 Y66.04 E21.25957
G1 X55.832 Y65.349 E21.2906
G1 X56.01 Y64.674 E21.32163
G1 X56.263 Y64.023 E21.35268
G1 X56.589 Y63.406 E21.3837
G1 X56.984 Y62.83 E21.41474
G1 X57.442 Y62.302 E21.44581
G1 X57.957 Y61.831 E21.47684
G0 F3000 X58.371 Y62.065
G1 F1500 X58.928 Y61.688 E21.50673
G1 X59.526 Y61.381 E21.53662
G1 X60.157 Y61.146 E21.56655
G1 X60.81 Y60.988 E21.59641
G1 X61.651 Y60.901 E21.634
G1 X62.293 Y60.89 E21.66254
G1 X63.076 Y60.901 E21.69735
G1 X63.965 Y60.984 E21.73704
G1 X64.443 Y61.086 E21.75876
G1 X67.052 Y61.765 E21.8786
G1 X69.682 Y62.368 E21.99855
G1 X72.294 Y62.892 E22.11697
G1 X74.876 Y63.332 E22.2334
G1 X77.562 Y63.714 E22.354
G1 X80.183 Y64.011 E22.47125
G1 X82.864 Y64.238 E22.59086
G1 X85.51 Y64.387 E22.70866
G1 X88.191 Y64.462 E22.82788
G1 X90.84 Y64.46 E22.94564
G1 X93.526 Y64.383 E23.06509
G1 X96.176 Y64.232 E23.18308
G1 X98.872 Y64.002 E23.30335
G1 X101.493 Y63.703 E23.42062
G1 X104.126 Y63.328 E23.53884
G1 X106.768 Y62.874 E23.65801
G1 X109.366 Y62.352 E23.7758
G1 X112.004 Y61.745 E23.89613
G1 X113.325 Y61.408 E23.95673
G1 X114.552 Y61.087 E24.01311
G1 X115.15 Y60.965 E24.04024
G1 X115.851 Y60.901 E24.07153
G1 X116.566 Y60.89 E24.10332
G1 X117.264 Y60.899 E24.13435
G1 X117.935 Y60.948 E24.16426
G1 X118.595 Y61.076 E24.19414
G1 X119.236 Y61.281 E24.22406
G1 X119.847 Y61.561 E24.25393
G1 X120.421 Y61.911 E24.28382
G1 X120.95 Y62.327 E24.31373
G1 X121.425 Y62.803 E24.34362
G1 X121.841 Y63.332 E24.37354
G1 X122.191 Y63.906 E24.40342
G1 X122.47 Y64.518 E24.43332
G1 X122.675 Y65.159 E24.46324
G1 X122.83 Y66.072 E24.5044
G1 X122.936 Y67.302 E24.55928
G1 X122.967 Y67.74 E24.5788
G1 X123.236 Y70.407 E24.69796
G1 X123.575 Y73.027 E24.81539
G1 X123.993 Y75.68 E24.93478
G1 X124.481 Y78.284 E25.05255
G1 X125.049 Y80.903 E25.17167
G1 X125.377 Y82.248 E25.23321
G1 X125.494 Y82.757 E25.25643
G1 X125.606 Y83.42 E25.28632
G1 X125.637 Y83.908 E25.30806
G1 X125.66 Y85.093 E25.36074
G1 X125.659 Y104.424 E26.22005
G1 X125.649 Y105.125 E26.25121
G1 X125.6 Y105.796 E26.28112
G1 X125.474 Y106.469 E26.31155
G1 X124.965 Y108.682 E26.4125
G1 X124.435 Y111.319 E26.53206
G1 X124.179 Y112.808 E26.59922
G1 X124.053 Y113.484 E26.62979
G1 X123.891 Y114.137 E26.65969
G1 X123.652 Y114.766 E26.68961
G1 X123.341 Y115.362 E26.71949
G1 X122.961 Y115.917 E26.74939
G1 X122.491 Y116.449 E26.78094
G1 X122.358 Y116.582 E26.78931
G1 X121.855 Y117.029 E26.81922
G1 X121.303 Y117.412 E26.84908
G1 X120.709 Y117.728 E26.87899
G1 X120.081 Y117.971 E26.90893
G1 X119.43 Y118.137 E26.93879
G1 X118.546 Y118.237 E26.97834
G1 X117.867 Y118.25 E27.00852
G1 X95.259 Y118.249 E28.0135
G1 X94.552 Y118.238 E28.04493
G1 X93.881 Y118.188 E28.07484
G1 X93.221 Y118.058 E28.10474
G1 X92.387 Y117.792 E28.14366
G1 X90.579 Y117.155 E28.22887
G1 X88.009 Y116.329 E28.34887
G1 X85.482 Y115.595 E28.46584
G1 X82.853 Y114.911 E28.58659
G1 X80.255 Y114.312 E28.70511
G1 X77.682 Y113.799 E28.82174
G1 X75.047 Y113.348 E28.94057
G1 X72.373 Y112.968 E29.06063
G1 X69.759 Y112.672 E29.17757
G1 X67.065 Y112.443 E29.29776
G1 X64.427 Y112.294 E29.41521
G1 X61.688 Y112.217 E29.53701
G1 X60.426 Y112.199 E29.59312
G1 X59.755 Y112.15 E29.62302
G1 X59.095 Y112.021 E29.65292
G1 X58.455 Y111.815 E29.6828
G1 X57.843 Y111.535 E29.71272
G1 X57.27 Y111.183 E29.74261
G1 X56.668 Y110.7 E29.77692
G1 X56.192 Y110.246 E29.80616
G1 X55.417 Y109.47 E29.85491
G1 X54.946 Y108.984 E29.885
G1 X54.507 Y108.474 E29.91491
G1 X54.132 Y107.916 E29.9448
G1 X53.826 Y107.317 E29.9747
G1 X53.593 Y106.686 E30.0046
G1 X53.437 Y106.032 E30.03448
G1 X53.353 Y105.236 E30.07007
G1 X53.34 Y104.557 E30.10025
G1 X53.341 Y84.694 E30.98321
G1 X53.352 Y83.988 E31.01459
G1 X53.375 Y83.553 E31.03396
G1 X53.515 Y82.715 E31.07173
G1 X53.671 Y82.08 E31.10079
G1 X54.267 Y79.496 E31.21867
G1 X54.801 Y76.84 E31.3391
G1 X55.249 Y74.233 E31.45668
G1 X55.623 Y71.614 E31.57429
G1 X55.928 Y68.929 E31.69441
G1 X56.171 Y66.078 E31.8216
G1 X56.268 Y65.412 E31.85152
G1 X56.444 Y64.763 E31.88141
G1 X56.695 Y64.139 E31.91131
G1 X57.018 Y63.549 E31.94121
G1 X57.409 Y63.002 E31.9711
G1 X57.862 Y62.505 E32.00099
G1 X58.371 Y62.065 E32.0309
G0 F3000 X58.28 Y62.714
G1 F1500 X58.782 Y62.307 E32.05962
G1 X59.331 Y61.966 E32.08835
G1 X59.917 Y61.695 E32.11705
G1 X60.532 Y61.498 E32.14576
G1 X61.167 Y61.379 E32.17448
G1 X61.983 Y61.332 E32.21081
G1 X62.293 Y61.33 E32.22459
G1 X63.069 Y61.341 E32.25909
G1 X63.889 Y61.417 E32.2957
G1 X64.332 Y61.512 E32.31584
G1 X66.949 Y62.193 E32.43604
G1 X69.597 Y62.8 E32.5568
G1 X72.173 Y63.317 E32.6736
G1 X74.847 Y63.773 E32.79418
G1 X77.484 Y64.148 E32.91258
G1 X80.169 Y64.452 E33.03269
G1 X82.804 Y64.675 E33.15024
G1 X85.507 Y64.827 E33.27059
G1 X88.18 Y64.902 E33.38946
G1 X90.853 Y64.9 E33.50828
G1 X93.528 Y64.823 E33.62724
G1 X96.237 Y64.669 E33.74785
G1 X98.892 Y64.443 E33.8663
G1 X101.533 Y64.141 E33.98446
G1 X104.19 Y63.763 E34.10376
G1 X106.857 Y63.304 E34.22406
G1 X109.482 Y62.777 E34.34307
G1 X112.074 Y62.18 E34.46131
G1 X113.471 Y61.825 E34.52538
G1 X114.664 Y61.513 E34.5802
G1 X115.217 Y61.4 E34.60529
G1 X115.864 Y61.341 E34.63417
G1 X116.56 Y61.33 E34.66511
G1 X117.258 Y61.339 E34.69614
G1 X117.902 Y61.388 E34.72485
G1 X118.536 Y61.515 E34.75359
G1 X119.148 Y61.72 E34.78228
G1 X119.731 Y61.999 E34.81101
G1 X120.275 Y62.347 E34.83972
G1 X120.771 Y62.76 E34.86841
G1 X121.213 Y63.232 E34.89716
G1 X121.593 Y63.754 E34.92586
G1 X121.906 Y64.319 E34.95457
G1 X122.146 Y64.918 E34.98325
G1 X122.311 Y65.543 E35.01199
G1 X122.392 Y66.11 E35.03745
G1 X122.497 Y67.333 E35.09201
G1 X122.529 Y67.782 E35.11202
G1 X122.796 Y70.44 E35.23077
G1 X123.142 Y73.11 E35.35045
G1 X123.555 Y75.728 E35.46827
G1 X124.053 Y78.385 E35.58843
G1 X124.626 Y81.029 E35.70869
G1 X124.948 Y82.347 E35.769
G1 X125.065 Y82.856 E35.79222
G1 X125.171 Y83.493 E35.82092
G1 X125.197 Y83.917 E35.83981
G1 X125.22 Y85.093 E35.89209
G1 X125.219 Y104.417 E36.75109
G1 X125.209 Y105.118 E36.78225
G1 X125.16 Y105.762 E36.81096
G1 X125.044 Y106.378 E36.83882
G1 X124.531 Y108.611 E36.94067
G1 X124.004 Y111.23 E37.05943
G1 X123.747 Y112.727 E37.12694
G1 X123.621 Y113.403 E37.15751
G1 X123.463 Y114.03 E37.18625
G1 X123.23 Y114.632 E37.21495
G1 X122.923 Y115.201 E37.24369
G1 X122.549 Y115.727 E37.27238
G1 X122.18 Y116.138 E37.29693
G1 X122.047 Y116.271 E37.30529
G1 X121.563 Y116.699 E37.33401
G1 X121.03 Y117.063 E37.3627
G1 X120.456 Y117.359 E37.39141
G1 X119.849 Y117.582 E37.42016
G1 X119.22 Y117.728 E37.44886
G1 X118.531 Y117.797 E37.47964
G1 X117.862 Y117.81 E37.50939
G1 X95.266 Y117.809 E38.51383
G1 X94.559 Y117.798 E38.54526
G1 X93.915 Y117.748 E38.57397
G1 X93.282 Y117.619 E38.60269
G1 X92.528 Y117.376 E38.6379
G1 X90.721 Y116.738 E38.72309
G1 X88.16 Y115.915 E38.84266
G1 X85.576 Y115.165 E38.96227
G1 X82.99 Y114.492 E39.08105
G1 X80.34 Y113.881 E39.20194
G1 X77.735 Y113.361 E39.32002
G1 X75.111 Y112.912 E39.43836
G1 X72.452 Y112.534 E39.55775
G1 X69.773 Y112.231 E39.67759
G1 X67.126 Y112.006 E39.79568
G1 X64.429 Y111.854 E39.91576
G1 X61.7 Y111.777 E40.03712
G1 X60.432 Y111.759 E40.09349
G1 X59.788 Y111.71 E40.1222
G1 X59.155 Y111.582 E40.15091
G1 X58.543 Y111.377 E40.1796
G1 X57.96 Y111.097 E40.20835
G1 X57.417 Y110.748 E40.23704
G1 X56.966 Y110.377 E40.263
G1 X56.5 Y109.932 E40.29164
G1 X55.733 Y109.164 E40.33989
G1 X55.262 Y108.678 E40.36998
G1 X54.842 Y108.187 E40.3987
G1 X54.485 Y107.648 E40.42744
G1 X54.199 Y107.069 E40.45614
G1 X53.985 Y106.46 E40.48484
G1 X53.849 Y105.828 E40.51357
G1 X53.793 Y105.221 E40.54067
