;FLAVOR:Marlin
;TIME:2959
;Filament used: 5.07782m
;Layer height: 0.3
;MINX:58.36
;MINY:50.96
;MINZ:0.3
;MAXX:121.64
;MAXY:129.04
;MAXZ:26.1
;Generated with Cura_SteamEngine 4.13.1
M82 ;absolute extrusion mode
G21 ;metric values
G90 ;absolute positioning
M82 ;set extruder to absolute mode
M107 ;start with the fan off

M104 S225 T0 ; start heating T0 to what is set in Cura
M140 S75 ; start heating the bed to what is set in Cura
M190 S75 ; start heating the bed to what is set in Cura
M109 S225 T0 ; start heating T0 to what is set in Cura

G28 X0 Y0 ;move X/Y to min endstops
G28 Z0 ;move Z to min endstops
G1 Z15.0 F2400 ;move the platform down 15mm
G92 E0 ;zero the extruded length
G1 F2400
G0 Y20 F2400
M117 Printing...
G5
G92 E0
G92 E0
G1 F2400 E-1.2
;LAYER_COUNT:87
;LAYER:0
M107
M204 S500
G0 F3000 X68.149 Y53.364 Z0.3
;TYPE:SKIRT
G1 F2400 E0
G1 F1500 X68.638 Y52.831 E0.03215
G1 X69.182 Y52.355 E0.06429
G1 X69.776 Y51.942 E0.09645
G1 X70.411 Y51.598 E0.12855
G1 X71.081 Y51.325 E0.16071
G1 X71.777 Y51.128 E0.19286
G1 X72.49 Y51.009 E0.225
G1 X73.005 Y50.973 E0.24794
G1 X73.53 Y50.96 E0.27129
G1 X92.693 Y50.96 E1.12313
G1 X93.49 Y50.971 E1.15856
G1 X94.211 Y51.021 E1.19068
G1 X94.923 Y51.15 E1.22285
G1 X95.615 Y51.358 E1.25497
G1 X96.281 Y51.64 E1.28712
G1 X96.98 Y52.039 E1.3229
G1 X97.877 Y52.626 E1.37055
G1 X100.16 Y54.076 E1.49077
G1 X102.441 Y55.435 E1.6088
G1 X104.76 Y56.73 E1.72687
G1 X107.063 Y57.932 E1.84235
G1 X109.47 Y59.102 E1.96132
G1 X111.875 Y60.188 E2.07862
G1 X114.334 Y61.216 E2.19709
G1 X116.782 Y62.16 E2.31372
G1 X117.352 Y62.37 E2.34072
G1 X118.016 Y62.657 E2.37288
G1 X118.643 Y63.016 E2.405
G1 X119.228 Y63.442 E2.43717
G1 X119.762 Y63.929 E2.46929
G1 X120.239 Y64.473 E2.50145
G1 X120.652 Y65.066 E2.53358
G1 X120.998 Y65.701 E2.56572
G1 X121.272 Y66.37 E2.59786
G1 X121.47 Y67.065 E2.62998
G1 X121.59 Y67.778 E2.66212
G1 X121.628 Y68.325 E2.6865
G1 X121.64 Y68.83 E2.70895
G1 X121.639 Y121.845 E5.06558
G1 X121.63 Y122.572 E5.0979
G1 X121.582 Y123.293 E5.13002
G1 X121.453 Y124.005 E5.16219
G1 X121.247 Y124.698 E5.19433
G1 X120.966 Y125.364 E5.22646
G1 X120.613 Y125.995 E5.2586
G1 X120.192 Y126.583 E5.29074
G1 X119.71 Y127.121 E5.32285
G1 X119.17 Y127.603 E5.35503
G1 X118.581 Y128.022 E5.38716
G1 X117.949 Y128.373 E5.4193
G1 X117.282 Y128.653 E5.45145
G1 X116.589 Y128.857 E5.48357
G1 X115.877 Y128.984 E5.51571
G1 X115.274 Y129.028 E5.54259
G1 X114.77 Y129.04 E5.565
G1 X73.814 Y129.039 E7.38558
G1 X73.113 Y129.029 E7.41675
G1 X72.391 Y128.979 E7.44892
G1 X71.68 Y128.849 E7.48105
G1 X70.987 Y128.642 E7.5132
G1 X70.322 Y128.36 E7.54531
G1 X69.691 Y128.005 E7.57749
G1 X69.104 Y127.584 E7.6096
G1 X68.621 Y127.158 E7.63823
G1 X68.282 Y126.83 E7.6592
G1 X60.685 Y119.232 E8.13681
G1 X60.214 Y118.746 E8.1669
G1 X59.74 Y118.2 E8.19904
G1 X59.329 Y117.605 E8.23119
G1 X58.987 Y116.968 E8.26332
G1 X58.717 Y116.297 E8.29548
G1 X58.523 Y115.601 E8.32759
G1 X58.407 Y114.887 E8.35975
G1 X58.369 Y114.268 E8.38732
G1 X58.36 Y113.718 E8.41177
G1 X58.361 Y76.114 E10.08335
G1 X58.371 Y75.41 E10.11465
G1 X58.421 Y74.689 E10.14677
G1 X58.55 Y73.977 E10.17894
G1 X58.758 Y73.285 E10.21106
G1 X59.04 Y72.619 E10.24321
G1 X59.249 Y72.229 E10.26288
G1 X59.617 Y71.593 E10.29554
G1 X60.943 Y69.215 E10.41657
G1 X62.149 Y66.904 E10.53245
G1 X63.325 Y64.484 E10.65205
G1 X64.407 Y62.087 E10.76895
G1 X65.42 Y59.666 E10.88561
G1 X66.384 Y57.16 E11.00497
G1 X66.828 Y55.902 E11.06427
G1 X67.074 Y55.238 E11.09575
G1 X67.363 Y54.575 E11.1279
G1 X67.722 Y53.948 E11.16001
G1 X68.149 Y53.364 E11.19217
G0 F3000 X68.535 Y53.588
G1 F1500 X69.014 Y53.079 E11.22324
G1 X69.548 Y52.629 E11.25428
G1 X70.13 Y52.243 E11.28533
G1 X70.752 Y51.926 E11.31636
G1 X71.406 Y51.682 E11.34739
G1 X72.084 Y51.514 E11.37844
G1 X73.018 Y51.413 E11.4202
G1 X73.53 Y51.4 E11.44297
G1 X92.693 Y51.4 E12.29481
G1 X93.484 Y51.411 E12.32997
G1 X94.18 Y51.46 E12.36099
G1 X94.866 Y51.59 E12.39202
G1 X95.533 Y51.796 E12.42305
G1 X96.172 Y52.078 E12.4541
G1 X96.739 Y52.407 E12.48324
G1 X97.678 Y53.022 E12.53314
G1 X99.91 Y54.439 E12.65066
G1 X102.212 Y55.811 E12.76979
G1 X104.553 Y57.118 E12.88897
G1 X106.892 Y58.338 E13.00624
G1 X109.265 Y59.492 E13.12353
G1 X111.706 Y60.594 E13.24259
G1 X114.145 Y61.614 E13.3601
G1 X116.675 Y62.59 E13.48065
G1 X117.2 Y62.783 E13.50551
G1 X117.84 Y63.062 E13.53655
G1 X118.444 Y63.411 E13.56755
G1 X119.005 Y63.828 E13.59863
G1 X119.514 Y64.306 E13.62967
G1 X119.965 Y64.839 E13.6607
G1 X120.352 Y65.42 E13.69173
G1 X120.671 Y66.042 E13.72281
G1 X120.916 Y66.695 E13.75381
G1 X121.085 Y67.373 E13.78487
G1 X121.189 Y68.337 E13.82797
G1 X121.2 Y68.83 E13.84989
G1 X121.2 Y121.84 E16.2063
G1 X121.191 Y122.567 E16.23862
G1 X121.142 Y123.263 E16.26964
G1 X121.014 Y123.95 E16.3007
G1 X120.809 Y124.617 E16.33172
G1 X120.528 Y125.256 E16.36275
G1 X120.176 Y125.86 E16.39383
G1 X119.758 Y126.419 E16.42485
G1 X119.279 Y126.926 E16.45586
G1 X118.744 Y127.376 E16.48693
G1 X118.162 Y127.762 E16.51798
G1 X117.54 Y128.078 E16.54899
G1 X116.885 Y128.321 E16.58005
G1 X116.207 Y128.488 E16.61109
G1 X115.262 Y128.589 E16.65333
G1 X114.77 Y128.6 E16.67521
G1 X73.82 Y128.599 E18.49552
G1 X73.119 Y128.589 E18.52669
G1 X72.422 Y128.539 E18.55775
G1 X71.736 Y128.41 E18.58878
G1 X71.069 Y128.204 E18.61981
G1 X70.43 Y127.922 E18.65086
G1 X69.828 Y127.569 E18.68188
G1 X69.072 Y126.976 E18.72459
G1 X68.59 Y126.516 E18.75421
G1 X61.001 Y118.926 E19.23132
G1 X60.53 Y118.44 E19.26141
G1 X60.073 Y117.912 E19.29245
G1 X59.68 Y117.335 E19.32348
G1 X59.355 Y116.716 E19.35456
G1 X59.104 Y116.065 E19.38557
G1 X58.928 Y115.389 E19.41662
G1 X58.813 Y114.401 E19.46084
G1 X58.8 Y113.713 E19.49143
G1 X58.801 Y76.12 E21.16252
G1 X58.811 Y75.416 E21.19382
G1 X58.86 Y74.72 E21.22483
G1 X58.99 Y74.034 E21.25587
G1 X59.196 Y73.367 E21.2869
G1 X59.63 Y72.449 E21.33204
G1 X59.988 Y71.83 E21.36382
G1 X61.331 Y69.422 E21.48639
G1 X62.555 Y67.075 E21.60405
G1 X63.716 Y64.689 E21.722
G1 X64.813 Y62.256 E21.84064
G1 X65.831 Y59.825 E21.9578
G1 X66.792 Y57.325 E22.07686
G1 X67.241 Y56.055 E22.13673
G1 X67.487 Y55.391 E22.16821
G1 X67.767 Y54.751 E22.19926
G1 X68.118 Y54.147 E22.23032
G1 X68.535 Y53.588 E22.26132
G0 F3000 X68.92 Y53.814
G1 F1500 X69.389 Y53.332 E22.29121
G1 X69.912 Y52.908 E22.32114
G1 X70.481 Y52.55 E22.35103
G1 X71.088 Y52.261 E22.38091
G1 X71.726 Y52.047 E22.41082
G1 X72.384 Y51.91 E22.4407
G1 X73.032 Y51.853 E22.46962
G1 X73.53 Y51.84 E22.49176
G1 X92.693 Y51.84 E23.3436
G1 X93.477 Y51.851 E23.37845
G1 X94.148 Y51.9 E23.40836
G1 X94.808 Y52.029 E23.43825
G1 X95.449 Y52.235 E23.46818
G1 X96.06 Y52.516 E23.49808
G1 X96.498 Y52.775 E23.5207
G1 X97.428 Y53.384 E23.57011
G1 X99.7 Y54.827 E23.68976
G1 X102.009 Y56.202 E23.80922
G1 X104.318 Y57.492 E23.92679
G1 X106.692 Y58.731 E24.04583
G1 X109.074 Y59.889 E24.16356
G1 X111.524 Y60.995 E24.28305
G1 X113.999 Y62.03 E24.4023
G1 X116.505 Y62.996 E24.52169
G1 X117.048 Y63.196 E24.54741
G1 X117.664 Y63.466 E24.57731
G1 X118.244 Y63.806 E24.60719
G1 X118.779 Y64.214 E24.6371
G1 X119.262 Y64.681 E24.66697
G1 X119.687 Y65.203 E24.69689
G1 X120.046 Y65.772 E24.7268
G1 X120.336 Y66.379 E24.7567
G1 X120.551 Y67.016 E24.78659
G1 X120.689 Y67.674 E24.81647
G1 X120.749 Y68.349 E24.8466
G1 X120.76 Y68.83 E24.86798
G1 X120.76 Y121.834 E27.22413
G1 X120.751 Y122.561 E27.25644
G1 X120.702 Y123.232 E27.28635
G1 X120.575 Y123.892 E27.31623
G1 X120.37 Y124.533 E27.34614
G1 X120.09 Y125.145 E27.37606
G1 X119.74 Y125.719 E27.40595
G1 X119.324 Y126.248 E27.43586
G1 X118.849 Y126.723 E27.46572
G1 X118.32 Y127.139 E27.49564
G1 X117.746 Y127.49 E27.52554
G1 X117.134 Y127.769 E27.55544
G1 X116.494 Y127.974 E27.58532
G1 X115.833 Y128.102 E27.61525
G1 X115.25 Y128.149 E27.64124
G1 X114.77 Y128.16 E27.66259
G1 X73.826 Y128.159 E29.48264
G1 X73.125 Y128.149 E29.5138
G1 X72.454 Y128.1 E29.54371
G1 X71.794 Y127.971 E29.5736
G1 X71.154 Y127.765 E29.60349
G1 X70.543 Y127.484 E29.63338
G1 X69.969 Y127.133 E29.66329
G1 X69.37 Y126.652 E29.69744
G1 X68.897 Y126.201 E29.72649
G1 X61.317 Y118.62 E30.20304
G1 X60.846 Y118.134 E30.23312
G1 X60.407 Y117.624 E30.26304
G1 X60.032 Y117.066 E30.29292
G1 X59.726 Y116.467 E30.32282
G1 X59.493 Y115.836 E30.35272
G1 X59.337 Y115.182 E30.38261
G1 X59.253 Y114.386 E30.41819
G1 X59.24 Y113.707 E30.44838
G1 X59.241 Y76.127 E32.11889
G1 X59.251 Y75.423 E32.15019
G1 X59.3 Y74.752 E32.1801
G1 X59.429 Y74.092 E32.20999
G1 X59.635 Y73.451 E32.23992
G1 X60.01 Y72.669 E32.27847
G1 X60.416 Y71.967 E32.31452
G1 X61.713 Y69.642 E32.43286
G1 X62.948 Y67.275 E32.55154
G1 X64.112 Y64.88 E32.66991
G1 X65.206 Y62.456 E32.78813
G1 X66.241 Y59.983 E32.9073
G1 X67.212 Y57.459 E33.02751
G1 X67.654 Y56.208 E33.08649
G1 X67.9 Y55.544 E33.11797
G1 X68.17 Y54.928 E33.14787
G1 X68.512 Y54.349 E33.17776
G1 X68.92 Y53.814 E33.20767
G0 F3000 X69.304 Y54.044
G1 F1500 X69.762 Y53.588 E33.2364
G1 X70.273 Y53.193 E33.26511
G1 X70.829 Y52.863 E33.29385
G1 X71.421 Y52.605 E33.32255
G1 X72.04 Y52.422 E33.35125
G1 X72.677 Y52.317 E33.37995
G1 X73.368 Y52.282 E33.4107
G1 X73.53 Y52.28 E33.4179
G1 X92.693 Y52.28 E34.26974
G1 X93.471 Y52.291 E34.30433
G1 X94.115 Y52.34 E34.33304
G1 X94.748 Y52.468 E34.36175
G1 X95.361 Y52.673 E34.39048
G1 X95.943 Y52.953 E34.41919
G1 X96.256 Y53.143 E34.43546
G1 X97.149 Y53.728 E34.48292
G1 X99.466 Y55.2 E34.60494
G1 X101.795 Y56.587 E34.72544
G1 X104.096 Y57.872 E34.84259
G1 X106.508 Y59.13 E34.96352
G1 X108.883 Y60.285 E35.08091
G1 X111.355 Y61.401 E35.20148
G1 X113.81 Y62.428 E35.31977
G1 X116.393 Y63.424 E35.44283
G1 X116.896 Y63.609 E35.46666
G1 X117.487 Y63.869 E35.49536
G1 X118.041 Y64.201 E35.52407
G1 X118.55 Y64.598 E35.55276
G1 X119.007 Y65.055 E35.58149
G1 X119.403 Y65.565 E35.6102
G1 X119.733 Y66.12 E35.6389
G1 X119.993 Y66.712 E35.66764
G1 X120.177 Y67.331 E35.69635
G1 X120.283 Y67.968 E35.72505
G1 X120.318 Y68.685 E35.75696
G1 X120.32 Y68.83 E35.76341
G1 X120.32 Y121.829 E38.11933
G1 X120.311 Y122.556 E38.15165
G1 X120.263 Y123.2 E38.18035
G1 X120.136 Y123.833 E38.20905
G1 X119.931 Y124.446 E38.23778
G1 X119.653 Y125.029 E38.2665
G1 X119.304 Y125.573 E38.29523
G1 X118.892 Y126.069 E38.32389
G1 X118.421 Y126.511 E38.3526
G1 X117.899 Y126.892 E38.38133
G1 X117.334 Y127.205 E38.41004
G1 X116.734 Y127.446 E38.43878
G1 X116.11 Y127.611 E38.46747
G1 X115.237 Y127.709 E38.50653
G1 X114.77 Y127.72 E38.52729
G1 X73.833 Y127.719 E40.34703
G1 X73.132 Y127.709 E40.37819
G1 X72.488 Y127.66 E40.4069
G1 X71.854 Y127.532 E40.43565
G1 X71.242 Y127.326 E40.46436
G1 X70.66 Y127.047 E40.49305
G1 X70.117 Y126.698 E40.52174
G1 X69.669 Y126.329 E40.54754
G1 X69.205 Y125.887 E40.57603
G1 X61.633 Y118.314 E41.05207
G1 X61.162 Y117.828 E41.08216
G1 X60.742 Y117.337 E41.11088
G1 X60.385 Y116.798 E41.13962
G1 X60.099 Y116.219 E41.16832
G1 X59.885 Y115.61 E41.19702
G1 X59.749 Y114.978 E41.22575
G1 X59.693 Y114.371 E41.25285
G1 X59.68 Y113.702 E41.2826
G1 X59.681 Y76.133 E42.95262
G1 X59.691 Y75.429 E42.98392
G1 X59.74 Y74.785 E43.01263
G1 X59.868 Y74.152 E43.04133
G1 X60.073 Y73.539 E43.07007
G1 X60.391 Y72.89 E43.10219
G1 X60.797 Y72.188 E43.13824
G1 X62.092 Y69.864 E43.25651
G1 X63.347 Y67.459 E43.37709
G1 X64.516 Y65.055 E43.49592
G1 X65.607 Y62.637 E43.61384
G1 X66.656 Y60.129 E43.73469
G1 X67.624 Y57.613 E43.85452
G1 X68.066 Y56.361 E43.91354
G1 X68.312 Y55.697 E43.94502
G1 X68.574 Y55.106 E43.97375
G1 X68.906 Y54.552 E44.00246
G1 X69.304 Y54.044 E44.03115
G1 F2400 E42.83115
;MESH:kp3s_3_0_hotend-fan_mount.stl
G0 F3000 X75.671 Y70.16
;TYPE:WALL-INNER
G1 F2400 E44.03115
G1 F1500 X82.183 Y70.16 E44.32062
G1 X83.1 Y69.243 E44.37827
G1 X84.017 Y70.16 E44.43592
G1 X90.54 Y70.16 E44.72588
G1 X90.54 Y71.36 E44.77922
G1 X112.24 Y71.36 E45.74383
G1 X112.24 Y110.236 E47.47196
G1 X111.85 Y110.115 E47.49011
G1 X110.825 Y110.017 E47.53588
G1 X109.806 Y110.115 E47.58138
G1 X108.823 Y110.412 E47.62703
G1 X107.915 Y110.896 E47.67277
G1 X107.123 Y111.547 E47.71834
G1 X106.471 Y112.34 E47.76398
G1 X105.987 Y113.248 E47.80972
G1 X105.69 Y114.233 E47.85545
G1 X105.593 Y115.25 E47.90086
G1 X105.69 Y116.267 E47.94628
G1 X105.987 Y117.252 E47.99201
G1 X106.471 Y118.16 E48.03775
G1 X107.123 Y118.953 E48.08338
G1 X107.481 Y119.248 E48.104
G1 X107.915 Y119.604 E48.12896
G1 X107.983 Y119.64 E48.13238
G1 X107.421 Y119.64 E48.14658
G1 X74.384 Y119.64 E49.61514
G1 X67.76 Y113.016 E50.03156
G1 X67.76 Y82.772 E51.37597
G1 X68.2 Y82.814 E51.39562
G1 X69.219 Y82.716 E51.44112
G1 X70.202 Y82.419 E51.48677
G1 X71.107 Y81.935 E51.53239
G1 X71.903 Y81.284 E51.5781
G1 X72.554 Y80.488 E51.62381
G1 X73.038 Y79.583 E51.66943
G1 X73.335 Y78.6 E51.71508
G1 X73.433 Y77.581 E51.76059
G1 X73.335 Y76.562 E51.80609
G1 X73.038 Y75.579 E51.85174
G1 X72.554 Y74.671 E51.89748
G1 X71.903 Y73.879 E51.94305
G1 X71.577 Y73.611 E51.96181
G1 X75.671 Y70.16 E52.19983
G0 F3000 X75.51 Y69.72
G1 F1500 X82.001 Y69.72 E52.48837
G1 X83.1 Y68.621 E52.55746
G1 X84.199 Y69.72 E52.62655
G1 X90.98 Y69.72 E52.92798
G1 X90.98 Y70.92 E52.98132
G1 X112.68 Y70.92 E53.94593
G1 X112.68 Y110.838 E55.72037
G1 X112.658 Y110.826 E55.72149
G1 X111.763 Y110.549 E55.76313
G1 X110.825 Y110.459 E55.80502
G1 X109.892 Y110.549 E55.84669
G1 X108.992 Y110.821 E55.88848
G1 X108.161 Y111.264 E55.93034
G1 X107.436 Y111.86 E55.97206
G1 X106.839 Y112.586 E56.01384
G1 X106.396 Y113.417 E56.0557
G1 X106.124 Y114.318 E56.09754
G1 X106.035 Y115.25 E56.13916
G1 X106.124 Y116.182 E56.18078
G1 X106.396 Y117.083 E56.22261
G1 X106.839 Y117.914 E56.26447
G1 X107.436 Y118.64 E56.30626
G1 X108.161 Y119.236 E56.34798
G1 X108.992 Y119.679 E56.38984
G1 X109.892 Y119.951 E56.43163
G1 X110.825 Y120.041 E56.4733
G1 X111.763 Y119.951 E56.51519
G1 X112.658 Y119.674 E56.55683
G1 X112.68 Y120.08 E56.57491
G1 X111.763 Y120.08 E56.59975
G1 X110.825 Y120.08 E56.6077
G1 X109.892 Y120.08 E56.6156
G1 X108.992 Y120.08 E56.63957
G1 X74.202 Y120.08 E58.18606
G1 X67.32 Y113.198 E58.6187
G1 X67.32 Y82.287 E59.99276
G1 X68.2 Y82.372 E60.03206
G1 X69.133 Y82.282 E60.07372
G1 X70.033 Y82.01 E60.11552
G1 X70.862 Y81.567 E60.1573
G1 X71.59 Y80.971 E60.19912
G1 X72.186 Y80.243 E60.24095
G1 X72.629 Y79.414 E60.28273
G1 X72.901 Y78.514 E60.32452
G1 X72.991 Y77.581 E60.36619
G1 X72.901 Y76.648 E60.40786
G1 X72.629 Y75.748 E60.44965
G1 X72.186 Y74.917 E60.49151
G1 X71.59 Y74.192 E60.53323
G1 X70.889 Y73.615 E60.57359
G1 X75.51 Y69.72 E60.84224
G0 F3000 X75.18 Y69.422
G1 F1500 X75.18 Y69.28 E60.84855
G1 X81.819 Y69.28 E61.14367
G1 X83.1 Y67.999 E61.2242
G1 X84.381 Y69.28 E61.30473
G1 X91.42 Y69.28 E61.61763
G1 X91.42 Y70.48 E61.67097
G1 X113.12 Y70.48 E62.63558
G1 X113.12 Y111.568 E64.46203
G1 X112.489 Y111.234 E64.49377
G1 X111.676 Y110.983 E64.53159
G1 X110.825 Y110.901 E64.5696
G1 X109.978 Y110.983 E64.60742
G1 X109.161 Y111.23 E64.64536
G1 X108.407 Y111.632 E64.68335
G1 X107.749 Y112.173 E64.72121
G1 X107.207 Y112.832 E64.75914
G1 X106.805 Y113.586 E64.79713
G1 X106.558 Y114.403 E64.83507
G1 X106.477 Y115.25 E64.87289
G1 X106.558 Y116.097 E64.91071
G1 X106.805 Y116.914 E64.94865
G1 X107.207 Y117.668 E64.98664
G1 X107.749 Y118.327 E65.02457
G1 X108.407 Y118.868 E65.06243
G1 X109.161 Y119.27 E65.10041
G1 X109.978 Y119.517 E65.13836
G1 X110.825 Y119.599 E65.17618
G1 X111.676 Y119.517 E65.21419
G1 X112.489 Y119.266 E65.25201
G1 X113.12 Y118.932 E65.28375
G1 X113.12 Y120.52 E65.35434
G1 X74.02 Y120.52 E67.09242
G1 X66.88 Y113.38 E67.54127
G1 X66.88 Y81.705 E68.94929
G1 X67.353 Y81.848 E68.97126
G1 X68.2 Y81.93 E69.00909
G1 X69.047 Y81.848 E69.04691
G1 X69.864 Y81.601 E69.08485
G1 X70.617 Y81.199 E69.1228
G1 X71.277 Y80.658 E69.16073
G1 X71.818 Y79.998 E69.19867
G1 X72.22 Y79.245 E69.23661
G1 X72.467 Y78.428 E69.27455
G1 X72.549 Y77.581 E69.31238
G1 X72.467 Y76.734 E69.35021
G1 X72.22 Y75.917 E69.38815
G1 X71.818 Y75.163 E69.42613
G1 X71.277 Y74.505 E69.464
G1 X70.618 Y73.963 E69.50193
G1 X70.113 Y73.694 E69.52736
G1 X75.18 Y69.422 E69.82197
G0 F3000 X74.74 Y69.217
G1 F1500 X74.74 Y68.84 E69.83873
G1 X81.637 Y68.84 E70.14532
G1 X83.1 Y67.377 E70.23729
G1 X84.563 Y68.84 E70.32926
G1 X91.637 Y68.84 E70.64371
G1 X91.86 Y68.617 E70.65773
G1 X91.86 Y70.04 E70.72099
