;FLAVOR:Marlin
;TIME:133
;Filament used: 0.18805m
;Layer height: 0.3
;MINX:73.905
;MINY:79.105
;MINZ:0.3
;MAXX:97.795
;MAXY:100.895
;MAXZ:5.1
;Generated with Cura_SteamEngine 4.12.1
M82 ;absolute extrusion mode
G21 ;metric values
G90 ;absolute positioning
M82 ;set extruder to absolute mode
M107 ;start with the fan off

M104 S200 T0 ; start heating T0 to what is set in Cura
M140 S60 ; start heating the bed to what is set in Cura
M190 S60 ; start heating the bed to what is set in Cura
M109 S200 T0 ; start heating T0 to what is set in Cura

G28 X0 Y0 ;move X/Y to min endstops
G28 Z0 ;move Z to min endstops
G1 Z15.0 F2400 ;move the platform down 15mm
G92 E0 ;zero the extruded length
G1 F200 E3 ;extrude 3mm of feed stock
G92 E0 ;zero the extruded length again
G1 F2400
G0 Y20 F2400
M117 Printing...
G5
G92 E0
G92 E0
G1 F2400 E-1.2
;LAYER_COUNT:17
;LAYER:0
M107
G0 F3000 X76.209 Y80.199 Z0.3
;TYPE:SKIRT
G1 F2400 E0
G1 F1500 X76.682 Y79.841 E0.02676
G1 X77.199 Y79.551 E0.05351
G1 X77.75 Y79.332 E0.08026
G1 X78.325 Y79.189 E0.10699
G1 X79 Y79.123 E0.13759
G1 X79.567 Y79.111 E0.16318
G1 X80.204 Y79.117 E0.19192
G1 X82.914 Y79.117 E0.31418
G1 X84 Y79.105 E0.36318
G1 X84.793 Y79.116 E0.39896
G1 X87.713 Y79.106 E0.53071
G1 X88.501 Y79.117 E0.56626
G1 X91.213 Y79.117 E0.68862
G1 X92.293 Y79.105 E0.73735
G1 X92.643 Y79.11 E0.75314
G1 X93.234 Y79.159 E0.7799
G1 X93.813 Y79.286 E0.80664
G1 X94.37 Y79.49 E0.8334
G1 X94.894 Y79.768 E0.86016
G1 X95.376 Y80.113 E0.88691
G1 X95.858 Y80.575 E0.91703
G1 X96.321 Y81.092 E0.94834
G1 X96.568 Y81.383 E0.96556
G1 X96.916 Y81.863 E0.99231
G1 X97.197 Y82.386 E1.0191
G1 X97.404 Y82.941 E1.04582
G1 X97.536 Y83.519 E1.07257
G1 X97.589 Y84.136 E1.10051
G1 X97.598 Y84.734 E1.12749
G1 X97.675 Y87.422 E1.24882
G1 X97.782 Y89.407 E1.3385
G1 X97.795 Y89.971 E1.36395
G1 X97.786 Y90.487 E1.38724
G1 X97.756 Y91.175 E1.41831
G1 X97.675 Y92.603 E1.48284
G1 X97.597 Y95.361 E1.60732
G1 X97.59 Y95.858 E1.62975
G1 X97.541 Y96.449 E1.6565
G1 X97.414 Y97.028 E1.68324
G1 X97.21 Y97.585 E1.71001
G1 X96.933 Y98.109 E1.73675
G1 X96.569 Y98.615 E1.76487
G1 X96.194 Y99.061 E1.79116
G1 X95.913 Y99.381 E1.81037
G1 X95.493 Y99.799 E1.83711
G1 X95.02 Y100.157 E1.86387
G1 X94.503 Y100.448 E1.89064
G1 X93.952 Y100.667 E1.91739
G1 X93.377 Y100.81 E1.94412
G1 X92.7 Y100.877 E1.97481
G1 X92.133 Y100.889 E2.0004
G1 X91.496 Y100.883 E2.02914
G1 X88.786 Y100.883 E2.15141
G1 X87.7 Y100.895 E2.20041
G1 X86.907 Y100.884 E2.23619
G1 X83.987 Y100.894 E2.36793
G1 X83.199 Y100.883 E2.40349
G1 X80.487 Y100.883 E2.52584
G1 X79.407 Y100.895 E2.57457
G1 X79.057 Y100.89 E2.59036
G1 X78.466 Y100.841 E2.61712
G1 X77.887 Y100.714 E2.64386
G1 X77.33 Y100.51 E2.67062
G1 X76.806 Y100.232 E2.69739
G1 X76.324 Y99.887 E2.72413
G1 X75.842 Y99.425 E2.75425
G1 X75.379 Y98.908 E2.78556
G1 X75.125 Y98.606 E2.80337
G1 X74.778 Y98.125 E2.83013
G1 X74.498 Y97.602 E2.85689
G1 X74.292 Y97.046 E2.88364
G1 X74.162 Y96.468 E2.91037
G1 X74.111 Y95.863 E2.93776
G1 X74.102 Y95.266 E2.9647
G1 X74.025 Y92.578 E3.08603
G1 X73.918 Y90.593 E3.17571
G1 X73.905 Y90.029 E3.20116
G1 X73.914 Y89.512 E3.22449
G1 X73.944 Y88.825 E3.25552
G1 X74.025 Y87.39 E3.32036
G1 X74.103 Y84.639 E3.44453
G1 X74.11 Y84.142 E3.46695
G1 X74.159 Y83.551 E3.49371
G1 X74.286 Y82.972 E3.52045
G1 X74.49 Y82.415 E3.54722
G1 X74.767 Y81.891 E3.57396
G1 X75.133 Y81.384 E3.60217
G1 X75.519 Y80.923 E3.6293
G1 X75.788 Y80.617 E3.64768
G1 X76.209 Y80.199 E3.67444
G0 F3000 X76.491 Y80.484
G1 F1500 X76.945 Y80.147 E3.69995
G1 X77.443 Y79.878 E3.72549
G1 X77.973 Y79.682 E3.75098
G1 X78.525 Y79.562 E3.77647
G1 X79.008 Y79.523 E3.79833
G1 X79.575 Y79.511 E3.82392
G1 X80.198 Y79.517 E3.85203
G1 X82.919 Y79.517 E3.97479
G1 X83.994 Y79.505 E4.02329
G1 X84.788 Y79.516 E4.05912
G1 X87.708 Y79.506 E4.19086
G1 X88.496 Y79.517 E4.22642
G1 X91.218 Y79.517 E4.34923
G1 X92.287 Y79.505 E4.39746
G1 X92.637 Y79.51 E4.41325
G1 X93.2 Y79.558 E4.43874
G1 X93.751 Y79.685 E4.46425
G1 X94.279 Y79.889 E4.48979
G1 X94.772 Y80.164 E4.51526
G1 X95.222 Y80.507 E4.54079
G1 X95.56 Y80.841 E4.56223
G1 X96.023 Y81.358 E4.59354
G1 X96.26 Y81.64 E4.61016
G1 X96.591 Y82.098 E4.63565
G1 X96.854 Y82.599 E4.66118
G1 X97.043 Y83.131 E4.68665
G1 X97.156 Y83.685 E4.71216
G1 X97.189 Y84.142 E4.73284
G1 X97.198 Y84.74 E4.75982
G1 X97.275 Y87.455 E4.88236
G1 X97.386 Y89.521 E4.97571
G1 X97.39 Y90.359 E5.01351
G1 X97.357 Y91.153 E5.04937
G1 X97.275 Y92.589 E5.11426
G1 X97.197 Y95.355 E5.2391
G1 X97.19 Y95.852 E5.26153
G1 X97.142 Y96.416 E5.28707
G1 X97.015 Y96.967 E5.31258
G1 X96.812 Y97.494 E5.33806
G1 X96.536 Y97.988 E5.36359
G1 X95.959 Y98.72 E5.40564
G1 X95.613 Y99.117 E5.4294
G1 X95.211 Y99.515 E5.45492
G1 X94.756 Y99.851 E5.48044
G1 X94.259 Y100.121 E5.50596
G1 X93.729 Y100.317 E5.53145
G1 X93.177 Y100.437 E5.55694
G1 X92.692 Y100.477 E5.57889
G1 X92.125 Y100.489 E5.60448
G1 X91.502 Y100.483 E5.63259
G1 X88.781 Y100.483 E5.75535
G1 X87.706 Y100.495 E5.80386
G1 X86.912 Y100.484 E5.83968
G1 X83.992 Y100.494 E5.97142
G1 X83.204 Y100.483 E6.00698
G1 X80.482 Y100.483 E6.12979
G1 X79.413 Y100.495 E6.17802
G1 X79.063 Y100.49 E6.19381
G1 X78.5 Y100.442 E6.2193
G1 X77.949 Y100.315 E6.24482
G1 X77.421 Y100.111 E6.27035
G1 X76.928 Y99.836 E6.29582
G1 X76.478 Y99.493 E6.32135
G1 X76.14 Y99.159 E6.34279
G1 X75.677 Y98.642 E6.3741
G1 X75.432 Y98.351 E6.39126
G1 X75.103 Y97.891 E6.41678
G1 X74.842 Y97.39 E6.44227
G1 X74.654 Y96.857 E6.46776
G1 X74.543 Y96.302 E6.4933
G1 X74.511 Y95.857 E6.51343
G1 X74.502 Y95.26 E6.54037
G1 X74.425 Y92.545 E6.66291
G1 X74.314 Y90.479 E6.75625
G1 X74.31 Y89.64 E6.79411
G1 X74.343 Y88.847 E6.82992
G1 X74.425 Y87.394 E6.89557
G1 X74.503 Y84.645 E7.01965
G1 X74.51 Y84.148 E7.04208
G1 X74.558 Y83.584 E7.06761
G1 X74.685 Y83.033 E7.09312
G1 X74.888 Y82.506 E7.1186
G1 X75.164 Y82.012 E7.14413
G1 X75.754 Y81.264 E7.18712
G1 X76.089 Y80.881 E7.21007
G1 X76.491 Y80.484 E7.23556
G0 F3000 X76.772 Y80.77
G1 F1500 X77.207 Y80.456 E7.25977
G1 X77.683 Y80.209 E7.28396
G1 X78.191 Y80.037 E7.30816
G1 X78.719 Y79.941 E7.33237
G1 X79.017 Y79.923 E7.34584
G1 X79.712 Y79.91 E7.3772
G1 X80.192 Y79.917 E7.39886
G1 X82.924 Y79.917 E7.52212
G1 X83.989 Y79.905 E7.57017
G1 X84.785 Y79.916 E7.60609
G1 X87.702 Y79.906 E7.7377
G1 X88.49 Y79.917 E7.77325
G1 X91.223 Y79.917 E7.89655
G1 X92.281 Y79.905 E7.94429
G1 X92.631 Y79.91 E7.96008
G1 X93.166 Y79.958 E7.98432
G1 X93.687 Y80.084 E8.0085
G1 X94.183 Y80.287 E8.03268
G1 X94.644 Y80.561 E8.05688
G1 X95.06 Y80.9 E8.08109
G1 X95.262 Y81.108 E8.09417
G1 X95.725 Y81.625 E8.12548
G1 X95.953 Y81.896 E8.14146
G1 X96.265 Y82.332 E8.16565
G1 X96.509 Y82.81 E8.18986
G1 X96.679 Y83.318 E8.21403
G1 X96.771 Y83.847 E8.23825
G1 X96.789 Y84.148 E8.25186
G1 X96.797 Y84.697 E8.27663
G1 X96.877 Y87.488 E8.4026
G1 X96.983 Y89.45 E8.49125
G1 X96.996 Y89.959 E8.51422
G1 X96.987 Y90.453 E8.53651
G1 X96.957 Y91.13 E8.56709
G1 X96.877 Y92.536 E8.63062
G1 X96.796 Y95.401 E8.75994
G1 X96.79 Y95.847 E8.78006
G1 X96.742 Y96.381 E8.80425
G1 X96.616 Y96.902 E8.82843
G1 X96.414 Y97.399 E8.85264
G1 X96.14 Y97.86 E8.87683
G1 X95.652 Y98.464 E8.91186
G1 X95.312 Y98.853 E8.93517
G1 X94.929 Y99.229 E8.95939
G1 X94.495 Y99.543 E8.98356
G1 X94.018 Y99.79 E9.00779
G1 X93.511 Y99.963 E9.03196
G1 X92.983 Y100.058 E9.05617
G1 X92.683 Y100.077 E9.06973
G1 X91.988 Y100.09 E9.10109
G1 X91.508 Y100.083 E9.12275
G1 X88.776 Y100.083 E9.24601
G1 X87.711 Y100.095 E9.29406
G1 X86.915 Y100.084 E9.32997
G1 X83.998 Y100.094 E9.46158
G1 X83.21 Y100.083 E9.49714
G1 X80.477 Y100.083 E9.62044
G1 X79.419 Y100.095 E9.66818
G1 X79.069 Y100.09 E9.68397
G1 X78.534 Y100.042 E9.7082
G1 X78.013 Y99.916 E9.73239
G1 X77.517 Y99.713 E9.75657
G1 X77.056 Y99.439 E9.78076
G1 X76.64 Y99.1 E9.80497
G1 X76.438 Y98.892 E9.81805
G1 X75.975 Y98.375 E9.84937
G1 X75.74 Y98.095 E9.86586
G1 X75.43 Y97.658 E9.89003
G1 X75.187 Y97.18 E9.91422
G1 X75.019 Y96.671 E9.93841
G1 X74.928 Y96.142 E9.96262
G1 X74.911 Y95.851 E9.97578
G1 X74.902 Y95.254 E10.00271
G1 X74.823 Y92.508 E10.12666
G1 X74.717 Y90.55 E10.21512
G1 X74.704 Y90.041 E10.23809
G1 X74.713 Y89.546 E10.26043
G1 X74.743 Y88.87 E10.29096
G1 X74.823 Y87.464 E10.3545
G1 X74.904 Y84.599 E10.48381
G1 X74.91 Y84.153 E10.50393
G1 X74.958 Y83.619 E10.52812
G1 X75.084 Y83.098 E10.5523
G1 X75.286 Y82.601 E10.57651
G1 X75.56 Y82.14 E10.6007
G1 X76.061 Y81.52 E10.63667
G1 X76.389 Y81.145 E10.65915
G1 X76.772 Y80.77 E10.68333
G0 F3000 X77.052 Y81.057
G1 F1500 X77.466 Y80.766 E10.70616
G1 X77.92 Y80.545 E10.72894
G1 X78.404 Y80.397 E10.75177
G1 X79.025 Y80.323 E10.77999
G1 X79.707 Y80.31 E10.81077
G1 X80.187 Y80.317 E10.83242
G1 X82.928 Y80.317 E10.95609
G1 X83.984 Y80.305 E11.00374
G1 X84.781 Y80.316 E11.0397
G1 X87.697 Y80.306 E11.17126
G1 X88.485 Y80.317 E11.20681
G1 X91.228 Y80.317 E11.33057
G1 X92.276 Y80.305 E11.37785
G1 X92.626 Y80.31 E11.39365
G1 X93.129 Y80.357 E11.41644
G1 X93.619 Y80.483 E11.43927
G1 X94.082 Y80.685 E11.46206
G1 X94.509 Y80.957 E11.4849
G1 X94.964 Y81.375 E11.51277
G1 X95.427 Y81.892 E11.54408
G1 X95.646 Y82.152 E11.55942
G1 X95.938 Y82.565 E11.58224
G1 X96.162 Y83.018 E11.60504
G1 X96.311 Y83.501 E11.62785
G1 X96.389 Y84.154 E11.65752
G1 X96.397 Y84.708 E11.68251
G1 X96.477 Y87.503 E11.80867
G1 X96.586 Y89.546 E11.90097
G1 X96.59 Y90.347 E11.93711
G1 X96.558 Y91.107 E11.97143
G1 X96.477 Y92.536 E12.036
G1 X96.396 Y95.39 E12.16482
G1 X96.39 Y95.841 E12.18517
G1 X96.343 Y96.344 E12.20796
G1 X96.217 Y96.834 E12.23079
G1 X96.016 Y97.298 E12.2536
G1 X95.647 Y97.846 E12.28341
G1 X95.293 Y98.269 E12.30829
G1 X95.012 Y98.589 E12.32751
G1 X94.649 Y98.942 E12.35035
G1 X94.235 Y99.233 E12.37318
G1 X93.781 Y99.455 E12.39598
G1 X93.298 Y99.603 E12.41878
G1 X92.675 Y99.677 E12.44708
G1 X91.993 Y99.69 E12.47786
G1 X91.513 Y99.683 E12.49951
G1 X88.772 Y99.683 E12.62318
G1 X87.716 Y99.695 E12.67083
G1 X86.919 Y99.684 E12.70679
G1 X84.003 Y99.694 E12.83835
G1 X83.215 Y99.683 E12.8739
G1 X80.472 Y99.683 E12.99766
G1 X79.424 Y99.695 E13.04494
G1 X79.074 Y99.69 E13.06074
G1 X78.571 Y99.643 E13.08353
G1 X78.081 Y99.517 E13.10636
G1 X77.618 Y99.315 E13.12915
G1 X77.191 Y99.043 E13.15199
G1 X76.736 Y98.625 E13.17986
G1 X76.273 Y98.108 E13.21117
G1 X76.048 Y97.84 E13.22696
G1 X75.757 Y97.427 E13.24976
G1 X75.535 Y96.973 E13.27256
G1 X75.387 Y96.489 E13.29539
G1 X75.311 Y95.845 E13.32465
G1 X75.302 Y95.248 E13.35159
G1 X75.222 Y92.465 E13.4772
G1 X75.114 Y90.454 E13.56806
G1 X75.11 Y89.652 E13.60424
G1 X75.142 Y88.893 E13.63852
G1 X75.223 Y87.464 E13.70309
G1 X75.304 Y84.61 E13.83191
G1 X75.31 Y84.159 E13.85226
G1 X75.357 Y83.656 E13.87505
G1 X75.483 Y83.166 E13.89787
G1 X75.684 Y82.702 E13.92069
G1 X76.054 Y82.153 E13.95056
G1 X76.421 Y81.715 E13.97634
G1 X76.69 Y81.409 E13.99472
G1 X77.052 Y81.057 E14.0175
G1 F2400 E12.8175
;MESH:clip_10mm_v3.stl(1)
G0 F3000 X81.735 Y90
;TYPE:WALL-INNER
G1 F2400 E14.0175
G1 F1500 X83.505 Y89.748 E14.09816
G1 X83.842 Y90.001 E14.11718
G1 X83.506 Y90.252 E14.1285
G1 X81.735 Y90 E14.16925
G1 F2400 E12.96925
G0 F3000 X79.895 Y89.748
G1 F2400 E14.16925
G1 F1500 X81.665 Y90 E14.24991
G1 X79.894 Y90.252 E14.29066
G1 X79.558 Y90.001 E14.30958
G1 X79.895 Y89.748 E14.32099
G1 F2400 E13.12099
G0 F3000 X79.695 Y86.353
G1 F2400 E14.32099
G1 F1500 X79.095 Y85.754 E14.35924
G1 X79.095 Y84.42 E14.41943
G1 X79.365 Y84.105 E14.43815
G1 X79.705 Y84.445 E14.45984
G1 X79.705 Y85.884 E14.52476
G1 X79.705 Y86.353 E14.5372
G1 X79.705 Y87.527 E14.59017
G1 X79.866 Y89.34 E14.67229
G1 X81.7 Y89.601 E14.75587
G1 X83.534 Y89.34 E14.83945
G1 X83.695 Y87.527 E14.92156
G1 X83.695 Y86.353 E14.97453
G1 X83.695 Y85.884 E14.99569
G1 X83.695 Y84.445 E15.06061
G1 X84.035 Y84.105 E15.08231
G1 X84.305 Y84.42 E15.10103
G1 X84.305 Y85.754 E15.16121
G1 X83.705 Y86.353 E15.19073
G1 X83.705 Y87.527 E15.19206
G1 X83.705 Y89.398 E15.2131
G1 X84.505 Y89.998 E15.25822
G1 X84.505 Y90.003 E15.25845
G1 X83.705 Y90.603 E15.30356
G1 X83.705 Y92.473 E15.38793
G1 X83.705 Y93.647 E15.4409
G1 X84.305 Y94.246 E15.47915
G1 X84.305 Y95.58 E15.53934
G1 X84.035 Y95.895 E15.55805
G1 X83.695 Y95.555 E15.57975
G1 X83.695 Y94.116 E15.64467
G1 X83.695 Y93.647 E15.65711
G1 X83.695 Y92.473 E15.65844
G1 X83.534 Y90.66 E15.6772
G1 X81.7 Y90.399 E15.76078
G1 X79.866 Y90.66 E15.84435
G1 X79.705 Y92.473 E15.92647
G1 X79.705 Y93.647 E15.97944
G1 X79.705 Y94.116 E16.0006
G1 X79.705 Y95.555 E16.06552
G1 X79.365 Y95.895 E16.08722
G1 X79.095 Y95.58 E16.10593
G1 X79.095 Y94.246 E16.16612
G1 X79.695 Y93.647 E16.19564
G1 X79.695 Y92.473 E16.19697
G1 X79.695 Y90.603 E16.21705
G1 X78.895 Y90.003 E16.26216
G1 X78.895 Y89.998 E16.26239
G1 X79.695 Y89.398 E16.30751
G1 X79.695 Y87.527 E16.32855
G1 X79.695 Y86.353 E16.32988
G0 F3000 X79.3 Y86.517
;TYPE:WALL-OUTER
G1 F1500 X78.7 Y85.918 E16.36813
G1 X78.7 Y84.274 E16.4423
G1 X79.192 Y83.7 E16.47641
G1 X79.518 Y83.7 E16.49112
G1 X80.1 Y84.282 E16.52825
G1 X80.1 Y87.509 E16.67384
G1 X80.232 Y88.993 E16.74106
G1 X81.7 Y89.202 E16.80796
G1 X83.168 Y88.993 E16.87486
G1 X83.3 Y87.509 E16.94208
G1 X83.3 Y84.282 E17.08767
G1 X83.882 Y83.7 E17.1248
G1 X84.208 Y83.7 E17.13951
G1 X84.7 Y84.274 E17.17362
G1 X84.7 Y85.918 E17.24779
G1 X84.1 Y86.517 E17.28604
G1 X84.1 Y89.2 E17.40709
G1 X84.9 Y89.8 E17.45221
G1 X84.9 Y90.2 E17.47025
G1 X84.1 Y90.8 E17.51537
G1 X84.1 Y93.483 E17.63642
G1 X84.7 Y94.082 E17.67467
G1 X84.7 Y95.726 E17.74884
G1 X84.208 Y96.3 E17.78295
G1 X83.882 Y96.3 E17.79766
G1 X83.3 Y95.718 E17.83479
G1 X83.3 Y92.491 E17.98038
G1 X83.168 Y91.007 E18.0476
G1 X81.7 Y90.798 E18.1145
G1 X80.232 Y91.007 E18.1814
G1 X80.1 Y92.491 E18.24862
G1 X80.1 Y95.718 E18.39421
G1 X79.518 Y96.3 E18.43134
G1 X79.192 Y96.3 E18.44605
G1 X78.7 Y95.726 E18.48016
G1 X78.7 Y94.082 E18.55433
G1 X79.3 Y93.483 E18.59258
G1 X79.3 Y90.8 E18.71363
G1 X78.5 Y90.2 E18.75875
G1 X78.5 Y89.8 E18.77679
G1 X79.3 Y89.2 E18.82191
G1 X79.3 Y86.517 E18.94296
G0 F3000 X79.159 Y86.376
G0 X79.47 Y86.066
G1 F2400 E17.74296
;MESH:clip_10mm_v3.stl
G0 F3000 X90.035 Y90
;TYPE:WALL-INNER
G1 F2400 E18.94296
G1 F1500 X91.805 Y89.748 E19.02362
G1 X92.142 Y90.001 E19.04263
G1 X91.806 Y90.252 E19.05396
G1 X90.035 Y90 E19.0947
G1 F2400 E17.8947
G0 F3000 X88.195 Y89.748
G1 F2400 E19.0947
G1 F1500 X89.965 Y90 E19.17537
G1 X88.194 Y90.252 E19.21611
G1 X87.858 Y90.001 E19.23504
G1 X88.195 Y89.748 E19.24645
G1 F2400 E18.04645
G0 F3000 X87.995 Y86.353
G1 F2400 E19.24645
G1 F1500 X87.395 Y85.754 E19.2847
G1 X87.395 Y84.42 E19.34489
G1 X87.665 Y84.105 E19.3636
G1 X88.005 Y84.445 E19.3853
G1 X88.005 Y85.884 E19.45022
G1 X88.005 Y86.353 E19.46266
G1 X88.005 Y87.527 E19.51563
G1 X88.166 Y89.34 E19.59775
G1 X90 Y89.601 E19.68132
G1 X91.834 Y89.34 E19.7649
G1 X91.995 Y87.527 E19.84702
G1 X91.995 Y86.353 E19.89999
G1 X91.995 Y85.884 E19.92115
G1 X91.995 Y84.445 E19.98607
G1 X92.335 Y84.105 E20.00776
G1 X92.605 Y84.42 E20.02648
G1 X92.605 Y85.754 E20.08667
G1 X92.005 Y86.353 E20.11619
G1 X92.005 Y87.527 E20.11752
G1 X92.005 Y89.398 E20.13856
G1 X92.805 Y89.998 E20.18368
G1 X92.805 Y90.003 E20.1839
G1 X92.005 Y90.603 E20.22902
G1 X92.005 Y92.473 E20.31339
G1 X92.005 Y93.647 E20.36635
G1 X92.605 Y94.246 E20.40461
G1 X92.605 Y95.58 E20.46479
G1 X92.335 Y95.895 E20.48351
G1 X91.995 Y95.555 E20.5052
G1 X91.995 Y94.116 E20.57013
G1 X91.995 Y93.647 E20.58257
G1 X91.995 Y92.473 E20.58389
G1 X91.834 Y90.66 E20.60265
G1 X90 Y90.399 E20.68623
G1 X88.166 Y90.66 E20.76981
G1 X88.005 Y92.473 E20.85193
G1 X88.005 Y93.647 E20.9049
G1 X88.005 Y94.116 E20.92605
G1 X88.005 Y95.555 E20.99098
G1 X87.665 Y95.895 E21.01267
G1 X87.395 Y95.58 E21.03139
G1 X87.395 Y94.246 E21.09157
G1 X87.995 Y93.647 E21.1211
G1 X87.995 Y92.473 E21.12242
G1 X87.995 Y90.603 E21.1425
G1 X87.195 Y90.003 E21.18762
G1 X87.195 Y89.998 E21.18785
G1 X87.995 Y89.398 E21.23296
G1 X87.995 Y87.527 E21.25401
G1 X87.995 Y86.353 E21.25533
G0 F3000 X87.6 Y86.517
;TYPE:WALL-OUTER
G1 F1500 X87 Y85.918 E21.29358
G1 X87 Y84.274 E21.36776
G1 X87.492 Y83.7 E21.40186
G1 X87.818 Y83.7 E21.41657
G1 X88.4 Y84.282 E21.45371
G1 X88.4 Y87.509 E21.5993
G1 X88.532 Y88.993 E21.66652
G1 X90 Y89.202 E21.73341
G1 X91.468 Y88.993 E21.80031
G1 X91.6 Y87.509 E21.86753
