;FLAVOR:Marlin
;TIME:931
;Filament used: 1.40782m
;Layer height: 0.3
;MINX:68.2
;MINY:54.527
;MINZ:0.3
;MAXX:111.8
;MAXY:110.51
;MAXZ:9.9
;Generated with Cura_SteamEngine 4.12.1
M82 ;absolute extrusion mode
G21 ;metric values
G90 ;absolute positioning
M82 ;set extruder to absolute mode
M107 ;start with the fan off

M104 S200 T0 ; start heating T0 to what is set in Cura
M140 S60 ; start heating the bed to what is set in Cura
M190 S60 ; start heating the bed to what is set in Cura
M109 S200 T0 ; start heating T0 to what is set in Cura

G28 X0 Y0 ;move X/Y to min endstops
G28 Z0 ;move Z to min endstops
G1 Z15.0 F2400 ;move the platform down 15mm
G92 E0 ;zero the extruded length
G1 F200 E3 ;extrude 3mm of feed stock
G92 E0 ;zero the extruded length again
G1 F2400
G0 Y20 F2400
M117 Printing...
G5
G92 E0
G92 E0
G1 F2400 E-1.2
;LAYER_COUNT:33
;LAYER:0
M107
G0 F3000 X83.658 Y56.569 Z0.3
;TYPE:SKIRT
G1 F2400 E0
G1 F1500 X84.038 Y56.139 E0.02589
G1 X84.523 Y55.663 E0.05655
G1 X84.956 Y55.299 E0.08207
G1 X85.436 Y55.001 E0.10756
G1 X85.953 Y54.772 E0.13307
G1 X86.497 Y54.619 E0.15857
G1 X87.17 Y54.539 E0.18915
G1 X87.761 Y54.528 E0.21581
G1 X88.375 Y54.535 E0.24352
G1 X91.101 Y54.535 E0.36651
G1 X91.348 Y54.53 E0.37765
G1 X92.055 Y54.527 E0.40955
G1 X92.765 Y54.538 E0.44159
G1 X93.324 Y54.586 E0.4669
G1 X94.33 Y54.745 E0.51285
G1 X95.245 Y54.901 E0.55473
G1 X97.916 Y55.281 E0.67645
G1 X100.631 Y55.587 E0.79971
G1 X101.332 Y55.658 E0.8315
G1 X101.889 Y55.754 E0.857
G1 X102.427 Y55.928 E0.88251
G1 X102.935 Y56.176 E0.90802
G1 X103.403 Y56.493 E0.93352
G1 X103.791 Y56.834 E0.95683
G1 X104.299 Y57.348 E0.98943
G1 X104.662 Y57.781 E1.01492
G1 X104.961 Y58.261 E1.04044
G1 X105.19 Y58.778 E1.06595
G1 X105.376 Y59.503 E1.09972
G1 X105.408 Y59.706 E1.10899
G1 X105.752 Y62.236 E1.22419
G1 X106.193 Y64.912 E1.34655
G1 X106.712 Y67.588 E1.46953
G1 X107.296 Y70.192 E1.58993
G1 X107.973 Y72.866 E1.71438
G1 X108.706 Y75.449 E1.83552
G1 X109.534 Y78.08 E1.95996
G1 X110.414 Y80.624 E2.08141
G1 X111.141 Y82.566 E2.17496
G1 X111.522 Y83.553 E2.2227
G1 X111.687 Y84.093 E2.24817
G1 X111.788 Y84.871 E2.28357
G1 X111.8 Y85.32 E2.30383
G1 X111.8 Y94.339 E2.71074
G1 X111.79 Y95.06 E2.74327
G1 X111.742 Y95.624 E2.76881
G1 X111.615 Y96.175 E2.79432
G1 X111.412 Y96.702 E2.8198
G1 X111.137 Y97.196 E2.84531
G1 X110.794 Y97.646 E2.87083
G1 X110.392 Y98.043 E2.89633
G1 X109.936 Y98.38 E2.92191
G1 X109.067 Y98.932 E2.96835
G1 X108.449 Y99.313 E3.00111
G1 X106.125 Y100.837 E3.12649
G1 X103.931 Y102.366 E3.24715
G1 X101.748 Y103.981 E3.36966
G1 X99.621 Y105.65 E3.49164
G1 X97.662 Y107.278 E3.60656
G1 X97.514 Y107.398 E3.61516
G1 X97.051 Y107.722 E3.64065
G1 X96.547 Y107.978 E3.66615
G1 X96.012 Y108.16 E3.69165
G1 X95.562 Y108.251 E3.71236
G1 X94.437 Y108.412 E3.76364
G1 X91.76 Y108.834 E3.88591
G1 X89.1 Y109.332 E4.008
G1 X86.404 Y109.915 E4.13245
G1 X85.102 Y110.235 E4.19294
G1 X84.394 Y110.398 E4.22572
G1 X83.619 Y110.498 E4.26097
G1 X83.17 Y110.51 E4.28124
G1 X74.155 Y110.51 E4.68796
G1 X73.457 Y110.501 E4.71946
G1 X72.894 Y110.453 E4.74495
G1 X72.343 Y110.327 E4.77045
G1 X71.815 Y110.125 E4.79596
G1 X71.321 Y109.85 E4.82147
G1 X70.871 Y109.508 E4.84697
G1 X70.473 Y109.106 E4.87249
G1 X70.137 Y108.652 E4.89797
G1 X69.867 Y108.155 E4.92349
G1 X69.67 Y107.625 E4.949
G1 X69.55 Y107.073 E4.97449
G1 X69.497 Y106.411 E5.00445
G1 X69.3 Y103.693 E5.1274
G1 X69.03 Y101.009 E5.2491
G1 X68.68 Y98.306 E5.37207
G1 X68.266 Y95.684 E5.49183
G1 X68.211 Y95.105 E5.51807
G1 X68.2 Y94.68 E5.53725
G1 X68.2 Y85.635 E5.94533
G1 X68.211 Y84.93 E5.97714
G1 X68.26 Y84.366 E6.00269
G1 X68.388 Y83.816 E6.02816
G1 X68.592 Y83.288 E6.0537
G1 X68.995 Y82.614 E6.08913
G1 X69.187 Y82.355 E6.10368
G1 X70.534 Y80.584 E6.20406
G1 X72.091 Y78.411 E6.32467
G1 X73.637 Y76.122 E6.44929
G1 X75.069 Y73.867 E6.56981
G1 X76.469 Y71.516 E6.69326
G1 X77.782 Y69.165 E6.81475
G1 X79.051 Y66.731 E6.9386
G1 X80.229 Y64.306 E7.06023
G1 X81.36 Y61.801 E7.18423
G1 X82.397 Y59.322 E7.30547
G1 X82.752 Y58.401 E7.35
G1 X83.095 Y57.546 E7.39156
G1 X83.342 Y57.037 E7.41709
G1 X83.658 Y56.569 E7.44257
G0 F3000 X84.176 Y56.578
G1 F1500 X84.801 Y55.95 E7.48254
G1 X85.213 Y55.607 E7.50673
G1 X85.672 Y55.329 E7.53094
G1 X86.166 Y55.122 E7.5551
G1 X86.686 Y54.991 E7.5793
G1 X87.331 Y54.934 E7.60851
G1 X87.855 Y54.928 E7.63215
G1 X88.37 Y54.935 E7.65539
G1 X91.11 Y54.935 E7.77901
G1 X91.35 Y54.93 E7.78984
G1 X92.049 Y54.927 E7.82138
G1 X92.759 Y54.938 E7.85341
G1 X93.262 Y54.982 E7.87619
G1 X94.263 Y55.139 E7.92191
G1 X95.193 Y55.298 E7.96447
G1 X97.886 Y55.68 E8.08719
G1 X100.557 Y55.982 E8.20846
G1 X101.292 Y56.056 E8.24179
G1 X101.82 Y56.149 E8.26598
G1 X102.328 Y56.32 E8.29016
G1 X102.805 Y56.565 E8.31436
G1 X103.369 Y56.989 E8.34619
G1 X104.011 Y57.627 E8.38703
G1 X104.355 Y58.039 E8.41124
G1 X104.633 Y58.497 E8.43541
G1 X104.841 Y58.992 E8.45964
G1 X104.981 Y59.566 E8.4863
G1 X105.011 Y59.76 E8.49515
G1 X105.354 Y62.284 E8.61007
G1 X105.799 Y64.982 E8.73344
G1 X106.317 Y67.654 E8.85624
G1 X106.91 Y70.298 E8.97849
G1 X107.586 Y72.968 E9.10275
G1 X108.325 Y75.573 E9.22492
G1 X109.15 Y78.194 E9.34889
G1 X110.045 Y80.781 E9.4724
G1 X110.767 Y82.71 E9.56532
G1 X111.148 Y83.697 E9.61305
G1 X111.304 Y84.21 E9.63725
G1 X111.388 Y84.883 E9.66784
G1 X111.4 Y85.32 E9.68757
G1 X111.4 Y94.334 E10.09425
G1 X111.39 Y95.055 E10.12678
G1 X111.342 Y95.589 E10.15097
G1 X111.216 Y96.11 E10.17516
G1 X111.014 Y96.607 E10.19936
G1 X110.74 Y97.068 E10.22356
G1 X110.401 Y97.484 E10.24777
G1 X110.004 Y97.844 E10.27195
G1 X109.722 Y98.043 E10.28752
G1 X108.857 Y98.592 E10.33374
G1 X108.199 Y98.997 E10.3686
G1 X105.94 Y100.479 E10.49049
G1 X103.688 Y102.049 E10.61435
G1 X101.515 Y103.656 E10.73628
G1 X99.342 Y105.36 E10.86087
G1 X97.41 Y106.967 E10.97425
G1 X97.262 Y107.087 E10.98285
G1 X96.822 Y107.393 E11.00703
G1 X96.341 Y107.63 E11.03122
G1 X95.83 Y107.793 E11.05542
G1 X95.505 Y107.855 E11.07034
G1 X94.38 Y108.016 E11.12162
G1 X91.702 Y108.439 E11.24394
G1 X89.006 Y108.943 E11.36768
G1 X86.329 Y109.522 E11.49125
G1 X85.013 Y109.845 E11.55239
G1 X84.305 Y110.008 E11.58516
G1 X83.607 Y110.098 E11.61692
G1 X83.17 Y110.11 E11.63664
G1 X74.161 Y110.11 E12.0431
G1 X73.463 Y110.101 E12.07459
G1 X72.928 Y110.054 E12.09882
G1 X72.407 Y109.928 E12.123
G1 X71.91 Y109.726 E12.14721
G1 X71.449 Y109.453 E12.17138
G1 X71.033 Y109.114 E12.19559
G1 X70.672 Y108.718 E12.21977
G1 X70.374 Y108.272 E12.24397
G1 X70.146 Y107.786 E12.26819
G1 X69.993 Y107.272 E12.29238
G1 X69.915 Y106.705 E12.31821
G1 X69.9 Y106.444 E12.33
G1 X69.699 Y103.66 E12.45593
G1 X69.426 Y100.95 E12.57882
G1 X69.079 Y98.269 E12.70078
G1 X68.661 Y95.622 E12.82169
G1 X68.611 Y95.093 E12.84566
G1 X68.6 Y94.68 E12.8643
G1 X68.6 Y85.641 E13.27211
G1 X68.611 Y84.936 E13.30392
G1 X68.66 Y84.402 E13.32812
G1 X68.787 Y83.881 E13.35231
G1 X68.99 Y83.384 E13.37653
G1 X69.317 Y82.851 E13.40474
G1 X69.505 Y82.597 E13.419
G1 X70.847 Y80.833 E13.519
G1 X72.432 Y78.622 E13.64174
G1 X73.964 Y76.355 E13.76518
G1 X75.401 Y74.09 E13.8862
G1 X76.819 Y71.71 E14.01119
G1 X78.143 Y69.338 E14.13375
G1 X79.408 Y66.912 E14.25719
G1 X80.596 Y64.467 E14.37983
G1 X81.717 Y61.984 E14.50275
G1 X82.763 Y59.483 E14.62505
G1 X83.123 Y58.55 E14.67017
G1 X83.466 Y57.695 E14.71174
G1 X83.702 Y57.213 E14.73595
G1 X84.176 Y56.578 E14.7717
G0 F3000 X84.468 Y56.851
G1 F1500 X85.079 Y56.238 E14.81075
G1 X85.469 Y55.916 E14.83357
G1 X85.905 Y55.659 E14.8564
G1 X86.376 Y55.475 E14.87921
G1 X86.87 Y55.367 E14.90203
G1 X87.417 Y55.332 E14.92676
G1 X87.849 Y55.328 E14.94625
G1 X88.364 Y55.335 E14.96949
G1 X91.12 Y55.335 E15.09383
G1 X91.352 Y55.33 E15.1043
G1 X92.043 Y55.327 E15.13547
G1 X92.753 Y55.338 E15.16751
G1 X93.2 Y55.377 E15.18775
G1 X94.196 Y55.533 E15.23324
G1 X95.147 Y55.695 E15.27676
G1 X97.817 Y56.075 E15.39844
G1 X100.541 Y56.382 E15.52211
G1 X101.252 Y56.454 E15.55435
G1 X101.749 Y56.544 E15.57714
G1 X102.226 Y56.712 E15.59996
G1 X102.671 Y56.952 E15.62277
G1 X103.098 Y57.284 E15.64717
G1 X103.724 Y57.905 E15.68695
G1 X104.046 Y58.295 E15.70977
G1 X104.303 Y58.73 E15.73257
G1 X104.488 Y59.201 E15.7554
G1 X104.604 Y59.742 E15.78036
G1 X104.962 Y62.366 E15.89984
G1 X105.405 Y65.051 E16.02262
G1 X105.921 Y67.712 E16.14491
G1 X106.526 Y70.412 E16.26975
G1 X107.199 Y73.07 E16.39345
G1 X107.944 Y75.697 E16.51665
G1 X108.766 Y78.308 E16.64015
G1 X109.659 Y80.89 E16.76341
G1 X110.402 Y82.874 E16.85899
G1 X110.775 Y83.841 E16.90575
G1 X110.92 Y84.325 E16.92855
G1 X110.989 Y84.895 E16.95445
G1 X111 Y85.32 E16.97363
G1 X111 Y94.328 E17.38004
G1 X110.99 Y95.049 E17.41258
G1 X110.943 Y95.553 E17.43541
G1 X110.817 Y96.042 E17.4582
G1 X110.616 Y96.506 E17.48101
G1 X110.344 Y96.933 E17.50385
G1 X110.009 Y97.311 E17.52664
G1 X109.507 Y97.705 E17.55543
G1 X108.648 Y98.251 E17.60135
G1 X108.001 Y98.649 E17.63562
G1 X105.697 Y100.161 E17.75996
G1 X103.467 Y101.715 E17.88259
G1 X101.253 Y103.353 E18.00684
G1 X99.106 Y105.037 E18.12995
G1 X97.158 Y106.657 E18.24426
G1 X97.01 Y106.777 E18.25285
G1 X96.594 Y107.063 E18.27563
G1 X96.137 Y107.28 E18.29845
G1 X95.448 Y107.459 E18.33057
G1 X94.341 Y107.617 E18.38102
G1 X91.597 Y108.051 E18.50636
G1 X88.954 Y108.545 E18.62767
G1 X86.228 Y109.134 E18.7535
G1 X84.923 Y109.455 E18.81413
G1 X84.215 Y109.618 E18.84691
G1 X83.595 Y109.699 E18.87512
G1 X83.17 Y109.71 E18.8943
G1 X74.166 Y109.71 E19.30053
G1 X73.468 Y109.701 E19.33202
G1 X72.964 Y109.654 E19.35486
G1 X72.474 Y109.529 E19.37767
G1 X72.01 Y109.328 E19.40049
G1 X71.584 Y109.057 E19.42327
G1 X71.205 Y108.722 E19.44609
G1 X70.884 Y108.331 E19.46891
G1 X70.629 Y107.895 E19.4917
G1 X70.445 Y107.424 E19.51452
G1 X70.314 Y106.682 E19.54851
G1 X70.299 Y106.415 E19.56057
G1 X70.097 Y103.628 E19.68664
G1 X69.826 Y100.93 E19.80898
G1 X69.471 Y98.187 E19.93377
G1 X69.056 Y95.559 E20.05381
G1 X69.001 Y94.773 E20.08935
G1 X69 Y85.647 E20.50109
G1 X69.011 Y84.942 E20.5329
G1 X69.059 Y84.439 E20.5557
G1 X69.186 Y83.949 E20.57853
G1 X69.388 Y83.486 E20.60132
G1 X69.797 Y82.874 E20.63453
G1 X71.175 Y81.063 E20.7372
G1 X72.756 Y78.857 E20.85965
G1 X74.289 Y76.587 E20.98324
G1 X75.765 Y74.262 E21.10748
G1 X77.161 Y71.919 E21.23053
G1 X78.498 Y69.524 E21.35428
G1 X79.765 Y67.094 E21.47793
G1 X80.957 Y64.641 E21.60097
G1 X82.08 Y62.153 E21.72413
G1 X83.135 Y59.629 E21.84755
G1 X83.494 Y58.699 E21.89253
G1 X83.837 Y57.844 E21.93409
G1 X84.062 Y57.391 E21.95691
G1 X84.468 Y56.851 E21.98739
G1 F2400 E20.78739
;MESH:clip_10mm_v1.stl
G0 F3000 X90.408 Y64.827
;TYPE:WALL-INNER
G1 F2400 E21.98739
G1 F1500 X91.365 Y63.87 E22.04845
G1 X91.705 Y63.53 E22.07014
G1 X91.705 Y64.011 E22.08183
G1 X91.705 Y65.643 E22.15546
G1 X91.705 Y66.124 E22.17716
G1 X91.365 Y65.784 E22.18882
G1 X90.408 Y64.827 E22.24988
G1 F2400 E21.04988
G0 F3000 X88.295 Y63.53
G1 F2400 E22.24988
G1 F1500 X88.635 Y63.87 E22.27158
G1 X89.592 Y64.827 E22.33264
G1 X88.635 Y65.784 E22.3937
G1 X88.295 Y66.124 E22.41539
G1 X88.295 Y65.643 E22.42708
G1 X88.295 Y64.011 E22.50071
G1 X88.295 Y63.53 E22.51239
G1 F2400 E21.31239
G0 F3000 X87.895 Y61.212
G1 F2400 E22.51239
G1 F1500 X87.395 Y60.61 E22.5477
G1 X87.395 Y59.272 E22.60806
G1 X87.545 Y59.122 E22.61764
G1 X87.905 Y59.122 E22.63388
G1 X87.905 Y60.674 E22.7039
G1 X87.905 Y61.212 E22.71778
G1 X87.905 Y62.574 E22.77923
G1 X90 Y64.669 E22.9129
G1 X92.095 Y62.574 E23.04657
G1 X92.095 Y61.212 E23.10802
G1 X92.095 Y60.674 E23.13229
G1 X92.095 Y59.122 E23.20231
G1 X92.455 Y59.122 E23.21856
G1 X92.605 Y59.272 E23.22813
G1 X92.605 Y60.61 E23.28849
G1 X92.105 Y61.212 E23.3134
G1 X92.105 Y62.574 E23.31494
G1 X92.105 Y67.08 E23.51824
G1 X92.105 Y68.442 E23.57968
G1 X92.605 Y69.044 E23.61499
G1 X92.605 Y70.382 E23.67536
G1 X92.455 Y70.532 E23.68493
G1 X92.095 Y70.532 E23.70117
G1 X92.095 Y68.98 E23.77119
G1 X92.095 Y68.442 E23.78507
G1 X92.095 Y67.08 E23.78661
G1 X90 Y64.985 E23.92028
G1 X87.905 Y67.08 E24.05395
G1 X87.905 Y68.442 E24.1154
G1 X87.905 Y68.98 E24.13968
G1 X87.905 Y70.532 E24.2097
G1 X87.545 Y70.532 E24.22594
G1 X87.395 Y70.382 E24.23551
G1 X87.395 Y69.044 E24.29588
G1 X87.895 Y68.442 E24.32078
G1 X87.895 Y67.08 E24.32232
G1 X87.895 Y62.574 E24.52562
G1 X87.895 Y61.212 E24.52716
G0 F3000 X87.5 Y61.355
;TYPE:WALL-OUTER
G1 F1500 X87 Y60.754 E24.56243
G1 X87 Y59.109 E24.63665
G1 X87.382 Y58.727 E24.66102
G1 X88.3 Y58.727 E24.70244
G1 X88.3 Y62.41 E24.8686
G1 X90 Y64.11 E24.97707
G1 X91.7 Y62.41 E25.08554
G1 X91.7 Y58.727 E25.2517
G1 X92.618 Y58.727 E25.29312
G1 X93 Y59.109 E25.31749
G1 X93 Y60.754 E25.39171
G1 X92.5 Y61.355 E25.42698
G1 X92.5 Y68.299 E25.74027
G1 X93 Y68.9 E25.77555
G1 X93 Y70.545 E25.84976
G1 X92.618 Y70.927 E25.87414
G1 X91.7 Y70.927 E25.91555
G1 X91.7 Y67.244 E26.08172
G1 X90 Y65.544 E26.19019
G1 X88.3 Y67.244 E26.29865
G1 X88.3 Y70.927 E26.46482
G1 X87.382 Y70.927 E26.50624
G1 X87 Y70.545 E26.53061
G1 X87 Y68.9 E26.60483
G1 X87.5 Y68.299 E26.6401
G1 X87.5 Y61.355 E26.95339
G0 F3000 X87.372 Y61.202
G0 X87.711 Y60.921
G1 F2400 E25.75339
G0 F3000 X88.685 Y64.47
;TYPE:SKIN
G1 F2400 E26.95339
G1 F1500 X89.042 Y64.827 E26.9766
G1 X88.685 Y65.184 E26.99982
G1 X88.685 Y64.47 E27.03264
G1 F2400 E25.83264
G0 F3000 X90.958 Y64.827
G1 F2400 E27.03264
G1 F1500 X91.315 Y64.47 E27.05586
G1 X91.315 Y65.184 E27.08869
G1 X90.958 Y64.827 E27.1119
G1 F2400 E25.9119
;MESH:clip_10mm_v1.stl(3)
G0 F3000 X98.644 Y65.928
;TYPE:WALL-INNER
G1 F2400 E27.1119
G1 F1500 X99.601 Y64.971 E27.17296
G1 X99.941 Y64.631 E27.19466
G1 X99.941 Y65.112 E27.20634
G1 X99.941 Y66.744 E27.27997
G1 X99.941 Y67.225 E27.30167
G1 X99.601 Y66.885 E27.31333
G1 X98.644 Y65.928 E27.37439
G1 F2400 E26.17439
G0 F3000 X97.828 Y65.928
G1 F2400 E27.37439
G1 F1500 X96.871 Y66.885 E27.43545
G1 X96.531 Y67.225 E27.45715
G1 X96.531 Y66.744 E27.46883
G1 X96.531 Y65.112 E27.54246
G1 X96.531 Y64.631 E27.56417
G1 X96.871 Y64.971 E27.57583
G1 X97.828 Y65.928 E27.63689
G0 F3000 X98.236 Y65.77
G1 F1500 X100.331 Y63.675 E27.77056
G1 X100.331 Y62.313 E27.83201
G1 X100.331 Y61.775 E27.85628
G1 X100.331 Y60.223 E27.9263
G1 X100.691 Y60.223 E27.94254
G1 X100.841 Y60.373 E27.95211
G1 X100.841 Y61.711 E28.01248
G1 X100.341 Y62.313 E28.03739
G1 X100.341 Y63.675 E28.03893
G1 X100.341 Y68.181 E28.24222
G1 X100.341 Y69.543 E28.30367
G1 X100.841 Y70.145 E28.33898
G1 X100.841 Y71.483 E28.39934
G1 X100.691 Y71.633 E28.40891
G1 X100.331 Y71.633 E28.42516
G1 X100.331 Y70.081 E28.49518
G1 X100.331 Y69.543 E28.50906
G1 X100.331 Y68.181 E28.5106
G1 X98.236 Y66.086 E28.64427
G1 X96.141 Y68.181 E28.77794
G1 X96.141 Y69.543 E28.83939
G1 X96.141 Y70.081 E28.86366
G1 X96.141 Y71.633 E28.93368
G1 X95.781 Y71.633 E28.94993
G1 X95.631 Y71.483 E28.9595
G1 X95.631 Y70.145 E29.01986
G1 X96.131 Y69.543 E29.04477
G1 X96.131 Y68.181 E29.04631
G1 X96.131 Y63.675 E29.24961
G1 X96.131 Y62.313 E29.31105
G1 X95.631 Y61.711 E29.34636
G1 X95.631 Y60.373 E29.40673
G1 X95.781 Y60.223 E29.4163
G1 X96.141 Y60.223 E29.43254
G1 X96.141 Y61.775 E29.50256
G1 X96.141 Y62.313 E29.51644
G1 X96.141 Y63.675 E29.51798
G1 X98.236 Y65.77 E29.65165
G0 F3000 X98.236 Y65.211
;TYPE:WALL-OUTER
G1 F1500 X99.936 Y63.511 E29.76012
G1 X99.936 Y59.828 E29.92629
G1 X100.854 Y59.828 E29.9677
G1 X101.236 Y60.21 E29.99208
G1 X101.236 Y61.855 E30.06629
G1 X100.736 Y62.456 E30.10157
G1 X100.736 Y69.4 E30.41486
G1 X101.236 Y70.001 E30.45013
G1 X101.236 Y71.646 E30.52435
G1 X100.854 Y72.028 E30.54872
G1 X99.936 Y72.028 E30.59014
G1 X99.936 Y68.345 E30.7563
G1 X98.236 Y66.645 E30.86477
G1 X96.536 Y68.345 E30.97324
G1 X96.536 Y72.028 E31.1394
G1 X95.618 Y72.028 E31.18082
G1 X95.236 Y71.646 E31.20519
G1 X95.236 Y70.001 E31.27941
G1 X95.736 Y69.4 E31.31468
G1 X95.736 Y62.456 E31.62797
G1 X95.236 Y61.855 E31.66324
G1 X95.236 Y60.21 E31.73746
G1 X95.618 Y59.828 E31.76183
G1 X96.536 Y59.828 E31.80325
G1 X96.536 Y63.511 E31.96942
G1 X98.236 Y65.211 E32.07788
G0 F3000 X98.377 Y65.07
G0 X98.688 Y65.381
G0 X99.194 Y65.928
;TYPE:SKIN
G1 F1500 X99.551 Y65.571 E32.1011
G1 X99.551 Y66.285 E32.13393
G1 X99.194 Y65.928 E32.15714
G1 F2400 E30.95714
G0 F3000 X97.278 Y65.928
G1 F2400 E32.15714
G1 F1500 X96.921 Y66.285 E32.18035
G1 X96.921 Y65.571 E32.21318
