;FLAVOR:Marlin
;TIME:871
;Filament used: 1.28483m
;Layer height: 0.3
;MINX:49.471
;MINY:71.9
;MINZ:0.3
;MAXX:110.51
;MAXY:113.106
;MAXZ:9.9
;Generated with Cura_SteamEngine 4.12.1
M82 ;absolute extrusion mode
G21 ;metric values
G90 ;absolute positioning
M82 ;set extruder to absolute mode
M107 ;start with the fan off

M104 S200 T0 ; start heating T0 to what is set in Cura
M140 S60 ; start heating the bed to what is set in Cura
M190 S60 ; start heating the bed to what is set in Cura
M109 S200 T0 ; start heating T0 to what is set in Cura

G28 X0 Y0 ;move X/Y to min endstops
G28 Z0 ;move Z to min endstops
G1 Z15.0 F2400 ;move the platform down 15mm
G92 E0 ;zero the extruded length
G1 F200 E3 ;extrude 3mm of feed stock
G92 E0 ;zero the extruded length again
G1 F2400
G0 Y20 F2400
M117 Printing...
G5
G92 E0
G92 E0
G1 F2400 E-1.2
;LAYER_COUNT:33
;LAYER:0
M107
G0 F3000 X52.195 Y76.088 Z0.3
;TYPE:SKIRT
G1 F2400 E0
G1 F1500 X52.699 Y75.831 E0.02552
G1 X53.233 Y75.647 E0.05101
G1 X53.789 Y75.54 E0.07655
G1 X54.43 Y75.506 E0.10551
G1 X54.6 Y75.504 E0.11318
G1 X55.362 Y75.515 E0.14757
G1 X57.835 Y75.496 E0.25914
G1 X58.032 Y75.509 E0.26805
G1 X59.074 Y75.501 E0.31506
G1 X61.803 Y75.443 E0.43821
G1 X64.506 Y75.309 E0.56031
G1 X67.241 Y75.096 E0.68408
G1 X69.901 Y74.812 E0.80477
G1 X72.614 Y74.445 E0.92829
G1 X75.301 Y74.003 E1.05115
G1 X77.954 Y73.49 E1.17306
G1 X80.594 Y72.902 E1.29509
G1 X82.676 Y72.383 E1.39189
G1 X84.003 Y72.038 E1.45375
G1 X84.559 Y71.935 E1.47927
G1 X85.218 Y71.902 E1.50904
G1 X85.33 Y71.9 E1.51409
G1 X94.35 Y71.9 E1.92104
G1 X95.053 Y71.91 E1.95276
G1 X95.616 Y71.958 E1.97826
G1 X96.167 Y72.085 E2.00377
G1 X96.695 Y72.289 E2.0293
G1 X97.188 Y72.564 E2.05477
G1 X97.639 Y72.907 E2.08034
G1 X98.227 Y73.426 E2.11572
G1 X99.204 Y74.308 E2.17511
G1 X101.288 Y76.088 E2.29876
G1 X103.372 Y77.768 E2.41953
G1 X105.538 Y79.415 E2.54229
G1 X107.746 Y80.998 E2.66487
G1 X108.774 Y81.713 E2.72136
G1 X109.328 Y82.179 E2.75402
G1 X109.699 Y82.606 E2.77954
G1 X110.006 Y83.081 E2.80506
G1 X110.242 Y83.594 E2.83054
G1 X110.404 Y84.136 E2.85606
G1 X110.498 Y84.883 E2.89003
G1 X110.51 Y85.33 E2.9102
G1 X110.51 Y94.35 E3.31715
G1 X110.5 Y95.052 E3.34883
G1 X110.452 Y95.615 E3.37432
G1 X110.325 Y96.166 E3.39983
G1 X110.121 Y96.694 E3.42537
G1 X109.846 Y97.187 E3.45084
G1 X109.503 Y97.637 E3.47637
G1 X109.101 Y98.034 E3.50186
G1 X108.692 Y98.345 E3.52504
G1 X106.629 Y99.784 E3.63852
G1 X104.44 Y101.404 E3.76139
G1 X102.325 Y103.064 E3.88269
G1 X100.217 Y104.818 E4.00641
G1 X98.149 Y106.64 E4.13076
G1 X97.707 Y107.041 E4.15769
G1 X97.262 Y107.391 E4.18323
G1 X96.884 Y107.618 E4.20312
G1 X96.319 Y107.869 E4.23101
G1 X95.613 Y108.119 E4.2648
G1 X94.267 Y108.576 E4.32894
G1 X91.73 Y109.518 E4.45103
G1 X89.206 Y110.536 E4.57382
G1 X86.707 Y111.627 E4.69684
G1 X84.53 Y112.651 E4.80539
G1 X84.334 Y112.739 E4.81508
G1 X83.804 Y112.934 E4.84056
G1 X83.251 Y113.051 E4.86606
G1 X82.532 Y113.096 E4.89856
G1 X82.361 Y113.098 E4.90628
G1 X81.599 Y113.087 E4.94066
G1 X79.119 Y113.106 E5.05255
G1 X78.922 Y113.093 E5.06146
G1 X78.069 Y113.099 E5.09995
G1 X77.431 Y113.089 E5.12873
G1 X76.875 Y113.041 E5.15391
G1 X76.326 Y112.955 E5.17898
G1 X73.616 Y112.569 E5.30248
G1 X70.967 Y112.268 E5.42277
G1 X68.227 Y112.035 E5.54683
G1 X65.471 Y111.878 E5.67138
G1 X65.144 Y111.862 E5.68615
G1 X64.291 Y111.802 E5.72473
G1 X61.494 Y111.644 E5.85112
G1 X58.792 Y111.568 E5.97307
G1 X58.462 Y111.563 E5.98796
G1 X55.967 Y111.58 E6.10053
G1 X55.798 Y111.569 E6.10817
G1 X54.926 Y111.575 E6.14752
G1 X54.298 Y111.566 E6.17585
G1 X53.734 Y111.518 E6.20139
G1 X53.184 Y111.391 E6.22686
G1 X52.656 Y111.187 E6.25239
G1 X52.162 Y110.912 E6.2779
G1 X51.685 Y110.555 E6.30478
G1 X51.561 Y110.453 E6.31203
G1 X51.164 Y110.114 E6.33558
G1 X50.761 Y109.717 E6.3611
G1 X50.418 Y109.268 E6.38659
G1 X50.141 Y108.775 E6.41211
G1 X49.938 Y108.247 E6.43763
G1 X49.81 Y107.697 E6.46311
G1 X49.761 Y107.127 E6.48892
G1 X49.754 Y106.615 E6.51202
G1 X49.679 Y103.901 E6.63451
G1 X49.565 Y101.758 E6.73134
G1 X49.561 Y100.915 E6.76937
G1 X49.615 Y99.644 E6.82676
G1 X49.638 Y99.235 E6.84525
G1 X49.718 Y96.523 E6.96766
G1 X49.72 Y93.815 E7.08983
G1 X49.681 Y92.364 E7.15532
G1 X49.664 Y91.142 E7.21046
G1 X49.589 Y88.428 E7.33295
G1 X49.475 Y86.284 E7.42982
G1 X49.471 Y85.441 E7.46785
G1 X49.504 Y84.649 E7.50362
G1 X49.586 Y83.196 E7.56927
G1 X49.664 Y80.447 E7.69335
G1 X49.671 Y79.949 E7.71582
G1 X49.719 Y79.385 E7.74136
G1 X49.846 Y78.835 E7.76683
G1 X50.049 Y78.307 E7.79235
G1 X50.325 Y77.813 E7.81788
G1 X50.667 Y77.364 E7.84334
G1 X51.078 Y76.959 E7.86937
G1 X51.733 Y76.414 E7.90782
G1 X52.195 Y76.088 E7.93333
G0 F3000 X52.426 Y76.416
G1 F1500 X52.906 Y76.178 E7.9575
G1 X53.416 Y76.013 E7.98168
G1 X54.161 Y75.913 E8.0156
G1 X54.594 Y75.904 E8.03514
G1 X55.359 Y75.915 E8.06966
G1 X57.838 Y75.896 E8.1815
G1 X58.026 Y75.909 E8.19001
G1 X59.086 Y75.901 E8.23783
G1 X61.795 Y75.844 E8.36008
G1 X64.556 Y75.707 E8.4848
G1 X67.243 Y75.497 E8.6064
G1 X69.965 Y75.207 E8.7299
G1 X72.695 Y74.838 E8.85419
G1 X75.336 Y74.403 E8.97495
G1 X78.045 Y73.879 E9.09943
G1 X80.699 Y73.288 E9.22211
G1 X82.777 Y72.77 E9.31873
G1 X84.104 Y72.425 E9.38059
G1 X84.631 Y72.329 E9.40476
G1 X85.229 Y72.301 E9.43177
G1 X94.344 Y72.3 E9.843
G1 X95.047 Y72.31 E9.87472
G1 X95.581 Y72.358 E9.89891
G1 X96.103 Y72.484 E9.92314
G1 X96.599 Y72.687 E9.94732
G1 X97.06 Y72.961 E9.97152
G1 X97.374 Y73.207 E9.98951
G1 X97.959 Y73.722 E10.02468
G1 X98.942 Y74.61 E10.08444
G1 X101.04 Y76.401 E10.2089
G1 X103.133 Y78.089 E10.33021
G1 X105.309 Y79.742 E10.4535
G1 X107.527 Y81.333 E10.57665
G1 X108.546 Y82.042 E10.63266
G1 X109.046 Y82.461 E10.66209
G1 X109.395 Y82.868 E10.68628
G1 X109.681 Y83.322 E10.71049
G1 X109.896 Y83.813 E10.73467
G1 X110.036 Y84.331 E10.75888
G1 X110.098 Y84.896 E10.78452
G1 X110.11 Y85.33 E10.80411
G1 X110.11 Y94.344 E11.21079
G1 X110.1 Y95.046 E11.24247
G1 X110.052 Y95.58 E11.26666
G1 X109.926 Y96.102 E11.29088
G1 X109.723 Y96.598 E11.31506
G1 X109.449 Y97.059 E11.33926
G1 X109.11 Y97.475 E11.36347
G1 X108.601 Y97.918 E11.39391
G1 X108.463 Y98.017 E11.40158
G1 X106.385 Y99.466 E11.51587
G1 X104.201 Y101.083 E11.63847
G1 X102.068 Y102.757 E11.7608
G1 X99.961 Y104.511 E11.88449
G1 X97.885 Y106.339 E12.00929
G1 X97.438 Y106.745 E12.03654
G1 X97.015 Y107.075 E12.06074
G1 X96.694 Y107.266 E12.07759
G1 X96.186 Y107.492 E12.10268
G1 X95.485 Y107.74 E12.13623
G1 X94.136 Y108.198 E12.2005
G1 X91.59 Y109.143 E12.32302
G1 X89.033 Y110.174 E12.44741
G1 X86.556 Y111.256 E12.56936
G1 X84.367 Y112.286 E12.67851
G1 X84.171 Y112.374 E12.6882
G1 X83.666 Y112.557 E12.71244
G1 X83.141 Y112.662 E12.73659
G1 X82.52 Y112.697 E12.76465
G1 X82.367 Y112.698 E12.77156
G1 X81.602 Y112.687 E12.80608
G1 X79.116 Y112.706 E12.91824
G1 X78.928 Y112.693 E12.92674
G1 X78.076 Y112.699 E12.96518
G1 X77.438 Y112.689 E12.99397
G1 X76.936 Y112.646 E13.0167
G1 X76.381 Y112.559 E13.04205
G1 X73.68 Y112.174 E13.16514
G1 X70.974 Y111.867 E13.28801
G1 X68.247 Y111.635 E13.41149
G1 X65.54 Y111.481 E13.53381
G1 X65.172 Y111.463 E13.55044
G1 X64.28 Y111.4 E13.59078
G1 X61.562 Y111.246 E13.7136
G1 X58.767 Y111.168 E13.83975
G1 X58.465 Y111.163 E13.85338
G1 X55.964 Y111.18 E13.96622
G1 X55.803 Y111.169 E13.9735
G1 X54.931 Y111.175 E14.01284
G1 X54.303 Y111.166 E14.04118
G1 X53.769 Y111.118 E14.06537
G1 X53.248 Y110.992 E14.08955
G1 X52.751 Y110.789 E14.11378
G1 X52.129 Y110.395 E14.14699
G1 X51.82 Y110.149 E14.16481
G1 X51.423 Y109.81 E14.18837
G1 X51.043 Y109.432 E14.21255
G1 X50.722 Y109.002 E14.23676
G1 X50.469 Y108.529 E14.26096
G1 X50.289 Y108.024 E14.28515
G1 X50.186 Y107.498 E14.30933
G1 X50.161 Y107.121 E14.32638
G1 X50.154 Y106.609 E14.34948
G1 X50.077 Y103.867 E14.47324
G1 X49.968 Y101.83 E14.56527
G1 X49.955 Y101.317 E14.58842
G1 X49.964 Y100.823 E14.61071
G1 X50.014 Y99.666 E14.66296
G1 X50.039 Y99.232 E14.68258
G1 X50.118 Y96.534 E14.80435
G1 X50.12 Y93.805 E14.92748
G1 X50.081 Y92.358 E14.99278
G1 X50.064 Y91.136 E15.04792
G1 X49.987 Y88.394 E15.17168
G1 X49.878 Y86.356 E15.26376
G1 X49.865 Y85.843 E15.28691
G1 X49.874 Y85.347 E15.30929
G1 X49.904 Y84.672 E15.33978
G1 X49.984 Y83.266 E15.40331
G1 X50.065 Y80.401 E15.53263
G1 X50.071 Y79.954 E15.55279
G1 X50.119 Y79.42 E15.57698
G1 X50.245 Y78.899 E15.60117
G1 X50.447 Y78.402 E15.62537
G1 X50.721 Y77.941 E15.64957
G1 X51.061 Y77.526 E15.67377
G1 X51.613 Y77.029 E15.70728
G1 X51.986 Y76.723 E15.72905
G1 X52.426 Y76.416 E15.75326
G0 F3000 X52.655 Y76.745
G1 F1500 X53.111 Y76.527 E15.77606
G1 X53.595 Y76.382 E15.79886
G1 X54.172 Y76.313 E15.82507
G1 X54.588 Y76.304 E15.84385
G1 X55.356 Y76.315 E15.8785
G1 X57.841 Y76.296 E15.99062
G1 X58.019 Y76.309 E15.99867
G1 X59.093 Y76.301 E16.04713
G1 X61.824 Y76.243 E16.17037
G1 X64.571 Y76.107 E16.29446
G1 X67.28 Y75.896 E16.41705
G1 X70.024 Y75.603 E16.54155
G1 X72.713 Y75.239 E16.66398
G1 X75.44 Y74.791 E16.78866
G1 X78.137 Y74.269 E16.9126
G1 X80.767 Y73.683 E17.03416
G1 X82.874 Y73.158 E17.13213
G1 X84.204 Y72.812 E17.19413
G1 X84.92 Y72.71 E17.22676
G1 X85.33 Y72.7 E17.24527
G1 X94.339 Y72.7 E17.65172
G1 X95.042 Y72.71 E17.68344
G1 X95.545 Y72.757 E17.70624
G1 X96.035 Y72.883 E17.72906
G1 X96.498 Y73.085 E17.75185
G1 X97.11 Y73.508 E17.78542
G1 X97.691 Y74.019 E17.82033
G1 X98.678 Y74.91 E17.88032
G1 X100.796 Y76.719 E18.00598
G1 X102.884 Y78.402 E18.12698
G1 X105.056 Y80.053 E18.25007
G1 X107.294 Y81.658 E18.37432
G1 X108.317 Y82.37 E18.43056
G1 X108.763 Y82.744 E18.45682
G1 X109.091 Y83.129 E18.47963
G1 X109.354 Y83.56 E18.50241
G1 X109.547 Y84.028 E18.52525
G1 X109.663 Y84.52 E18.54806
G1 X109.708 Y85.231 E18.5802
G1 X109.71 Y85.33 E18.58467
G1 X109.71 Y94.339 E18.99113
G1 X109.7 Y95.041 E19.0228
G1 X109.653 Y95.544 E19.04559
G1 X109.527 Y96.034 E19.06842
G1 X109.325 Y96.497 E19.09121
G1 X109.054 Y96.924 E19.11403
G1 X108.718 Y97.302 E19.13685
G1 X108.272 Y97.662 E19.1627
G1 X106.147 Y99.145 E19.27962
G1 X103.962 Y100.763 E19.40228
G1 X101.81 Y102.451 E19.52568
G1 X99.685 Y104.22 E19.65042
G1 X97.655 Y106.008 E19.77247
G1 X97.169 Y106.449 E19.80208
G1 X96.769 Y106.758 E19.82488
G1 X96.052 Y107.115 E19.86102
G1 X95.356 Y107.361 E19.89433
G1 X94.016 Y107.816 E19.95817
G1 X91.437 Y108.773 E20.08228
G1 X88.901 Y109.796 E20.20566
G1 X86.361 Y110.905 E20.3307
G1 X84.203 Y111.921 E20.43831
G1 X84.007 Y112.009 E20.448
G1 X83.531 Y112.179 E20.47081
G1 X82.788 Y112.289 E20.5047
G1 X82.373 Y112.298 E20.52342
G1 X81.605 Y112.287 E20.55808
G1 X79.113 Y112.306 E20.67051
G1 X78.935 Y112.293 E20.67856
G1 X78.082 Y112.299 E20.71705
G1 X77.444 Y112.289 E20.74584
G1 X76.998 Y112.25 E20.76603
G1 X76.488 Y112.17 E20.78933
G1 X73.75 Y111.78 E20.9141
G1 X70.982 Y111.466 E21.03979
G1 X68.305 Y111.238 E21.161
G1 X65.531 Y111.08 E21.28636
G1 X65.2 Y111.064 E21.30131
G1 X64.329 Y111.003 E21.3407
G1 X61.562 Y110.846 E21.46574
G1 X58.784 Y110.768 E21.59112
G1 X58.467 Y110.763 E21.60543
G1 X55.961 Y110.78 E21.71849
G1 X55.813 Y110.769 E21.72519
G1 X54.937 Y110.775 E21.76471
G1 X54.309 Y110.766 E21.79305
G1 X53.806 Y110.719 E21.81584
G1 X53.316 Y110.593 E21.83867
G1 X52.852 Y110.391 E21.8615
G1 X52.376 Y110.081 E21.88713
G1 X52.08 Y109.845 E21.90421
G1 X51.683 Y109.506 E21.92776
G1 X51.326 Y109.148 E21.95057
G1 X51.029 Y108.738 E21.97341
G1 X50.801 Y108.287 E21.99621
G1 X50.646 Y107.806 E22.01901
G1 X50.561 Y107.116 E22.05038
G1 X50.554 Y106.604 E22.07348
G1 X50.476 Y103.821 E22.19909
G1 X50.364 Y101.734 E22.29338
G1 X50.361 Y100.928 E22.32975
G1 X50.413 Y99.689 E22.3857
G1 X50.437 Y99.267 E22.40477
G1 X50.518 Y96.497 E22.52979
G1 X50.52 Y93.794 E22.65174
G1 X50.481 Y92.353 E22.71678
G1 X50.464 Y91.131 E22.77192
G1 X50.386 Y88.348 E22.89753
G1 X50.274 Y86.26 E22.99187
G1 X50.271 Y85.454 E23.02823
G1 X50.303 Y84.695 E23.0625
G1 X50.384 Y83.266 E23.12708
G1 X50.465 Y80.412 E23.25589
G1 X50.471 Y79.96 E23.27629
G1 X50.518 Y79.457 E23.29908
G1 X50.644 Y78.967 E23.32191
G1 X50.845 Y78.503 E23.34472
G1 X51.117 Y78.077 E23.36752
G1 X51.596 Y77.569 E23.39903
G1 X52.239 Y77.033 E23.43679
G1 X52.655 Y76.745 E23.45962
G1 F2400 E22.25962
G0 F3000 X100.2 Y95.9
;TYPE:SUPPORT
G1 F2400 E23.45962
G1 F1500 X102.8 Y95.9 E23.57692
G1 X102.8 Y96.3 E23.59497
G1 X100.2 Y96.3 E23.71227
G1 X100.2 Y95.9 E23.73032
G1 F2400 E22.53032
;MESH:clip_10mm_v2.stl(3)
G0 F3000 X54.461 Y91.488
;TYPE:WALL-INNER
G1 F2400 E23.73032
G1 F1500 X54.261 Y91.321 E23.74208
G1 X54.261 Y90.05 E23.79942
G1 X54.461 Y89.85 E23.81218
G1 X54.461 Y91.488 E23.85829
G1 F2400 E22.65829
G0 F3000 X59.261 Y81.754
G1 F2400 E23.85829
G1 F1500 X59.261 Y80.116 E23.93219
G1 X59.461 Y80.283 E23.94394
G1 X59.461 Y81.554 E23.96856
G1 X59.261 Y81.754 E23.98132
G1 F2400 E22.78132
G0 F3000 X54.461 Y81.754
G1 F2400 E23.98132
G1 F1500 X54.261 Y81.554 E23.99408
G1 X54.261 Y80.283 E24.05142
G1 X54.461 Y80.116 E24.06318
G1 X54.461 Y81.754 E24.11109
G1 F2400 E22.91109
G0 F3000 X56.796 Y85.802
G1 F2400 E24.11109
G1 F1500 X55.019 Y86.021 E24.19187
G1 X54.728 Y85.802 E24.2083
G1 X55.02 Y85.583 E24.21739
G1 X56.796 Y85.802 E24.25312
G1 F2400 E23.05312
G0 F3000 X58.703 Y86.021
G1 F2400 E24.25312
G1 F1500 X56.926 Y85.802 E24.33389
G1 X58.702 Y85.583 E24.36952
G1 X58.994 Y85.802 E24.38599
G1 X58.703 Y86.021 E24.39502
G0 F3000 X58.861 Y86.568
G1 F1500 X58.83 Y86.439 E24.401
G1 X56.861 Y86.197 E24.4905
G1 X54.893 Y86.439 E24.57996
G1 X54.861 Y86.572 E24.58613
G1 X54.861 Y86.402 E24.58736
G1 X54.061 Y85.802 E24.63248
G1 X54.861 Y85.202 E24.67759
G1 X54.861 Y85.031 E24.68531
G1 X54.893 Y85.164
G1 X56.861 Y85.407 E24.77477
G1 X58.83 Y85.164 E24.86428
G1 X58.861 Y85.035 E24.87027
G1 X58.861 Y85.202 E24.87151
G1 X59.661 Y85.802 E24.91663
G1 X58.861 Y86.402 E24.96175
G1 X58.861 Y86.568 E24.96296
G1 F2400 E23.76296
G0 F3000 X59.461 Y91.321
G1 F2400 E24.96296
G1 F1500 X59.261 Y91.488 E24.97471
G1 X59.261 Y89.85 E25.04862
G1 X59.461 Y90.05 E25.06138
G1 X59.461 Y91.321 E25.08599
G0 F3000 X59.861 Y91.508
;TYPE:WALL-OUTER
G1 F1500 X59.388 Y91.902 E25.11377
G1 X58.861 Y91.902 E25.13754
G1 X58.861 Y89.285 E25.25561
G1 X58.861 Y88.278 E25.30104
G1 X58.506 Y86.802 E25.36954
G1 X56.861 Y86.6 E25.44431
G1 X55.217 Y86.802 E25.51904
G1 X54.861 Y88.278 E25.58754
G1 X54.861 Y89.285 E25.63297
G1 X54.861 Y91.902 E25.75104
G1 X54.334 Y91.902 E25.77482
G1 X53.861 Y91.508 E25.8026
G1 X53.861 Y89.884 E25.87586
G1 X54.461 Y89.285 E25.91412
G1 X54.461 Y88.278 E25.95955
G1 X54.461 Y86.602 E26.03516
G1 X53.661 Y86.002 E26.08028
G1 X53.661 Y85.602 E26.09833
G1 X54.461 Y85.002 E26.14344
G1 X54.461 Y83.326 E26.21906
G1 X54.461 Y82.319 E26.26449
G1 X53.861 Y81.72 E26.30274
G1 X53.861 Y80.096 E26.37601
G1 X54.334 Y79.702 E26.40379
G1 X54.861 Y79.702 E26.42756
G1 X54.861 Y82.319 E26.54563
G1 X54.861 Y83.326 E26.59107
G1 X55.217 Y84.801 E26.65952
G1 X56.861 Y85.004 E26.73426
G1 X58.506 Y84.801 E26.80904
G1 X58.861 Y83.326 E26.87749
G1 X58.861 Y82.319 E26.92292
G1 X58.861 Y79.702 E27.04099
G1 X59.388 Y79.702 E27.06477
G1 X59.861 Y80.096 E27.09254
G1 X59.861 Y81.72 E27.16581
G1 X59.261 Y82.319 E27.20406
G1 X59.261 Y83.326 E27.24949
G1 X59.261 Y85.002 E27.32511
G1 X60.061 Y85.602 E27.37023
G1 X60.061 Y86.002 E27.38827
G1 X59.261 Y86.602 E27.43339
G1 X59.261 Y88.278 E27.509
G1 X59.261 Y89.285 E27.55444
G1 X59.861 Y89.884 E27.59269
G1 X59.861 Y91.508 E27.66596
G0 F3000 X59.708 Y91.636
G0 X59.427 Y91.297
G1 F2400 E26.46596
;MESH:clip_10mm_v2.stl(1)
G0 F3000 X54.551 Y105.324
;TYPE:WALL-INNER
G1 F2400 E27.66596
G1 F1500 X54.551 Y106.962 E27.73986
G1 X54.351 Y106.795 E27.75161
G1 X54.351 Y105.524 E27.78116
G1 X54.551 Y105.324 E27.79392
G1 F2400 E26.59392
G0 F3000 X59.351 Y105.324
G1 F2400 E27.79392
G1 F1500 X59.551 Y105.524 E27.80668
G1 X59.551 Y106.795 E27.86403
G1 X59.351 Y106.962 E27.87578
G1 X59.351 Y105.324 E27.91696
G1 F2400 E26.71696
G0 F3000 X58.951 Y100.509
G1 F2400 E27.91696
G1 F1500 X58.951 Y100.676 E27.92449
G1 X59.751 Y101.276 E27.96961
G1 X58.951 Y101.876 E28.01472
G1 X58.951 Y102.042 E28.02221
G1 X58.92 Y101.913
G1 X56.951 Y101.671 E28.11172
G1 X54.982 Y101.913 E28.20122
G1 X54.951 Y102.042 E28.2072
G1 X54.951 Y101.876 E28.20842
G1 X54.151 Y101.276 E28.25354
